assets/filters/Timelab 4.cube
#Generated with IWLTBAP LUT Generator
#Website: https://luts.iwltbap.com
TITLE "Neutral-512-6"
LUT_3D_SIZE 4
0.050980 0.141176 0.164706
0.239216 0.141176 0.164706
0.717647 0.050980 0.152941
0.996078 0.109804 0.117647
0.000000 0.282353 0.215686
0.215686 0.282353 0.207843
0.705882 0.325490 0.149020
1.000000 0.392157 0.062745
0.007843 0.647059 0.360784
0.239216 0.611765 0.345098
0.647059 0.662745 0.329412
0.992157 0.721569 0.254902
0.627451 0.937255 0.721569
0.658824 0.933333 0.721569
0.792157 0.921569 0.752941
0.941176 0.952941 0.776471
0.058824 0.160784 0.258824
0.247059 0.168627 0.274510
0.733333 0.003922 0.290196
0.996078 0.000000 0.243137
0.000000 0.298039 0.317647
0.262745 0.305882 0.329412
0.733333 0.305882 0.317647
0.988235 0.372549 0.266667
0.007843 0.682353 0.486275
0.337255 0.658824 0.462745
0.654902 0.662745 0.478431
0.988235 0.725490 0.407843
0.631373 0.941176 0.756863
0.678431 0.941176 0.760784
0.792157 0.925490 0.780392
0.949020 0.956863 0.803922
0.117647 0.192157 0.603922
0.411765 0.207843 0.631373
0.772549 0.298039 0.670588
1.000000 0.478431 0.705882
0.000000 0.352941 0.623529
0.360784 0.364706 0.627451
0.752941 0.486275 0.686275
1.000000 0.560784 0.701961
0.007843 0.658824 0.682353
0.207843 0.647059 0.690196
0.666667 0.682353 0.678431
0.996078 0.690196 0.674510
0.278431 0.976471 0.819608
0.474510 0.960784 0.815686
0.815686 0.949020 0.854902
0.941176 0.960784 0.866667
0.580392 0.454902 0.937255
0.682353 0.490196 0.949020
0.874510 0.600000 0.945098
1.000000 0.705882 0.929412
0.580392 0.564706 0.945098
0.662745 0.588235 0.937255
0.866667 0.670588 0.949020
1.000000 0.752941 0.929412
0.270588 0.721569 0.937255
0.419608 0.713725 0.929412
0.784314 0.776471 0.933333
0.980392 0.854902 0.937255
0.121569 0.972549 0.968627
0.380392 0.972549 0.976471
0.721569 0.980392 0.980392
0.988235 0.980392 0.984314
