assets/filters/Timelab-1.cube
#Generated with IWLTBAP LUT Generator
#Website: http://luts.iwltbap.com
TITLE "Neutral-512-5"
#LUT size
LUT_3D_SIZE 4
#LUT data points
0.074510 0.070588 0.062745
0.415686 0.000000 0.058824
0.839216 0.003922 0.043137
1.000000 0.400000 0.219608
0.298039 0.325490 0.050980
0.380392 0.388235 0.062745
0.815686 0.501961 0.000000
0.984314 0.603922 0.286275
0.600000 0.690196 0.000000
0.584314 0.709804 0.172549
0.713725 0.701961 0.149020
0.901961 0.784314 0.313725
0.847059 0.905882 0.674510
0.815686 0.917647 0.733333
0.886275 0.921569 0.745098
0.992157 0.941176 0.815686
0.000000 0.137255 0.215686
0.270588 0.188235 0.247059
0.752941 0.211765 0.274510
0.890196 0.556863 0.407843
0.407843 0.368627 0.321569
0.400000 0.435294 0.415686
0.796078 0.447059 0.431373
0.968627 0.564706 0.549020
0.600000 0.705882 0.341176
0.541176 0.725490 0.443137
0.721569 0.713725 0.423529
0.882353 0.807843 0.541176
0.858824 0.886275 0.752941
0.807843 0.921569 0.811765
0.894118 0.917647 0.807843
0.984314 0.941176 0.854902
0.003922 0.266667 0.682353
0.000000 0.258824 0.690196
0.631373 0.435294 0.682353
0.803922 0.576471 0.776471
0.349020 0.415686 0.729412
0.278431 0.458824 0.752941
0.682353 0.556863 0.749020
0.905882 0.611765 0.835294
0.501961 0.729412 0.741176
0.403922 0.737255 0.749020
0.737255 0.749020 0.776471
0.913725 0.800000 0.807843
0.858824 0.905882 0.890196
0.788235 0.917647 0.890196
0.890196 0.925490 0.905882
0.984314 0.949020 0.921569
0.003922 0.498039 0.968627
0.000000 0.498039 0.972549
0.607843 0.611765 0.964706
0.776471 0.745098 0.945098
0.325490 0.537255 0.960784
0.352941 0.584314 0.976471
0.670588 0.686275 0.972549
0.823529 0.788235 0.956863
0.560784 0.760784 0.976471
0.407843 0.756863 0.968627
0.705882 0.788235 0.972549
0.870588 0.862745 0.956863
0.752941 0.956863 0.941176
0.690196 0.960784 0.972549
0.827451 0.956863 0.976471
0.960784 0.960784 0.952941
