assets/filters/Timelab-1.cube
#Generated with IWLTBAP LUT Generator
#Website: http://luts.iwltbap.com
TITLE "Neutral-512-5"
#LUT size
LUT_3D_SIZE 64
#LUT data points
0.074510 0.070588 0.062745
0.070588 0.070588 0.062745
0.070588 0.070588 0.062745
0.074510 0.078431 0.058824
0.090196 0.074510 0.062745
0.105882 0.074510 0.062745
0.113725 0.074510 0.066667
0.129412 0.074510 0.070588
0.137255 0.078431 0.058824
0.149020 0.074510 0.058824
0.168627 0.078431 0.058824
0.188235 0.074510 0.058824
0.203922 0.074510 0.054902
0.227451 0.074510 0.054902
0.247059 0.070588 0.050980
0.262745 0.070588 0.054902
0.294118 0.050980 0.054902
0.313725 0.043137 0.054902
0.341176 0.027451 0.062745
0.360784 0.019608 0.062745
0.388235 0.003922 0.062745
0.415686 0.000000 0.058824
0.443137 0.000000 0.058824
0.470588 0.000000 0.066667
0.486275 0.000000 0.074510
0.505882 0.000000 0.078431
0.529412 0.003922 0.070588
0.556863 0.000000 0.062745
0.580392 0.000000 0.062745
0.603922 0.000000 0.062745
0.627451 0.000000 0.062745
0.643137 0.000000 0.062745
0.658824 0.007843 0.062745
0.670588 0.007843 0.066667
0.698039 0.007843 0.066667
0.721569 0.007843 0.066667
0.741176 0.003922 0.062745
0.760784 0.000000 0.062745
0.780392 0.000000 0.058824
0.800000 0.000000 0.066667
0.815686 0.000000 0.047059
0.831373 0.003922 0.047059
0.839216 0.003922 0.043137
0.850980 0.007843 0.047059
0.862745 0.003922 0.050980
0.870588 0.003922 0.043137
0.894118 0.011765 0.043137
0.905882 0.027451 0.039216
0.909804 0.098039 0.003922
0.925490 0.113725 0.011765
0.941176 0.141176 0.011765
0.952941 0.164706 0.015686
0.964706 0.188235 0.011765
0.980392 0.207843 0.003922
0.988235 0.223529 0.011765
1.000000 0.239216 0.019608
0.996078 0.254902 0.003922
1.000000 0.266667 0.000000
0.996078 0.278431 0.011765
1.000000 0.294118 0.000000
1.000000 0.305882 0.000000
1.000000 0.309804 0.003922
0.996078 0.313725 0.043137
1.000000 0.400000 0.219608
0.172549 0.039216 0.094118
0.047059 0.094118 0.039216
0.094118 0.078431 0.043137
0.109804 0.066667 0.082353
0.098039 0.082353 0.035294
0.101961 0.090196 0.054902
0.117647 0.086275 0.043137
0.149020 0.082353 0.054902
0.145098 0.086275 0.074510
0.156863 0.086275 0.070588
0.168627 0.086275 0.066667
0.184314 0.086275 0.066667
0.200000 0.086275 0.062745
0.219608 0.082353 0.058824
0.239216 0.082353 0.054902
0.262745 0.078431 0.050980
0.294118 0.066667 0.054902
0.313725 0.062745 0.058824
0.337255 0.054902 0.062745
0.360784 0.039216 0.058824
0.388235 0.023529 0.058824
0.415686 0.011765 0.058824
0.443137 0.003922 0.062745
0.462745 0.000000 0.062745
0.482353 0.000000 0.070588
0.501961 0.000000 0.074510
0.525490 0.000000 0.074510
0.556863 0.000000 0.066667
0.580392 0.000000 0.070588
0.611765 0.000000 0.062745
0.635294 0.000000 0.062745
0.650980 0.000000 0.062745
0.674510 0.000000 0.062745
0.694118 0.003922 0.062745
0.713725 0.000000 0.058824
0.729412 0.000000 0.054902
0.745098 0.000000 0.062745
0.768627 0.000000 0.066667
0.780392 0.000000 0.066667
0.800000 0.000000 0.066667
0.815686 0.000000 0.047059
0.831373 0.003922 0.047059
0.839216 0.003922 0.043137
0.854902 0.003922 0.047059
0.870588 0.003922 0.043137
0.870588 0.003922 0.035294
0.890196 0.019608 0.039216
0.913725 0.047059 0.047059
0.917647 0.113725 0.007843
0.933333 0.129412 0.015686
0.945098 0.156863 0.023529
0.956863 0.176471 0.015686
0.968627 0.200000 0.003922
0.980392 0.215686 0.003922
0.996078 0.235294 0.003922
1.000000 0.250980 0.007843
0.996078 0.262745 0.015686
1.000000 0.270588 0.000000
0.996078 0.282353 0.000000
1.000000 0.301961 0.000000
0.992157 0.309804 0.000000
1.000000 0.317647 0.011765
1.000000 0.317647 0.039216
1.000000 0.415686 0.215686
0.172549 0.050980 0.074510
0.054902 0.101961 0.047059
0.098039 0.078431 0.054902
0.109804 0.074510 0.094118
0.101961 0.090196 0.054902
0.098039 0.098039 0.050980
0.117647 0.094118 0.031373
0.145098 0.086275 0.058824
0.149020 0.094118 0.058824
0.164706 0.090196 0.062745
0.172549 0.094118 0.066667
0.188235 0.094118 0.062745
0.203922 0.090196 0.058824
0.227451 0.094118 0.058824
0.254902 0.086275 0.054902
0.270588 0.086275 0.054902
0.282353 0.082353 0.062745
0.301961 0.074510 0.062745
0.333333 0.066667 0.066667
0.360784 0.050980 0.066667
0.380392 0.039216 0.066667
0.403922 0.023529 0.062745
0.431373 0.007843 0.062745
0.447059 0.000000 0.062745
0.478431 0.007843 0.062745
0.498039 0.003922 0.058824
0.521569 0.003922 0.058824
0.549020 0.000000 0.062745
0.576471 0.000000 0.070588
0.596078 0.000000 0.066667
0.627451 0.000000 0.070588
0.643137 0.000000 0.066667
0.666667 0.003922 0.062745
0.682353 0.000000 0.058824
0.705882 0.003922 0.058824
0.729412 0.000000 0.054902
0.741176 0.000000 0.058824
0.768627 0.000000 0.062745
0.784314 0.003922 0.062745
0.800000 0.000000 0.058824
0.815686 0.000000 0.050980
0.831373 0.000000 0.054902
0.850980 0.003922 0.054902
0.862745 0.003922 0.050980
0.870588 0.003922 0.043137
0.870588 0.019608 0.031373
0.890196 0.050980 0.027451
0.913725 0.074510 0.035294
0.913725 0.121569 0.003922
0.933333 0.141176 0.015686
0.949020 0.168627 0.015686
0.960784 0.184314 0.011765
0.972549 0.203922 0.007843
0.976471 0.223529 0.000000
0.988235 0.239216 0.003922
1.000000 0.250980 0.007843
1.000000 0.270588 0.000000
1.000000 0.270588 0.000000
0.992157 0.286275 0.015686
1.000000 0.298039 0.000000
0.996078 0.313725 0.000000
0.996078 0.317647 0.011765
1.000000 0.329412 0.047059
1.000000 0.419608 0.207843
0.160784 0.058824 0.062745
0.062745 0.101961 0.058824
0.101961 0.078431 0.078431
0.094118 0.086275 0.090196
0.101961 0.105882 0.035294
0.101961 0.101961 0.062745
0.117647 0.101961 0.054902
0.145098 0.098039 0.035294
0.149020 0.101961 0.054902
0.168627 0.101961 0.062745
0.184314 0.105882 0.070588
0.196078 0.109804 0.066667
0.207843 0.101961 0.066667
0.215686 0.098039 0.058824
0.243137 0.098039 0.058824
0.254902 0.098039 0.058824
0.282353 0.090196 0.062745
0.301961 0.086275 0.066667
0.333333 0.082353 0.074510
0.360784 0.070588 0.074510
0.388235 0.058824 0.066667
0.415686 0.043137 0.066667
0.435294 0.031373 0.066667
0.447059 0.015686 0.058824
0.482353 0.003922 0.062745
0.498039 0.000000 0.066667
0.521569 0.003922 0.066667
0.549020 0.000000 0.062745
0.572549 0.000000 0.058824
0.596078 0.000000 0.058824
0.619608 0.000000 0.066667
0.643137 0.000000 0.066667
0.654902 0.003922 0.066667
0.670588 0.003922 0.074510
0.701961 0.003922 0.074510
0.717647 0.003922 0.062745
0.741176 0.003922 0.062745
0.756863 0.003922 0.062745
0.776471 0.000000 0.058824
0.796078 0.003922 0.058824
0.827451 0.000000 0.062745
0.835294 0.000000 0.058824
0.850980 0.000000 0.058824
0.854902 0.000000 0.043137
0.858824 0.003922 0.031373
0.874510 0.031373 0.031373
0.898039 0.066667 0.023529
0.913725 0.094118 0.035294
0.905882 0.137255 0.011765
0.921569 0.152941 0.019608
0.941176 0.176471 0.019608
0.952941 0.200000 0.015686
0.964706 0.215686 0.003922
0.968627 0.235294 0.000000
0.984314 0.254902 0.000000
0.996078 0.266667 0.003922
0.996078 0.274510 0.007843
1.000000 0.282353 0.000000
0.992157 0.298039 0.000000
1.000000 0.313725 0.000000
0.996078 0.321569 0.000000
1.000000 0.321569 0.023529
0.992157 0.329412 0.043137
1.000000 0.431373 0.192157
0.156863 0.082353 0.054902
0.070588 0.113725 0.047059
0.121569 0.086275 0.066667
0.109804 0.098039 0.078431
0.094118 0.113725 0.027451
0.101961 0.109804 0.066667
0.113725 0.105882 0.058824
0.137255 0.105882 0.054902
0.145098 0.105882 0.058824
0.160784 0.105882 0.062745
0.176471 0.105882 0.058824
0.196078 0.109804 0.058824
0.203922 0.113725 0.054902
0.223529 0.113725 0.058824
0.247059 0.113725 0.066667
0.262745 0.113725 0.062745
0.274510 0.109804 0.062745
0.294118 0.105882 0.066667
0.321569 0.098039 0.070588
0.352941 0.090196 0.066667
0.376471 0.082353 0.062745
0.403922 0.070588 0.062745
0.427451 0.058824 0.058824
0.439216 0.047059 0.054902
0.478431 0.003922 0.070588
0.501961 0.003922 0.078431
0.521569 0.000000 0.074510
0.545098 0.000000 0.074510
0.564706 0.000000 0.070588
0.596078 0.000000 0.074510
0.619608 0.000000 0.074510
0.639216 0.000000 0.074510
0.662745 0.003922 0.062745
0.678431 0.003922 0.058824
0.698039 0.000000 0.062745
0.721569 0.000000 0.062745
0.737255 0.000000 0.058824
0.760784 0.000000 0.062745
0.780392 0.000000 0.066667
0.800000 0.000000 0.074510
0.815686 0.000000 0.050980
0.827451 0.000000 0.054902
0.843137 0.000000 0.047059
0.854902 0.003922 0.039216
0.870588 0.031373 0.039216
0.882353 0.066667 0.035294
0.898039 0.098039 0.039216
0.909804 0.109804 0.035294
0.917647 0.149020 0.015686
0.929412 0.168627 0.027451
0.945098 0.188235 0.019608
0.956863 0.207843 0.011765
0.964706 0.227451 0.007843
0.972549 0.239216 0.000000
0.980392 0.258824 0.000000
0.992157 0.270588 0.000000
0.996078 0.282353 0.003922
1.000000 0.286275 0.000000
0.996078 0.294118 0.000000
0.996078 0.321569 0.000000
1.000000 0.325490 0.011765
0.996078 0.333333 0.039216
1.000000 0.333333 0.058824
1.000000 0.435294 0.200000
0.164706 0.086275 0.058824
0.090196 0.113725 0.058824
0.113725 0.101961 0.066667
0.105882 0.105882 0.066667
0.105882 0.117647 0.035294
0.105882 0.117647 0.074510
0.125490 0.109804 0.066667
0.137255 0.113725 0.066667
0.145098 0.117647 0.054902
0.160784 0.113725 0.058824
0.180392 0.117647 0.058824
0.188235 0.117647 0.062745
0.207843 0.121569 0.062745
0.223529 0.121569 0.062745
0.247059 0.121569 0.062745
0.254902 0.125490 0.066667
0.282353 0.121569 0.050980
0.305882 0.121569 0.058824
0.333333 0.113725 0.062745
0.356863 0.105882 0.058824
0.380392 0.098039 0.058824
0.400000 0.086275 0.058824
0.427451 0.078431 0.062745
0.439216 0.070588 0.062745
0.494118 0.043137 0.070588
0.505882 0.031373 0.066667
0.525490 0.015686 0.062745
0.545098 0.007843 0.054902
0.576471 0.003922 0.062745
0.600000 0.003922 0.062745
0.623529 0.003922 0.070588
0.639216 0.000000 0.074510
0.658824 0.000000 0.058824
0.678431 0.003922 0.066667
0.698039 0.000000 0.062745
0.721569 0.000000 0.062745
0.737255 0.000000 0.058824
0.756863 0.000000 0.058824
0.780392 0.000000 0.050980
0.800000 0.000000 0.058824
0.811765 0.000000 0.066667
0.819608 0.000000 0.054902
0.839216 0.011765 0.047059
0.858824 0.035294 0.039216
0.870588 0.070588 0.035294
0.890196 0.101961 0.031373
0.901961 0.129412 0.027451
0.909804 0.137255 0.031373
0.901961 0.180392 0.015686
0.925490 0.196078 0.015686
0.941176 0.207843 0.015686
0.952941 0.223529 0.003922
0.960784 0.239216 0.000000
0.976471 0.258824 0.000000
0.992157 0.270588 0.000000
1.000000 0.278431 0.000000
0.988235 0.286275 0.000000
1.000000 0.298039 0.000000
0.988235 0.309804 0.003922
1.000000 0.325490 0.000000
0.988235 0.333333 0.000000
0.996078 0.337255 0.019608
0.988235 0.341176 0.050980
1.000000 0.439216 0.188235
0.176471 0.101961 0.047059
0.082353 0.133333 0.054902
0.121569 0.113725 0.062745
0.109804 0.121569 0.078431
0.105882 0.137255 0.047059
0.117647 0.133333 0.078431
0.121569 0.125490 0.062745
0.137255 0.121569 0.074510
0.137255 0.125490 0.050980
0.141176 0.129412 0.054902
0.160784 0.133333 0.054902
0.180392 0.137255 0.058824
0.200000 0.133333 0.054902
0.223529 0.137255 0.054902
0.243137 0.137255 0.054902
0.250980 0.141176 0.054902
0.282353 0.133333 0.058824
0.305882 0.125490 0.062745
0.333333 0.125490 0.070588
0.360784 0.117647 0.066667
0.384314 0.113725 0.062745
0.407843 0.101961 0.062745
0.435294 0.094118 0.058824
0.447059 0.094118 0.062745
0.474510 0.078431 0.070588
0.498039 0.066667 0.070588
0.525490 0.054902 0.070588
0.545098 0.031373 0.062745
0.568627 0.011765 0.058824
0.588235 0.003922 0.050980
0.615686 0.003922 0.058824
0.627451 0.000000 0.062745
0.666667 0.003922 0.062745
0.682353 0.000000 0.066667
0.701961 0.003922 0.066667
0.721569 0.000000 0.062745
0.737255 0.000000 0.058824
0.752941 0.000000 0.058824
0.776471 0.003922 0.050980
0.788235 0.007843 0.058824
0.803922 0.007843 0.054902
0.815686 0.031373 0.050980
0.843137 0.062745 0.043137
0.858824 0.094118 0.039216
0.870588 0.125490 0.039216
0.878431 0.149020 0.031373
0.890196 0.160784 0.031373
0.898039 0.180392 0.027451
0.905882 0.203922 0.007843
0.917647 0.215686 0.015686
0.937255 0.227451 0.011765
0.949020 0.243137 0.003922
0.964706 0.258824 0.000000
0.984314 0.270588 0.000000
0.992157 0.278431 0.000000
1.000000 0.286275 0.000000
0.980392 0.298039 0.000000
1.000000 0.309804 0.003922
1.000000 0.325490 0.011765
1.000000 0.329412 0.000000
0.996078 0.341176 0.003922
0.996078 0.345098 0.023529
0.988235 0.349020 0.047059
1.000000 0.450980 0.211765
0.184314 0.105882 0.070588
0.094118 0.137255 0.074510
0.129412 0.125490 0.039216
0.105882 0.133333 0.070588
0.109804 0.145098 0.062745
0.121569 0.137255 0.078431
0.129412 0.133333 0.070588
0.152941 0.133333 0.047059
0.145098 0.141176 0.062745
0.152941 0.145098 0.058824
0.168627 0.141176 0.062745
0.184314 0.141176 0.062745
0.207843 0.145098 0.054902
0.223529 0.145098 0.050980
0.247059 0.141176 0.058824
0.254902 0.145098 0.058824
0.294118 0.152941 0.058824
0.305882 0.149020 0.058824
0.329412 0.141176 0.062745
0.356863 0.133333 0.058824
0.384314 0.129412 0.058824
0.407843 0.121569 0.054902
0.427451 0.117647 0.058824
0.450980 0.113725 0.062745
0.478431 0.101961 0.047059
0.490196 0.101961 0.050980
0.517647 0.086275 0.050980
0.545098 0.078431 0.062745
0.568627 0.058824 0.058824
0.588235 0.050980 0.058824
0.611765 0.039216 0.058824
0.627451 0.027451 0.066667
0.650980 0.011765 0.062745
0.666667 0.011765 0.058824
0.698039 0.007843 0.058824
0.717647 0.007843 0.050980
0.741176 0.015686 0.047059
0.752941 0.031373 0.047059
0.776471 0.047059 0.058824
0.792157 0.058824 0.062745
0.807843 0.078431 0.050980
0.823529 0.098039 0.047059
0.839216 0.117647 0.039216
0.850980 0.133333 0.031373
0.866667 0.152941 0.027451
0.882353 0.172549 0.019608
0.894118 0.188235 0.019608
0.901961 0.203922 0.015686
0.905882 0.231373 0.011765
0.921569 0.239216 0.011765
0.937255 0.250980 0.011765
0.949020 0.254902 0.003922
0.956863 0.274510 0.003922
0.972549 0.286275 0.007843
0.992157 0.294118 0.003922
1.000000 0.298039 0.007843
0.988235 0.317647 0.003922
0.996078 0.325490 0.015686
1.000000 0.329412 0.015686
1.000000 0.337255 0.011765
1.000000 0.345098 0.007843
0.996078 0.349020 0.000000
1.000000 0.356863 0.007843
1.000000 0.364706 0.023529
0.098039 0.141176 0.074510
0.094118 0.145098 0.074510
0.098039 0.149020 0.078431
0.098039 0.149020 0.070588
0.113725 0.149020 0.074510
0.117647 0.149020 0.066667
0.133333 0.145098 0.070588
0.141176 0.145098 0.074510
0.152941 0.149020 0.070588
0.164706 0.145098 0.062745
0.192157 0.149020 0.074510
0.207843 0.149020 0.074510
0.223529 0.152941 0.074510
0.250980 0.152941 0.074510
0.274510 0.152941 0.074510
0.290196 0.152941 0.078431
0.321569 0.145098 0.070588
0.333333 0.141176 0.074510
0.360784 0.137255 0.078431
0.388235 0.129412 0.082353
0.403922 0.121569 0.074510
0.423529 0.117647 0.070588
0.450980 0.113725 0.062745
0.462745 0.113725 0.058824
0.509804 0.094118 0.050980
0.517647 0.086275 0.050980
0.545098 0.078431 0.054902
0.560784 0.070588 0.054902
0.576471 0.062745 0.054902
0.596078 0.058824 0.058824
0.623529 0.050980 0.062745
0.639216 0.050980 0.066667
0.678431 0.043137 0.054902
0.694118 0.050980 0.054902
0.709804 0.054902 0.050980
0.717647 0.066667 0.043137
0.737255 0.078431 0.039216
0.749020 0.094118 0.031373
0.776471 0.105882 0.035294
0.792157 0.117647 0.039216
0.796078 0.141176 0.035294
0.807843 0.156863 0.039216
0.827451 0.168627 0.027451
0.847059 0.184314 0.023529
0.858824 0.200000 0.023529
0.870588 0.207843 0.007843
0.894118 0.227451 0.000000
0.905882 0.243137 0.000000
0.901961 0.254902 0.003922
0.913725 0.266667 0.007843
0.925490 0.282353 0.003922
0.933333 0.294118 0.000000
0.945098 0.309804 0.000000
0.956863 0.325490 0.000000
0.968627 0.329412 0.000000
0.976471 0.341176 0.000000
0.988235 0.341176 0.000000
0.996078 0.345098 0.000000
0.992157 0.356863 0.000000
1.000000 0.368627 0.000000
0.992157 0.372549 0.000000
0.996078 0.372549 0.011765
0.988235 0.376471 0.043137
0.988235 0.462745 0.223529
0.200000 0.145098 0.000000
0.121569 0.156863 0.090196
0.137255 0.141176 0.109804
0.109804 0.160784 0.090196
0.133333 0.152941 0.066667
0.145098 0.145098 0.105882
0.137255 0.152941 0.086275
0.164706 0.152941 0.094118
0.164706 0.156863 0.066667
0.176471 0.160784 0.062745
0.188235 0.160784 0.058824
0.203922 0.164706 0.058824
0.219608 0.164706 0.058824
0.243137 0.164706 0.058824
0.266667 0.164706 0.066667
0.282353 0.164706 0.062745
0.321569 0.164706 0.066667
0.341176 0.160784 0.070588
0.360784 0.156863 0.074510
0.388235 0.149020 0.078431
0.403922 0.141176 0.074510
0.431373 0.133333 0.070588
0.454902 0.129412 0.066667
0.470588 0.129412 0.070588
0.501961 0.121569 0.058824
0.517647 0.117647 0.062745
0.537255 0.113725 0.062745
0.564706 0.109804 0.066667
0.580392 0.101961 0.058824
0.600000 0.098039 0.054902
0.623529 0.098039 0.054902
0.639216 0.098039 0.054902
0.670588 0.098039 0.078431
0.682353 0.101961 0.070588
0.701961 0.105882 0.054902
0.717647 0.113725 0.050980
0.737255 0.125490 0.047059
0.752941 0.137255 0.039216
0.772549 0.149020 0.035294
0.784314 0.156863 0.031373
0.803922 0.176471 0.035294
0.815686 0.192157 0.035294
0.831373 0.196078 0.015686
0.847059 0.207843 0.015686
0.862745 0.227451 0.007843
0.870588 0.239216 0.000000
0.882353 0.254902 0.000000
0.898039 0.274510 0.000000
0.901961 0.274510 0.000000
0.913725 0.290196 0.003922
0.925490 0.301961 0.003922
0.937255 0.317647 0.000000
0.949020 0.321569 0.000000
0.956863 0.329412 0.000000
0.972549 0.341176 0.000000
0.980392 0.349020 0.000000
0.984314 0.349020 0.000000
1.000000 0.352941 0.000000
0.992157 0.360784 0.007843
1.000000 0.372549 0.003922
0.988235 0.380392 0.000000
0.996078 0.388235 0.003922
0.984314 0.384314 0.039216
0.984314 0.470588 0.227451
0.203922 0.152941 0.019608
0.121569 0.172549 0.066667
0.141176 0.156863 0.090196
0.113725 0.176471 0.074510
0.133333 0.172549 0.039216
0.149020 0.156863 0.101961
0.137255 0.164706 0.094118
0.160784 0.168627 0.074510
0.156863 0.172549 0.074510
0.164706 0.176471 0.070588
0.176471 0.176471 0.074510
0.192157 0.176471 0.070588
0.207843 0.180392 0.078431
0.227451 0.180392 0.078431
0.262745 0.184314 0.086275
0.278431 0.184314 0.082353
0.317647 0.180392 0.054902
0.333333 0.180392 0.058824
0.356863 0.172549 0.054902
0.384314 0.168627 0.050980
0.407843 0.168627 0.058824
0.435294 0.160784 0.058824
0.462745 0.156863 0.066667
0.478431 0.156863 0.062745
0.509804 0.145098 0.078431
0.525490 0.145098 0.078431
0.552941 0.141176 0.066667
0.572549 0.137255 0.062745
0.592157 0.133333 0.062745
0.611765 0.133333 0.058824
0.631373 0.129412 0.054902
0.647059 0.129412 0.050980
0.666667 0.129412 0.066667
0.686275 0.133333 0.058824
0.705882 0.141176 0.058824
0.725490 0.149020 0.047059
0.745098 0.160784 0.043137
0.756863 0.168627 0.031373
0.772549 0.184314 0.019608
0.792157 0.188235 0.015686
0.792157 0.211765 0.023529
0.800000 0.215686 0.019608
0.827451 0.227451 0.023529
0.850980 0.239216 0.019608
0.862745 0.247059 0.015686
0.866667 0.254902 0.000000
0.882353 0.274510 0.000000
0.894118 0.290196 0.000000
0.901961 0.294118 0.000000
0.913725 0.309804 0.003922
0.933333 0.317647 0.007843
0.937255 0.325490 0.000000
0.945098 0.337255 0.000000
0.956863 0.341176 0.000000
0.964706 0.352941 0.000000
0.976471 0.364706 0.003922
0.992157 0.364706 0.000000
1.000000 0.368627 0.000000
0.992157 0.384314 0.000000
0.996078 0.388235 0.003922
0.996078 0.392157 0.015686
0.996078 0.396078 0.000000
0.988235 0.396078 0.039216
0.984314 0.478431 0.223529
0.227451 0.152941 0.023529
0.117647 0.192157 0.074510
0.145098 0.176471 0.078431
0.133333 0.184314 0.078431
0.145098 0.188235 0.070588
0.149020 0.180392 0.098039
0.156863 0.180392 0.070588
0.168627 0.176471 0.086275
0.160784 0.196078 0.074510
0.172549 0.192157 0.074510
0.188235 0.188235 0.078431
0.192157 0.188235 0.070588
0.207843 0.188235 0.070588
0.227451 0.192157 0.070588
0.250980 0.192157 0.078431
0.262745 0.196078 0.078431
0.309804 0.200000 0.047059
0.329412 0.203922 0.050980
0.356863 0.200000 0.058824
0.384314 0.192157 0.062745
0.403922 0.192157 0.058824
0.435294 0.188235 0.058824
0.458824 0.180392 0.062745
0.474510 0.180392 0.066667
0.513725 0.172549 0.066667
0.529412 0.172549 0.066667
0.549020 0.168627 0.070588
0.572549 0.164706 0.058824
0.592157 0.160784 0.054902
0.611765 0.156863 0.058824
0.635294 0.160784 0.058824
0.650980 0.156863 0.062745
0.678431 0.164706 0.054902
0.698039 0.168627 0.054902
0.717647 0.172549 0.050980
0.729412 0.180392 0.043137
0.752941 0.192157 0.035294
0.764706 0.200000 0.027451
0.780392 0.207843 0.023529
0.796078 0.211765 0.023529
0.796078 0.243137 0.000000
0.811765 0.250980 0.000000
0.835294 0.258824 0.007843
0.850980 0.266667 0.015686
0.862745 0.270588 0.015686
0.870588 0.282353 0.011765
0.878431 0.298039 0.007843
0.886275 0.309804 0.003922
0.913725 0.317647 0.000000
0.921569 0.325490 0.000000
0.933333 0.333333 0.000000
0.941176 0.341176 0.000000
0.956863 0.349020 0.000000
0.960784 0.352941 0.000000
0.976471 0.364706 0.003922
0.980392 0.368627 0.007843
0.988235 0.376471 0.003922
1.000000 0.380392 0.000000
0.984314 0.380392 0.000000
0.992157 0.388235 0.003922
0.992157 0.400000 0.011765
1.000000 0.411765 0.015686
0.996078 0.411765 0.043137
0.988235 0.494118 0.235294
0.247059 0.156863 0.035294
0.113725 0.207843 0.082353
0.141176 0.192157 0.082353
0.152941 0.196078 0.078431
0.168627 0.196078 0.066667
0.160784 0.196078 0.090196
0.160784 0.207843 0.066667
0.180392 0.200000 0.082353
0.160784 0.203922 0.070588
0.168627 0.207843 0.074510
0.184314 0.207843 0.074510
0.200000 0.203922 0.070588
0.215686 0.203922 0.074510
0.227451 0.203922 0.070588
0.247059 0.207843 0.078431
0.262745 0.203922 0.074510
0.309804 0.219608 0.047059
0.329412 0.215686 0.050980
0.352941 0.215686 0.050980
0.380392 0.211765 0.054902
0.403922 0.211765 0.054902
0.439216 0.211765 0.066667
0.462745 0.211765 0.070588
0.474510 0.207843 0.070588
0.513725 0.203922 0.043137
0.529412 0.203922 0.047059
0.552941 0.203922 0.047059
0.572549 0.200000 0.043137
0.596078 0.196078 0.039216
0.619608 0.200000 0.043137
0.643137 0.200000 0.043137
0.658824 0.196078 0.047059
0.678431 0.200000 0.047059
0.690196 0.207843 0.047059
0.709804 0.211765 0.043137
0.725490 0.223529 0.039216
0.737255 0.231373 0.027451
0.756863 0.239216 0.019608
0.776471 0.243137 0.015686
0.788235 0.250980 0.015686
0.800000 0.274510 0.000000
0.819608 0.278431 0.000000
0.839216 0.282353 0.000000
0.850980 0.290196 0.000000
0.858824 0.298039 0.000000
0.870588 0.313725 0.000000
0.882353 0.325490 0.000000
0.886275 0.333333 0.000000
0.921569 0.333333 0.000000
0.929412 0.341176 0.000000
0.937255 0.352941 0.000000
0.949020 0.356863 0.000000
0.956863 0.368627 0.000000
0.968627 0.372549 0.003922
0.972549 0.376471 0.007843
0.980392 0.384314 0.015686
1.000000 0.384314 0.000000
1.000000 0.392157 0.000000
1.000000 0.396078 0.003922
0.996078 0.403922 0.007843
1.000000 0.403922 0.007843
0.996078 0.411765 0.003922
1.000000 0.411765 0.039216
0.992157 0.498039 0.227451
0.254902 0.176471 0.039216
0.129412 0.227451 0.070588
0.129412 0.227451 0.074510
0.152941 0.211765 0.082353
0.168627 0.211765 0.043137
0.156863 0.219608 0.078431
0.172549 0.219608 0.078431
0.176471 0.223529 0.074510
0.168627 0.227451 0.074510
0.180392 0.219608 0.074510
0.192157 0.223529 0.078431
0.203922 0.219608 0.074510
0.215686 0.223529 0.070588
0.231373 0.223529 0.074510
0.250980 0.219608 0.074510
0.270588 0.219608 0.082353
0.301961 0.223529 0.078431
0.325490 0.227451 0.078431
0.352941 0.227451 0.074510
0.376471 0.231373 0.066667
0.400000 0.231373 0.062745
0.423529 0.235294 0.047059
0.447059 0.235294 0.047059
0.474510 0.239216 0.050980
0.505882 0.247059 0.058824
0.521569 0.239216 0.050980
0.549020 0.231373 0.054902
0.572549 0.227451 0.050980
0.596078 0.227451 0.047059
0.615686 0.231373 0.047059
0.639216 0.231373 0.054902
0.654902 0.231373 0.050980
0.674510 0.235294 0.039216
0.694118 0.239216 0.039216
0.713725 0.243137 0.039216
0.725490 0.250980 0.035294
0.737255 0.262745 0.023529
0.756863 0.266667 0.015686
0.776471 0.270588 0.007843
0.788235 0.278431 0.011765
0.800000 0.294118 0.000000
0.819608 0.298039 0.003922
0.843137 0.305882 0.007843
0.850980 0.313725 0.000000
0.862745 0.329412 0.000000
0.870588 0.337255 0.000000
0.874510 0.345098 0.000000
0.878431 0.349020 0.000000
0.913725 0.352941 0.007843
0.925490 0.356863 0.007843
0.941176 0.364706 0.011765
