assets/filters/Timelab 4.cube
#Generated with IWLTBAP LUT Generator
#Website: https://luts.iwltbap.com
TITLE "Neutral-512-6"
LUT_3D_SIZE 8
0.050980 0.141176 0.164706
0.105882 0.137255 0.176471
0.192157 0.149020 0.180392
0.360784 0.137255 0.164706
0.580392 0.094118 0.164706
0.788235 0.023529 0.160784
0.949020 0.027451 0.125490
0.996078 0.109804 0.117647
0.050980 0.164706 0.180392
0.090196 0.172549 0.176471
0.203922 0.172549 0.164706
0.360784 0.180392 0.180392
0.580392 0.168627 0.156863
0.780392 0.149020 0.137255
0.941176 0.164706 0.121569
0.996078 0.215686 0.109804
0.000000 0.235294 0.196078
0.070588 0.235294 0.196078
0.180392 0.247059 0.184314
0.372549 0.262745 0.168627
0.572549 0.270588 0.160784
0.764706 0.282353 0.152941
0.929412 0.313725 0.105882
1.000000 0.337255 0.074510
0.000000 0.384314 0.231373
0.000000 0.364706 0.219608
0.168627 0.349020 0.239216
0.341176 0.384314 0.219608
0.584314 0.427451 0.184314
0.764706 0.435294 0.149020
0.917647 0.458824 0.113725
1.000000 0.486275 0.066667
0.003922 0.541176 0.305882
0.003922 0.529412 0.282353
0.145098 0.509804 0.294118
0.341176 0.498039 0.294118
0.537255 0.549020 0.270588
0.764706 0.607843 0.227451
0.905882 0.615686 0.188235
0.996078 0.627451 0.145098
0.003922 0.701961 0.403922
0.003922 0.694118 0.392157
0.192157 0.678431 0.364706
0.396078 0.658824 0.388235
0.529412 0.666667 0.407843
0.694118 0.717647 0.372549
0.874510 0.760784 0.352941
0.984314 0.768627 0.313725
0.317647 0.827451 0.533333
0.313725 0.815686 0.505882
0.380392 0.815686 0.513725
0.494118 0.815686 0.525490
0.596078 0.792157 0.537255
0.694118 0.815686 0.549020
0.827451 0.843137 0.541176
0.941176 0.870588 0.533333
0.627451 0.937255 0.721569
0.623529 0.933333 0.717647
0.643137 0.937255 0.717647
0.694118 0.929412 0.729412
0.745098 0.925490 0.745098
0.800000 0.921569 0.760784
0.870588 0.937255 0.764706
0.941176 0.952941 0.776471
0.054902 0.149020 0.180392
0.094118 0.149020 0.184314
0.180392 0.149020 0.192157
0.368627 0.129412 0.188235
0.588235 0.086275 0.176471
0.792157 0.019608 0.168627
0.960784 0.070588 0.149020
1.000000 0.152941 0.113725
0.047059 0.168627 0.188235
0.098039 0.172549 0.188235
0.196078 0.176471 0.192157
0.368627 0.176471 0.200000
0.596078 0.152941 0.192157
0.796078 0.141176 0.180392
0.952941 0.168627 0.141176
1.000000 0.231373 0.105882
0.000000 0.254902 0.231373
0.066667 0.243137 0.223529
0.192157 0.243137 0.215686
0.380392 0.266667 0.203922
0.596078 0.270588 0.200000
0.784314 0.286275 0.188235
0.945098 0.317647 0.145098
1.000000 0.341176 0.117647
0.003922 0.400000 0.266667
0.000000 0.388235 0.258824
0.180392 0.368627 0.266667
0.360784 0.392157 0.247059
0.588235 0.435294 0.219608
0.772549 0.447059 0.188235
0.925490 0.466667 0.164706
1.000000 0.490196 0.129412
0.000000 0.564706 0.341176
0.007843 0.549020 0.349020
0.152941 0.533333 0.317647
0.356863 0.509804 0.325490
0.549020 0.556863 0.309804
0.768627 0.611765 0.278431
0.909804 0.627451 0.235294
1.000000 0.631373 0.215686
0.015686 0.717647 0.427451
0.125490 0.709804 0.423529
0.219608 0.698039 0.403922
0.419608 0.678431 0.427451
0.533333 0.670588 0.435294
0.701961 0.721569 0.407843
0.874510 0.776471 0.384314
0.980392 0.772549 0.364706
0.368627 0.835294 0.568627
0.376471 0.835294 0.556863
0.407843 0.827451 0.545098
0.505882 0.823529 0.545098
0.607843 0.803922 0.556863
0.701961 0.819608 0.576471
0.823529 0.847059 0.564706
0.941176 0.878431 0.545098
0.643137 0.933333 0.741176
0.647059 0.937255 0.737255
0.654902 0.929412 0.725490
0.698039 0.933333 0.733333
0.756863 0.925490 0.756863
0.807843 0.925490 0.776471
0.858824 0.941176 0.780392
0.937255 0.960784 0.772549
0.062745 0.149020 0.231373
0.109804 0.152941 0.231373
0.192157 0.160784 0.243137
0.352941 0.164706 0.258824
0.603922 0.054902 0.270588
0.800000 0.000000 0.247059
0.949020 0.007843 0.231373
1.000000 0.043137 0.211765
0.047059 0.176471 0.250980
0.109804 0.184314 0.250980
0.196078 0.192157 0.254902
0.360784 0.196078 0.282353
0.592157 0.113725 0.258824
0.796078 0.054902 0.243137
0.956863 0.094118 0.243137
0.992157 0.176471 0.207843
0.000000 0.258824 0.290196
0.019608 0.250980 0.282353
0.188235 0.262745 0.278431
0.376471 0.262745 0.282353
0.596078 0.258824 0.262745
0.792157 0.258824 0.266667
0.945098 0.286275 0.247059
1.000000 0.329412 0.219608
0.000000 0.427451 0.352941
0.000000 0.427451 0.345098
0.196078 0.400000 0.341176
0.368627 0.396078 0.325490
0.584314 0.423529 0.305882
0.764706 0.435294 0.286275
0.929412 0.458824 0.270588
1.000000 0.470588 0.247059
0.007843 0.584314 0.411765
0.007843 0.568627 0.396078
0.219608 0.560784 0.396078
0.384314 0.529412 0.392157
0.549020 0.552941 0.380392
0.760784 0.611765 0.368627
0.901961 0.611765 0.333333
0.996078 0.627451 0.294118
0.000000 0.725490 0.498039
0.074510 0.713725 0.482353
0.309804 0.717647 0.486275
0.423529 0.694118 0.470588
0.545098 0.670588 0.478431
0.698039 0.721569 0.470588
0.874510 0.768627 0.466667
0.980392 0.768627 0.423529
0.352941 0.847059 0.600000
0.380392 0.843137 0.600000
0.462745 0.827451 0.603922
0.517647 0.823529 0.580392
0.619608 0.811765 0.596078
0.721569 0.819608 0.596078
0.823529 0.847059 0.596078
0.949020 0.878431 0.596078
0.643137 0.941176 0.760784
0.658824 0.937255 0.764706
0.670588 0.933333 0.752941
0.701961 0.933333 0.745098
0.752941 0.937255 0.772549
0.807843 0.925490 0.784314
0.870588 0.941176 0.792157
0.933333 0.960784 0.800000
0.054902 0.160784 0.329412
0.129412 0.160784 0.345098
0.247059 0.172549 0.352941
0.388235 0.176471 0.368627
0.568627 0.192157 0.388235
0.800000 0.129412 0.407843
0.956863 0.003922 0.403922
1.000000 0.000000 0.356863
0.019608 0.188235 0.345098
0.121569 0.192157 0.349020
0.258824 0.200000 0.368627
0.411765 0.223529 0.388235
0.580392 0.231373 0.403922
0.792157 0.188235 0.423529
0.956863 0.086275 0.396078
0.992157 0.003922 0.360784
0.000000 0.266667 0.368627
0.035294 0.258824 0.356863
0.207843 0.274510 0.376471
0.411765 0.301961 0.400000
0.584314 0.329412 0.423529
0.788235 0.278431 0.419608
0.937255 0.243137 0.388235
1.000000 0.274510 0.349020
0.003922 0.396078 0.427451
0.000000 0.396078 0.415686
0.168627 0.392157 0.427451
0.384314 0.411765 0.435294
0.580392 0.415686 0.431373
0.772549 0.427451 0.423529
0.925490 0.435294 0.411765
0.996078 0.458824 0.388235
0.000000 0.619608 0.529412
0.000000 0.615686 0.525490
0.047059 0.596078 0.498039
0.400000 0.576471 0.494118
0.564706 0.560784 0.474510
0.741176 0.600000 0.466667
0.890196 0.611765 0.443137
1.000000 0.615686 0.431373
0.000000 0.749020 0.568627
0.007843 0.745098 0.588235
0.215686 0.729412 0.564706
0.462745 0.717647 0.552941
0.572549 0.698039 0.552941
0.709804 0.717647 0.560784
0.878431 0.764706 0.537255
0.976471 0.760784 0.505882
0.235294 0.854902 0.654902
0.294118 0.858824 0.647059
0.407843 0.847059 0.647059
0.552941 0.843137 0.650980
0.627451 0.831373 0.643137
0.713725 0.819608 0.643137
0.823529 0.850980 0.650980
0.945098 0.878431 0.658824
0.588235 0.949020 0.764706
0.607843 0.945098 0.760784
0.658824 0.945098 0.776471
0.721569 0.937255 0.784314
0.756863 0.937255 0.788235
0.815686 0.929412 0.803922
0.866667 0.945098 0.807843
0.937255 0.960784 0.819608
0.058824 0.180392 0.494118
0.152941 0.180392 0.494118
0.298039 0.188235 0.517647
0.486275 0.203922 0.533333
0.635294 0.223529 0.545098
0.768627 0.270588 0.556863
0.937255 0.341176 0.592157
1.000000 0.313725 0.584314
0.023529 0.219608 0.505882
0.145098 0.215686 0.505882
0.298039 0.235294 0.517647
0.486275 0.250980 0.541176
0.631373 0.274510 0.549020
0.768627 0.313725 0.560784
0.921569 0.376471 0.600000
0.996078 0.349020 0.588235
0.000000 0.294118 0.498039
0.050980 0.298039 0.505882
0.266667 0.301961 0.517647
0.458824 0.329412 0.537255
0.639216 0.372549 0.572549
0.760784 0.411765 0.584314
0.925490 0.431373 0.615686
1.000000 0.396078 0.580392
0.011765 0.396078 0.533333
0.003922 0.396078 0.537255
0.184314 0.407843 0.521569
0.415686 0.419608 0.541176
0.615686 0.482353 0.580392
0.745098 0.521569 0.596078
0.905882 0.498039 0.596078
0.996078 0.447059 0.545098
0.000000 0.564706 0.584314
0.011765 0.552941 0.592157
0.125490 0.549020 0.588235
0.376471 0.560784 0.592157
0.564706 0.580392 0.592157
0.741176 0.584314 0.588235
0.894118 0.588235 0.572549
1.000000 0.588235 0.560784
0.000000 0.768627 0.690196
0.003922 0.768627 0.682353
0.000000 0.768627 0.682353
0.352941 0.752941 0.666667
0.580392 0.729412 0.639216
0.717647 0.713725 0.635294
0.866667 0.752941 0.627451
0.968627 0.741176 0.596078
0.000000 0.882353 0.717647
0.003922 0.874510 0.705882
0.235294 0.870588 0.709804
0.470588 0.862745 0.713725
0.647059 0.839216 0.713725
0.733333 0.831373 0.717647
0.823529 0.847059 0.705882
0.945098 0.886275 0.725490
0.403922 0.956863 0.780392
0.454902 0.960784 0.772549
0.556863 0.960784 0.792157
0.670588 0.945098 0.800000
0.764706 0.949020 0.823529
0.819608 0.937255 0.827451
0.878431 0.941176 0.839216
0.952941 0.952941 0.843137
0.168627 0.203922 0.662745
0.243137 0.211765 0.678431
0.400000 0.211765 0.682353
0.552941 0.239216 0.682353
0.709804 0.309804 0.709804
0.835294 0.352941 0.717647
0.898039 0.415686 0.701961
1.000000 0.549020 0.749020
0.164706 0.250980 0.678431
0.239216 0.247059 0.678431
0.372549 0.258824 0.682353
0.549020 0.286275 0.698039
0.705882 0.349020 0.713725
0.819608 0.396078 0.729412
0.901961 0.450980 0.713725
0.996078 0.568627 0.760784
0.062745 0.321569 0.666667
0.168627 0.325490 0.670588
0.349020 0.341176 0.670588
0.537255 0.368627 0.690196
0.698039 0.435294 0.717647
0.819608 0.482353 0.721569
0.886275 0.525490 0.717647
0.988235 0.611765 0.756863
0.000000 0.423529 0.654902
0.000000 0.419608 0.639216
0.266667 0.423529 0.654902
0.474510 0.458824 0.690196
0.670588 0.513725 0.717647
0.796078 0.584314 0.733333
0.882353 0.611765 0.741176
0.980392 0.643137 0.749020
0.000000 0.552941 0.686275
0.000000 0.552941 0.678431
0.156863 0.549020 0.690196
0.376471 0.552941 0.674510
0.580392 0.584314 0.694118
0.772549 0.658824 0.737255
0.862745 0.690196 0.741176
0.980392 0.678431 0.749020
0.000000 0.709804 0.733333
0.000000 0.709804 0.729412
0.070588 0.698039 0.729412
0.360784 0.709804 0.733333
0.556863 0.709804 0.729412
0.713725 0.729412 0.733333
0.854902 0.733333 0.725490
0.996078 0.729412 0.729412
0.011765 0.882353 0.815686
0.000000 0.882353 0.819608
0.000000 0.882353 0.807843
0.356863 0.882353 0.815686
0.572549 0.878431 0.792157
0.737255 0.858824 0.788235
0.835294 0.847059 0.780392
0.945098 0.882353 0.792157
0.152941 0.972549 0.839216
0.235294 0.984314 0.850980
0.380392 0.972549 0.835294
0.541176 0.968627 0.847059
0.698039 0.956863 0.847059
0.827451 0.952941 0.862745
0.878431 0.945098 0.874510
0.949020 0.964706 0.870588
0.360784 0.278431 0.831373
0.411765 0.282353 0.835294
0.505882 0.298039 0.823529
0.639216 0.329412 0.839216
0.764706 0.396078 0.843137
0.874510 0.498039 0.847059
0.945098 0.521569 0.854902
0.980392 0.560784 0.827451
0.372549 0.321569 0.835294
0.419608 0.313725 0.819608
0.498039 0.341176 0.831373
0.639216 0.368627 0.835294
0.760784 0.435294 0.850980
0.870588 0.521569 0.850980
0.933333 0.556863 0.847059
0.976471 0.592157 0.831373
0.333333 0.396078 0.831373
0.372549 0.400000 0.815686
0.486275 0.411765 0.823529
0.619608 0.447059 0.831373
0.749020 0.505882 0.847059
0.862745 0.576471 0.847059
0.929412 0.611765 0.850980
0.968627 0.643137 0.831373
0.211765 0.474510 0.819608
0.266667 0.482353 0.803922
0.419608 0.490196 0.819608
0.572549 0.517647 0.827451
0.713725 0.576471 0.835294
0.839216 0.631373 0.843137
0.905882 0.682353 0.850980
0.956863 0.705882 0.843137
0.000000 0.580392 0.800000
0.007843 0.580392 0.803922
0.200000 0.572549 0.792157
0.443137 0.584314 0.811765
0.662745 0.623529 0.831373
0.800000 0.690196 0.847059
0.890196 0.749020 0.858824
0.949020 0.772549 0.854902
0.000000 0.709804 0.831373
0.000000 0.705882 0.843137
0.149020 0.698039 0.819608
0.372549 0.698039 0.823529
0.537255 0.698039 0.807843
0.725490 0.725490 0.827451
0.870588 0.807843 0.858824
0.949020 0.831373 0.870588
0.000000 0.839216 0.862745
0.007843 0.835294 0.847059
0.180392 0.843137 0.862745
0.388235 0.839216 0.858824
0.564706 0.843137 0.858824
0.709804 0.839216 0.858824
0.847059 0.854902 0.850980
0.949020 0.870588 0.866667
0.003922 0.980392 0.917647
0.000000 0.976471 0.913725
0.247059 0.976471 0.925490
0.435294 0.976471 0.917647
0.600000 0.980392 0.913725
0.760784 0.968627 0.921569
0.894118 0.964706 0.917647
0.964706 0.964706 0.925490
0.580392 0.454902 0.937255
0.615686 0.466667 0.949020
0.666667 0.478431 0.949020
0.737255 0.501961 0.945098
0.815686 0.560784 0.937255
0.901961 0.623529 0.937255
0.960784 0.694118 0.933333
1.000000 0.705882 0.929412
0.588235 0.490196 0.949020
0.603922 0.498039 0.949020
0.658824 0.501961 0.949020
0.737255 0.529412 0.945098
0.815686 0.580392 0.933333
0.898039 0.639216 0.929412
0.960784 0.713725 0.937255
1.000000 0.713725 0.929412
0.588235 0.545098 0.952941
0.603922 0.545098 0.941176
0.654902 0.552941 0.941176
0.733333 0.580392 0.945098
0.807843 0.623529 0.945098
0.890196 0.674510 0.929412
0.949020 0.737255 0.933333
0.992157 0.741176 0.937255
0.545098 0.600000 0.949020
0.568627 0.596078 0.941176
0.611765 0.615686 0.941176
0.713725 0.631373 0.933333
0.792157 0.670588 0.937255
0.870588 0.717647 0.941176
0.945098 0.768627 0.929412
0.988235 0.784314 0.941176
0.396078 0.658824 0.937255
0.415686 0.662745 0.933333
0.513725 0.658824 0.933333
0.639216 0.682353 0.941176
0.749020 0.717647 0.941176
0.858824 0.756863 0.933333
0.925490 0.811765 0.937255
0.968627 0.835294 0.941176
0.250980 0.752941 0.945098
0.286275 0.749020 0.937255
0.368627 0.752941 0.945098
0.482353 0.749020 0.925490
0.643137 0.752941 0.937255
0.803922 0.796078 0.941176
0.921569 0.843137 0.949020
0.964706 0.874510 0.945098
0.160784 0.866667 0.952941
0.215686 0.866667 0.952941
0.329412 0.862745 0.949020
0.466667 0.858824 0.952941
0.600000 0.866667 0.949020
0.717647 0.862745 0.937255
0.890196 0.886275 0.956863
0.972549 0.933333 0.964706
0.121569 0.972549 0.968627
0.188235 0.968627 0.972549
0.329412 0.972549 0.976471
0.478431 0.972549 0.968627
0.623529 0.976471 0.976471
0.776471 0.972549 0.968627
0.901961 0.976471 0.968627
0.988235 0.980392 0.984314
