assets/filters/Timelab-1.cube
#Generated with IWLTBAP LUT Generator
#Website: http://luts.iwltbap.com
TITLE "Neutral-512-5"
#LUT size
LUT_3D_SIZE 8
#LUT data points
0.074510 0.070588 0.062745
0.149020 0.074510 0.058824
0.341176 0.027451 0.062745
0.556863 0.000000 0.062745
0.741176 0.003922 0.062745
0.870588 0.003922 0.043137
0.988235 0.223529 0.011765
1.000000 0.400000 0.219608
0.200000 0.145098 0.000000
0.176471 0.160784 0.062745
0.360784 0.156863 0.074510
0.564706 0.109804 0.066667
0.737255 0.125490 0.047059
0.870588 0.239216 0.000000
0.972549 0.341176 0.000000
0.984314 0.470588 0.227451
0.282353 0.258824 0.054902
0.219608 0.325490 0.062745
0.321569 0.317647 0.066667
0.521569 0.360784 0.015686
0.721569 0.419608 0.003922
0.862745 0.439216 0.015686
0.968627 0.478431 0.000000
0.988235 0.564706 0.250980
0.384314 0.439216 0.000000
0.290196 0.498039 0.050980
0.400000 0.486275 0.050980
0.494118 0.486275 0.043137
0.650980 0.521569 0.007843
0.827451 0.592157 0.003922
0.960784 0.611765 0.101961
0.968627 0.674510 0.309804
0.521569 0.592157 0.027451
0.415686 0.635294 0.105882
0.505882 0.631373 0.133333
0.576471 0.619608 0.117647
0.643137 0.611765 0.121569
0.745098 0.639216 0.094118
0.909804 0.701961 0.160784
0.937255 0.756863 0.329412
0.631373 0.725490 0.000000
0.541176 0.756863 0.196078
0.580392 0.756863 0.196078
0.647059 0.752941 0.207843
0.698039 0.749020 0.192157
0.752941 0.745098 0.168627
0.850980 0.752941 0.156863
0.882353 0.803922 0.321569
0.686275 0.854902 0.058824
0.588235 0.862745 0.333333
0.627451 0.862745 0.345098
0.694118 0.854902 0.345098
0.741176 0.854902 0.349020
0.807843 0.847059 0.356863
0.854902 0.854902 0.329412
0.878431 0.882353 0.423529
0.847059 0.905882 0.674510
0.784314 0.913725 0.737255
0.815686 0.917647 0.741176
0.831373 0.917647 0.733333
0.866667 0.917647 0.745098
0.901961 0.925490 0.752941
0.952941 0.921569 0.768627
0.992157 0.941176 0.815686
0.039216 0.098039 0.070588
0.082353 0.121569 0.086275
0.219608 0.145098 0.082353
0.450980 0.176471 0.086275
0.658824 0.207843 0.054902
0.807843 0.321569 0.000000
0.937255 0.400000 0.000000
0.874510 0.592157 0.121569
0.243137 0.133333 0.082353
0.176471 0.172549 0.156863
0.345098 0.164706 0.164706
0.552941 0.133333 0.164706
0.725490 0.149020 0.152941
0.866667 0.247059 0.160784
0.972549 0.337255 0.156863
0.972549 0.470588 0.317647
0.309804 0.274510 0.121569
0.207843 0.337255 0.168627
0.333333 0.341176 0.156863
0.541176 0.376471 0.149020
0.721569 0.419608 0.152941
0.862745 0.439216 0.149020
0.972549 0.474510 0.172549
0.988235 0.545098 0.341176
0.400000 0.470588 0.082353
0.298039 0.505882 0.184314
0.411765 0.501961 0.188235
0.517647 0.494118 0.196078
0.654902 0.537255 0.160784
0.831373 0.600000 0.192157
0.956863 0.611765 0.227451
0.964706 0.674510 0.396078
0.556863 0.600000 0.121569
0.419608 0.639216 0.203922
0.498039 0.639216 0.215686
0.580392 0.631373 0.215686
0.647059 0.619608 0.196078
0.752941 0.643137 0.211765
0.913725 0.705882 0.250980
0.925490 0.752941 0.411765
0.623529 0.737255 0.133333
0.525490 0.760784 0.266667
0.576471 0.752941 0.278431
0.643137 0.756863 0.262745
0.701961 0.745098 0.266667
0.756863 0.745098 0.239216
0.847059 0.756863 0.239216
0.874510 0.811765 0.368627
0.694118 0.847059 0.188235
0.600000 0.858824 0.372549
0.615686 0.870588 0.376471
0.682353 0.858824 0.384314
0.745098 0.870588 0.388235
0.796078 0.858824 0.380392
0.858824 0.862745 0.364706
0.862745 0.890196 0.474510
0.850980 0.898039 0.709804
0.780392 0.917647 0.752941
0.811765 0.921569 0.760784
0.843137 0.913725 0.756863
0.870588 0.917647 0.760784
0.905882 0.925490 0.768627
0.945098 0.925490 0.776471
0.992157 0.941176 0.815686
0.011765 0.121569 0.164706
0.050980 0.137255 0.180392
0.211765 0.168627 0.200000
0.443137 0.152941 0.203922
0.639216 0.180392 0.211765
0.807843 0.294118 0.215686
0.925490 0.388235 0.215686
0.890196 0.576471 0.337255
0.278431 0.152941 0.211765
0.129412 0.188235 0.309804
0.294118 0.215686 0.313725
0.549020 0.172549 0.352941
0.713725 0.156863 0.345098
0.847059 0.196078 0.345098
0.968627 0.266667 0.349020
0.972549 0.423529 0.486275
0.372549 0.282353 0.250980
0.160784 0.352941 0.329412
0.341176 0.364706 0.356863
0.541176 0.352941 0.337255
0.705882 0.376471 0.337255
0.843137 0.403922 0.356863
0.956863 0.443137 0.364706
0.984314 0.521569 0.486275
0.431373 0.474510 0.305882
0.247059 0.513725 0.352941
0.392157 0.517647 0.372549
0.525490 0.509804 0.364706
0.682353 0.549020 0.372549
0.831373 0.588235 0.388235
0.945098 0.592157 0.403922
0.968627 0.658824 0.529412
0.537255 0.623529 0.301961
0.376471 0.650980 0.376471
0.466667 0.650980 0.376471
0.584314 0.643137 0.388235
0.650980 0.631373 0.364706
0.776471 0.658824 0.376471
0.929412 0.709804 0.419608
0.913725 0.760784 0.545098
0.627451 0.737255 0.301961
0.498039 0.756863 0.403922
0.549020 0.764706 0.407843
0.627451 0.764706 0.396078
0.694118 0.752941 0.396078
0.756863 0.745098 0.364706
0.854902 0.768627 0.372549
0.874510 0.811765 0.466667
0.666667 0.854902 0.325490
0.568627 0.870588 0.462745
0.607843 0.858824 0.478431
0.666667 0.862745 0.474510
0.737255 0.862745 0.466667
0.788235 0.870588 0.466667
0.854902 0.862745 0.443137
0.862745 0.905882 0.529412
0.843137 0.898039 0.756863
0.788235 0.917647 0.796078
0.803922 0.917647 0.792157
0.839216 0.913725 0.788235
0.866667 0.921569 0.792157
0.898039 0.917647 0.792157
0.945098 0.925490 0.811765
0.996078 0.937255 0.847059
0.000000 0.160784 0.349020
0.007843 0.168627 0.376471
0.141176 0.188235 0.384314
0.376471 0.254902 0.388235
0.639216 0.215686 0.447059
0.792157 0.250980 0.443137
0.925490 0.301961 0.431373
0.874510 0.517647 0.537255
0.270588 0.196078 0.376471
0.000000 0.215686 0.505882
0.235294 0.239216 0.498039
0.450980 0.301961 0.501961
0.674510 0.250980 0.545098
0.835294 0.254902 0.552941
0.952941 0.294118 0.564706
0.937255 0.443137 0.639216
0.352941 0.329412 0.431373
0.090196 0.356863 0.501961
0.294118 0.384314 0.517647
0.478431 0.419608 0.509804
0.690196 0.396078 0.549020
0.831373 0.396078 0.560784
0.945098 0.403922 0.556863
0.960784 0.501961 0.635294
0.431373 0.490196 0.470588
0.215686 0.521569 0.529412
0.360784 0.521569 0.529412
0.529412 0.533333 0.541176
0.682353 0.529412 0.549020
0.807843 0.541176 0.537255
0.941176 0.556863 0.552941
0.937255 0.639216 0.647059
0.541176 0.619608 0.482353
0.321569 0.658824 0.537255
0.403922 0.658824 0.525490
0.549020 0.662745 0.552941
0.654902 0.650980 0.541176
0.780392 0.690196 0.564706
0.929412 0.721569 0.600000
0.921569 0.772549 0.682353
0.603922 0.756863 0.443137
0.411765 0.768627 0.529412
0.498039 0.776471 0.549020
0.600000 0.768627 0.549020
0.690196 0.764706 0.545098
0.749020 0.752941 0.525490
0.870588 0.776471 0.533333
0.866667 0.815686 0.611765
0.647059 0.847059 0.486275
0.549020 0.862745 0.584314
0.584314 0.866667 0.580392
0.647059 0.862745 0.596078
0.729412 0.870588 0.596078
0.780392 0.866667 0.576471
0.847059 0.862745 0.564706
0.854902 0.905882 0.627451
0.854902 0.905882 0.800000
0.784314 0.921569 0.843137
0.807843 0.913725 0.839216
0.843137 0.917647 0.843137
0.870588 0.921569 0.843137
0.898039 0.917647 0.831373
0.945098 0.929412 0.831373
0.988235 0.945098 0.870588
0.000000 0.219608 0.552941
0.000000 0.235294 0.552941
0.000000 0.227451 0.572549
0.329412 0.282353 0.564706
0.533333 0.368627 0.564706
0.760784 0.337255 0.635294
0.909804 0.349020 0.631373
0.862745 0.545098 0.713725
0.262745 0.223529 0.560784
0.015686 0.235294 0.670588
0.098039 0.258824 0.670588
0.419608 0.321569 0.650980
0.592157 0.396078 0.650980
0.768627 0.356863 0.690196
0.921569 0.352941 0.717647
0.909804 0.494118 0.784314
0.341176 0.364706 0.592157
0.000000 0.415686 0.666667
0.211765 0.400000 0.658824
0.454902 0.415686 0.650980
0.592157 0.486275 0.647059
0.784314 0.454902 0.705882
0.937255 0.447059 0.705882
0.941176 0.552941 0.776471
0.411765 0.486275 0.643137
0.070588 0.525490 0.654902
0.290196 0.529412 0.650980
0.482353 0.537255 0.682353
0.627451 0.576471 0.682353
0.788235 0.568627 0.713725
0.929412 0.560784 0.705882
0.933333 0.635294 0.745098
0.501961 0.623529 0.635294
0.266667 0.654902 0.666667
0.368627 0.654902 0.678431
0.521569 0.658824 0.674510
0.647059 0.674510 0.698039
0.788235 0.670588 0.701961
0.901961 0.682353 0.701961
0.905882 0.741176 0.745098
0.545098 0.764706 0.650980
0.392157 0.776471 0.686275
0.435294 0.780392 0.682353
0.549020 0.776471 0.678431
0.670588 0.780392 0.690196
0.752941 0.768627 0.670588
0.886275 0.800000 0.705882
0.901961 0.835294 0.768627
0.592157 0.858824 0.619608
0.474510 0.878431 0.670588
0.521569 0.870588 0.690196
0.607843 0.870588 0.694118
0.709804 0.870588 0.698039
0.796078 0.866667 0.701961
0.854902 0.862745 0.678431
0.874510 0.898039 0.717647
0.850980 0.909804 0.835294
0.756863 0.917647 0.862745
0.784314 0.917647 0.862745
0.823529 0.917647 0.866667
0.862745 0.925490 0.886275
0.901961 0.925490 0.886275
0.937255 0.929412 0.882353
0.980392 0.941176 0.905882
0.000000 0.298039 0.737255
0.003922 0.301961 0.737255
0.000000 0.294118 0.745098
0.235294 0.325490 0.733333
0.505882 0.407843 0.737255
0.666667 0.474510 0.741176
0.847059 0.439216 0.772549
0.788235 0.603922 0.815686
0.254902 0.258824 0.760784
0.000000 0.294118 0.792157
0.000000 0.301961 0.803922
0.403922 0.345098 0.803922
0.568627 0.431373 0.784314
0.694118 0.490196 0.780392
0.854902 0.462745 0.815686
0.823529 0.592157 0.843137
0.301961 0.380392 0.729412
0.003922 0.447059 0.800000
0.050980 0.427451 0.796078
0.396078 0.439216 0.792157
0.584314 0.498039 0.788235
0.694118 0.564706 0.772549
0.866667 0.521569 0.811765
0.858824 0.627451 0.847059
0.388235 0.494118 0.764706
0.003922 0.552941 0.784314
0.282353 0.564706 0.784314
0.435294 0.552941 0.788235
0.596078 0.584314 0.800000
0.717647 0.635294 0.796078
0.870588 0.619608 0.823529
0.894118 0.678431 0.843137
0.474510 0.611765 0.760784
0.125490 0.658824 0.776471
0.274510 0.658824 0.796078
0.439216 0.650980 0.784314
0.619608 0.674510 0.788235
0.745098 0.713725 0.803922
0.886275 0.705882 0.819608
0.913725 0.749020 0.835294
0.521569 0.772549 0.780392
0.290196 0.780392 0.796078
0.372549 0.776471 0.792157
0.505882 0.776471 0.803922
0.631373 0.784314 0.811765
0.764706 0.796078 0.807843
0.878431 0.788235 0.819608
0.905882 0.827451 0.831373
0.603922 0.858824 0.764706
0.486275 0.870588 0.803922
0.525490 0.874510 0.803922
0.600000 0.870588 0.796078
0.686275 0.874510 0.811765
0.788235 0.878431 0.807843
0.858824 0.862745 0.800000
0.894118 0.898039 0.827451
0.847059 0.909804 0.905882
0.752941 0.917647 0.913725
0.768627 0.917647 0.917647
0.807843 0.921569 0.913725
0.847059 0.921569 0.913725
0.905882 0.929412 0.921569
0.933333 0.933333 0.925490
0.976471 0.945098 0.933333
0.000000 0.388235 0.866667
0.003922 0.388235 0.878431
0.003922 0.368627 0.874510
0.129412 0.376471 0.874510
0.478431 0.450980 0.866667
0.647059 0.537255 0.866667
0.760784 0.600000 0.866667
0.749020 0.670588 0.878431
0.215686 0.337255 0.886275
0.000000 0.376471 0.890196
0.000000 0.372549 0.913725
0.341176 0.419608 0.901961
0.549020 0.474510 0.886275
0.678431 0.564706 0.894118
0.788235 0.611765 0.874510
0.768627 0.686275 0.905882
0.227451 0.419608 0.882353
0.003922 0.482353 0.917647
0.000000 0.474510 0.890196
0.360784 0.490196 0.901961
0.552941 0.533333 0.894118
0.682353 0.615686 0.882353
0.792157 0.654902 0.890196
0.788235 0.717647 0.913725
0.317647 0.541176 0.882353
0.129412 0.588235 0.898039
0.258824 0.584314 0.890196
0.392157 0.576471 0.890196
0.580392 0.603922 0.894118
0.701961 0.666667 0.890196
0.800000 0.709804 0.890196
0.815686 0.752941 0.898039
0.450980 0.654902 0.878431
0.000000 0.666667 0.878431
0.254902 0.666667 0.890196
0.454902 0.670588 0.882353
0.592157 0.682353 0.894118
0.717647 0.721569 0.894118
0.823529 0.764706 0.878431
0.839216 0.800000 0.901961
0.478431 0.749020 0.870588
0.247059 0.760784 0.901961
0.329412 0.760784 0.890196
0.458824 0.756863 0.882353
0.588235 0.764706 0.894118
0.741176 0.788235 0.890196
0.843137 0.827451 0.886275
0.866667 0.850980 0.905882
0.568627 0.854902 0.921569
0.411765 0.874510 0.882353
0.454902 0.878431 0.890196
0.537255 0.882353 0.890196
0.658824 0.874510 0.894118
0.760784 0.874510 0.898039
0.866667 0.886275 0.901961
0.901961 0.909804 0.905882
0.854902 0.886275 0.937255
0.756863 0.909804 0.937255
0.768627 0.913725 0.945098
0.800000 0.917647 0.949020
0.843137 0.917647 0.945098
0.890196 0.925490 0.945098
0.945098 0.941176 0.960784
0.968627 0.952941 0.956863
0.003922 0.498039 0.968627
0.003922 0.501961 0.976471
0.000000 0.501961 0.968627
0.141176 0.501961 0.976471
0.486275 0.560784 0.972549
0.662745 0.631373 0.964706
0.784314 0.713725 0.956863
0.776471 0.745098 0.945098
0.301961 0.450980 0.972549
0.003922 0.486275 1.000000
0.043137 0.494118 0.992157
0.415686 0.521569 0.980392
0.568627 0.588235 0.980392
0.694118 0.662745 0.964706
0.803922 0.733333 0.960784
0.800000 0.768627 0.960784
0.321569 0.521569 0.972549
0.090196 0.545098 0.980392
0.262745 0.549020 0.988235
0.447059 0.568627 0.984314
0.584314 0.631373 0.968627
0.713725 0.690196 0.964706
0.807843 0.752941 0.960784
0.819608 0.792157 0.964706
0.372549 0.600000 0.988235
0.278431 0.635294 0.984314
0.388235 0.627451 0.980392
0.486275 0.643137 0.984314
0.615686 0.678431 0.972549
0.729412 0.737255 0.976471
0.827451 0.784314 0.952941
0.839216 0.815686 0.964706
0.482353 0.709804 1.000000
0.352941 0.698039 0.980392
0.427451 0.701961 0.972549
0.529412 0.717647 0.976471
0.631373 0.729412 0.980392
0.737255 0.780392 0.960784
0.835294 0.819608 0.956863
0.850980 0.839216 0.960784
0.525490 0.784314 0.972549
0.270588 0.776471 0.980392
0.337255 0.772549 0.980392
0.478431 0.780392 0.984314
0.627451 0.792157 0.972549
0.741176 0.815686 0.980392
0.847059 0.850980 0.968627
0.870588 0.874510 0.960784
0.607843 0.870588 0.972549
0.431373 0.886275 0.968627
0.466667 0.890196 0.972549
0.545098 0.882353 0.972549
0.639216 0.894118 0.972549
0.733333 0.890196 0.980392
0.866667 0.898039 0.976471
0.905882 0.921569 0.964706
0.752941 0.956863 0.941176
0.654902 0.960784 0.968627
0.686275 0.956863 0.976471
0.725490 0.949020 0.968627
0.784314 0.956863 0.968627
0.847059 0.956863 0.968627
0.933333 0.952941 0.964706
0.960784 0.960784 0.952941
