assets/filters/Timelab 4.cube
#Generated with IWLTBAP LUT Generator
#Website: https://luts.iwltbap.com
TITLE "Neutral-512-6"
LUT_3D_SIZE 64
0.050980 0.141176 0.164706
0.054902 0.145098 0.168627
0.054902 0.145098 0.164706
0.066667 0.149020 0.168627
0.070588 0.145098 0.168627
0.074510 0.141176 0.168627
0.078431 0.145098 0.172549
0.078431 0.145098 0.172549
0.098039 0.137255 0.172549
0.105882 0.137255 0.176471
0.113725 0.141176 0.172549
0.121569 0.137255 0.172549
0.125490 0.141176 0.176471
0.137255 0.149020 0.176471
0.152941 0.149020 0.180392
0.156863 0.145098 0.180392
0.168627 0.149020 0.176471
0.172549 0.145098 0.172549
0.192157 0.149020 0.180392
0.207843 0.149020 0.176471
0.223529 0.149020 0.172549
0.239216 0.141176 0.164706
0.266667 0.137255 0.164706
0.294118 0.137255 0.172549
0.298039 0.141176 0.176471
0.309804 0.141176 0.176471
0.333333 0.141176 0.164706
0.360784 0.137255 0.164706
0.380392 0.133333 0.164706
0.415686 0.129412 0.164706
0.443137 0.125490 0.160784
0.462745 0.121569 0.149020
0.482353 0.117647 0.160784
0.505882 0.113725 0.156863
0.529412 0.105882 0.156863
0.556863 0.101961 0.160784
0.580392 0.094118 0.164706
0.611765 0.086275 0.160784
0.639216 0.078431 0.156863
0.650980 0.074510 0.149020
0.682353 0.062745 0.152941
0.701961 0.058824 0.156863
0.717647 0.050980 0.152941
0.741176 0.043137 0.152941
0.764706 0.031373 0.160784
0.788235 0.023529 0.160784
0.803922 0.015686 0.156863
0.823529 0.011765 0.152941
0.847059 0.003922 0.137255
0.870588 0.011765 0.145098
0.882353 0.011765 0.133333
0.898039 0.011765 0.129412
0.913725 0.019608 0.129412
0.929412 0.023529 0.133333
0.949020 0.027451 0.125490
0.968627 0.035294 0.129412
0.976471 0.047059 0.125490
0.984314 0.054902 0.125490
1.000000 0.070588 0.133333
1.000000 0.074510 0.129412
1.000000 0.086275 0.121569
1.000000 0.094118 0.117647
1.000000 0.109804 0.117647
0.996078 0.109804 0.117647
0.054902 0.145098 0.164706
0.054902 0.145098 0.164706
0.058824 0.149020 0.168627
0.066667 0.149020 0.168627
0.066667 0.149020 0.168627
0.070588 0.145098 0.168627
0.078431 0.149020 0.164706
0.090196 0.149020 0.168627
0.090196 0.141176 0.164706
0.094118 0.145098 0.168627
0.105882 0.149020 0.172549
0.113725 0.149020 0.176471
0.125490 0.145098 0.168627
0.133333 0.145098 0.164706
0.145098 0.149020 0.168627
0.152941 0.149020 0.168627
0.164706 0.145098 0.168627
0.176471 0.149020 0.176471
0.200000 0.149020 0.176471
0.207843 0.149020 0.176471
0.219608 0.152941 0.176471
0.235294 0.149020 0.168627
0.262745 0.141176 0.164706
0.286275 0.141176 0.172549
0.290196 0.149020 0.164706
0.305882 0.145098 0.168627
0.333333 0.141176 0.164706
0.356863 0.141176 0.164706
0.384314 0.137255 0.168627
0.415686 0.137255 0.160784
0.443137 0.133333 0.156863
0.462745 0.129412 0.152941
0.482353 0.117647 0.160784
0.501961 0.121569 0.160784
0.529412 0.113725 0.160784
0.552941 0.109804 0.156863
0.584314 0.105882 0.164706
0.607843 0.094118 0.156863
0.627451 0.086275 0.149020
0.647059 0.082353 0.149020
0.686275 0.070588 0.152941
0.698039 0.070588 0.149020
0.721569 0.066667 0.152941
0.741176 0.054902 0.152941
0.760784 0.050980 0.156863
0.780392 0.039216 0.156863
0.800000 0.035294 0.160784
0.815686 0.035294 0.156863
0.850980 0.027451 0.149020
0.858824 0.031373 0.137255
0.886275 0.031373 0.137255
0.894118 0.031373 0.133333
0.913725 0.035294 0.137255
0.929412 0.047059 0.141176
0.949020 0.050980 0.133333
0.960784 0.058824 0.137255
0.980392 0.070588 0.125490
0.988235 0.074510 0.129412
1.000000 0.074510 0.129412
1.000000 0.086275 0.129412
1.000000 0.090196 0.133333
0.996078 0.101961 0.129412
1.000000 0.113725 0.137255
1.000000 0.117647 0.141176
0.054902 0.145098 0.164706
0.054902 0.145098 0.164706
0.066667 0.149020 0.160784
0.066667 0.149020 0.160784
0.070588 0.145098 0.160784
0.078431 0.149020 0.164706
0.086275 0.145098 0.164706
0.090196 0.149020 0.168627
0.090196 0.149020 0.176471
0.094118 0.152941 0.180392
0.098039 0.149020 0.172549
0.113725 0.149020 0.168627
0.121569 0.152941 0.164706
0.137255 0.149020 0.168627
0.149020 0.152941 0.168627
0.156863 0.152941 0.172549
0.168627 0.141176 0.172549
0.184314 0.145098 0.176471
0.192157 0.149020 0.172549
0.200000 0.152941 0.168627
0.219608 0.152941 0.176471
0.235294 0.149020 0.168627
0.258824 0.145098 0.164706
0.282353 0.145098 0.168627
0.298039 0.145098 0.164706
0.313725 0.145098 0.172549
0.341176 0.141176 0.168627
0.364706 0.141176 0.168627
0.388235 0.141176 0.172549
0.411765 0.141176 0.168627
0.431373 0.133333 0.172549
0.454902 0.137255 0.172549
0.482353 0.121569 0.164706
0.505882 0.125490 0.164706
0.533333 0.117647 0.164706
0.560784 0.117647 0.164706
0.584314 0.105882 0.164706
0.615686 0.098039 0.160784
0.639216 0.090196 0.156863
0.662745 0.090196 0.149020
0.682353 0.074510 0.160784
0.698039 0.074510 0.160784
0.725490 0.070588 0.156863
0.749020 0.062745 0.152941
0.772549 0.062745 0.152941
0.792157 0.054902 0.152941
0.811765 0.054902 0.145098
0.823529 0.050980 0.137255
0.843137 0.043137 0.141176
0.862745 0.047059 0.141176
0.874510 0.050980 0.133333
0.894118 0.054902 0.133333
0.909804 0.058824 0.133333
0.925490 0.062745 0.133333
0.941176 0.062745 0.125490
0.960784 0.074510 0.129412
0.976471 0.078431 0.121569
0.992157 0.086275 0.125490
1.000000 0.094118 0.133333
1.000000 0.098039 0.129412
1.000000 0.101961 0.121569
1.000000 0.113725 0.129412
1.000000 0.125490 0.129412
0.996078 0.129412 0.129412
0.054902 0.145098 0.168627
0.050980 0.149020 0.168627
0.054902 0.152941 0.172549
0.054902 0.152941 0.168627
0.058824 0.149020 0.168627
0.070588 0.152941 0.172549
0.074510 0.149020 0.172549
0.082353 0.149020 0.176471
0.082353 0.149020 0.176471
0.094118 0.152941 0.180392
0.101961 0.152941 0.184314
0.113725 0.149020 0.176471
0.129412 0.149020 0.172549
0.133333 0.145098 0.164706
0.145098 0.149020 0.168627
0.149020 0.152941 0.168627
0.168627 0.149020 0.164706
0.180392 0.156863 0.172549
0.196078 0.152941 0.176471
0.203922 0.152941 0.180392
0.219608 0.152941 0.176471
0.239216 0.152941 0.164706
0.262745 0.149020 0.164706
0.282353 0.145098 0.160784
0.301961 0.149020 0.160784
0.313725 0.149020 0.164706
0.337255 0.145098 0.160784
0.364706 0.145098 0.164706
0.388235 0.141176 0.172549
0.415686 0.145098 0.172549
0.439216 0.137255 0.176471
0.454902 0.137255 0.172549
0.494118 0.129412 0.172549
0.509804 0.129412 0.168627
0.537255 0.125490 0.160784
0.560784 0.117647 0.164706
0.588235 0.109804 0.160784
0.619608 0.105882 0.168627
0.635294 0.101961 0.156863
0.654902 0.098039 0.152941
0.678431 0.090196 0.164706
0.701961 0.086275 0.160784
0.725490 0.082353 0.156863
0.741176 0.074510 0.149020
0.764706 0.070588 0.152941
0.788235 0.062745 0.152941
0.807843 0.058824 0.149020
0.823529 0.058824 0.145098
0.843137 0.062745 0.145098
0.858824 0.062745 0.141176
0.878431 0.066667 0.137255
0.890196 0.066667 0.133333
0.909804 0.070588 0.133333
0.925490 0.078431 0.137255
0.941176 0.082353 0.137255
0.960784 0.086275 0.129412
0.980392 0.090196 0.125490
0.988235 0.094118 0.121569
1.000000 0.101961 0.121569
1.000000 0.105882 0.117647
1.000000 0.113725 0.121569
1.000000 0.125490 0.125490
1.000000 0.133333 0.129412
1.000000 0.137255 0.133333
0.054902 0.145098 0.168627
0.058824 0.149020 0.172549
0.058824 0.149020 0.172549
0.070588 0.149020 0.176471
0.074510 0.149020 0.172549
0.074510 0.149020 0.172549
0.082353 0.149020 0.176471
0.082353 0.149020 0.176471
0.078431 0.160784 0.180392
0.086275 0.152941 0.180392
0.098039 0.149020 0.172549
0.113725 0.149020 0.168627
0.121569 0.152941 0.164706
0.133333 0.152941 0.168627
0.141176 0.156863 0.168627
0.152941 0.156863 0.172549
0.164706 0.156863 0.176471
0.176471 0.156863 0.172549
0.192157 0.156863 0.168627
0.203922 0.156863 0.164706
0.219608 0.156863 0.168627
0.239216 0.152941 0.164706
0.270588 0.149020 0.168627
0.286275 0.149020 0.164706
0.301961 0.149020 0.160784
0.317647 0.152941 0.160784
0.345098 0.152941 0.168627
0.368627 0.149020 0.168627
0.392157 0.149020 0.168627
0.415686 0.145098 0.164706
0.439216 0.145098 0.164706
0.458824 0.141176 0.168627
0.486275 0.137255 0.164706
0.509804 0.137255 0.168627
0.533333 0.129412 0.164706
0.560784 0.125490 0.160784
0.576471 0.117647 0.152941
0.607843 0.113725 0.160784
0.635294 0.113725 0.156863
0.654902 0.109804 0.152941
0.682353 0.101961 0.164706
0.698039 0.094118 0.156863
0.717647 0.094118 0.149020
0.745098 0.086275 0.145098
0.764706 0.082353 0.149020
0.788235 0.082353 0.149020
0.811765 0.082353 0.137255
0.819608 0.078431 0.133333
0.839216 0.078431 0.145098
0.854902 0.078431 0.145098
0.874510 0.082353 0.137255
0.898039 0.082353 0.137255
0.905882 0.086275 0.137255
0.925490 0.090196 0.137255
0.945098 0.094118 0.137255
0.960784 0.094118 0.125490
0.976471 0.105882 0.117647
0.988235 0.109804 0.113725
1.000000 0.113725 0.121569
1.000000 0.121569 0.121569
1.000000 0.129412 0.117647
0.996078 0.137255 0.121569
0.996078 0.149020 0.121569
1.000000 0.152941 0.125490
0.047059 0.156863 0.172549
0.054902 0.152941 0.172549
0.054902 0.152941 0.172549
0.058824 0.149020 0.168627
0.062745 0.152941 0.172549
0.070588 0.152941 0.172549
0.074510 0.156863 0.176471
0.078431 0.152941 0.176471
0.078431 0.160784 0.180392
0.090196 0.156863 0.184314
0.113725 0.156863 0.180392
0.121569 0.149020 0.180392
0.133333 0.152941 0.176471
0.141176 0.152941 0.172549
0.149020 0.152941 0.168627
0.160784 0.152941 0.172549
0.168627 0.160784 0.180392
0.180392 0.164706 0.168627
0.188235 0.164706 0.164706
0.203922 0.164706 0.168627
0.211765 0.164706 0.164706
0.235294 0.160784 0.168627
0.254902 0.160784 0.168627
0.274510 0.164706 0.160784
0.309804 0.156863 0.168627
0.321569 0.156863 0.164706
0.345098 0.152941 0.168627
0.368627 0.152941 0.172549
0.388235 0.149020 0.168627
0.411765 0.152941 0.160784
0.431373 0.149020 0.164706
0.450980 0.152941 0.164706
0.486275 0.137255 0.160784
0.513725 0.141176 0.164706
0.533333 0.137255 0.168627
0.560784 0.129412 0.164706
0.584314 0.133333 0.164706
0.607843 0.125490 0.164706
0.635294 0.121569 0.160784
0.650980 0.117647 0.164706
0.682353 0.109804 0.160784
0.701961 0.109804 0.152941
0.721569 0.105882 0.149020
0.741176 0.101961 0.145098
0.760784 0.098039 0.141176
0.788235 0.094118 0.137255
0.807843 0.090196 0.137255
0.827451 0.094118 0.137255
0.835294 0.094118 0.141176
0.854902 0.098039 0.141176
0.874510 0.101961 0.137255
0.890196 0.101961 0.133333
0.909804 0.105882 0.141176
0.921569 0.105882 0.137255
0.949020 0.105882 0.129412
0.960784 0.113725 0.133333
0.972549 0.121569 0.117647
0.984314 0.125490 0.121569
0.996078 0.129412 0.125490
1.000000 0.133333 0.121569
1.000000 0.137255 0.113725
1.000000 0.145098 0.109804
0.992157 0.152941 0.113725
0.992157 0.160784 0.117647
0.047059 0.156863 0.160784
0.054902 0.156863 0.160784
0.058824 0.160784 0.164706
0.062745 0.156863 0.164706
0.062745 0.156863 0.164706
0.074510 0.156863 0.168627
0.074510 0.156863 0.168627
0.082353 0.156863 0.172549
0.082353 0.160784 0.164706
0.094118 0.152941 0.164706
0.117647 0.152941 0.172549
0.121569 0.152941 0.164706
0.133333 0.152941 0.168627
0.137255 0.156863 0.168627
0.141176 0.164706 0.164706
0.145098 0.168627 0.168627
0.172549 0.152941 0.168627
0.184314 0.160784 0.168627
0.196078 0.164706 0.164706
0.203922 0.164706 0.160784
0.211765 0.164706 0.164706
0.231373 0.168627 0.172549
0.250980 0.168627 0.164706
0.278431 0.168627 0.164706
0.298039 0.164706 0.160784
0.317647 0.160784 0.164706
0.341176 0.160784 0.168627
0.360784 0.156863 0.164706
0.388235 0.156863 0.164706
0.411765 0.160784 0.164706
0.435294 0.160784 0.172549
0.454902 0.156863 0.168627
0.494118 0.149020 0.152941
0.509804 0.149020 0.160784
0.541176 0.149020 0.160784
0.560784 0.145098 0.160784
0.588235 0.137255 0.156863
0.607843 0.137255 0.152941
0.639216 0.133333 0.160784
0.650980 0.133333 0.156863
0.682353 0.121569 0.160784
0.698039 0.121569 0.152941
0.725490 0.117647 0.149020
0.745098 0.113725 0.145098
0.768627 0.113725 0.145098
0.788235 0.109804 0.145098
0.807843 0.109804 0.141176
0.831373 0.105882 0.137255
0.839216 0.109804 0.133333
0.850980 0.113725 0.137255
0.874510 0.113725 0.125490
0.890196 0.117647 0.125490
0.909804 0.117647 0.133333
0.929412 0.121569 0.133333
0.945098 0.121569 0.125490
0.964706 0.125490 0.125490
0.980392 0.133333 0.121569
0.988235 0.141176 0.121569
1.000000 0.145098 0.129412
1.000000 0.149020 0.125490
1.000000 0.152941 0.117647
1.000000 0.160784 0.117647
1.000000 0.168627 0.121569
1.000000 0.168627 0.121569
0.054902 0.164706 0.176471
0.054902 0.164706 0.176471
0.058824 0.156863 0.172549
0.062745 0.164706 0.168627
0.066667 0.160784 0.168627
0.074510 0.156863 0.168627
0.074510 0.156863 0.168627
0.078431 0.160784 0.172549
0.082353 0.168627 0.160784
0.094118 0.164706 0.164706
0.109804 0.164706 0.168627
0.117647 0.160784 0.168627
0.125490 0.164706 0.172549
0.129412 0.160784 0.172549
0.141176 0.160784 0.172549
0.149020 0.164706 0.176471
0.168627 0.168627 0.168627
0.184314 0.168627 0.172549
0.192157 0.168627 0.168627
0.207843 0.168627 0.164706
0.219608 0.176471 0.168627
0.235294 0.172549 0.172549
0.254902 0.172549 0.168627
0.270588 0.168627 0.172549
0.294118 0.172549 0.160784
0.309804 0.172549 0.164706
0.341176 0.168627 0.164706
0.360784 0.164706 0.160784
0.392157 0.164706 0.160784
0.415686 0.164706 0.160784
0.439216 0.164706 0.164706
0.462745 0.164706 0.172549
0.490196 0.152941 0.156863
0.509804 0.156863 0.156863
0.541176 0.152941 0.164706
0.560784 0.152941 0.164706
0.588235 0.149020 0.156863
0.611765 0.149020 0.152941
0.635294 0.141176 0.156863
0.654902 0.145098 0.160784
0.682353 0.129412 0.160784
0.701961 0.133333 0.152941
0.721569 0.133333 0.149020
0.741176 0.129412 0.145098
0.764706 0.129412 0.149020
0.784314 0.125490 0.145098
0.811765 0.121569 0.141176
0.827451 0.121569 0.133333
0.839216 0.125490 0.141176
0.858824 0.133333 0.133333
0.882353 0.133333 0.133333
0.898039 0.133333 0.125490
0.917647 0.137255 0.133333
0.933333 0.137255 0.121569
0.960784 0.141176 0.125490
0.976471 0.141176 0.117647
0.988235 0.156863 0.113725
0.996078 0.156863 0.117647
1.000000 0.164706 0.117647
1.000000 0.164706 0.113725
1.000000 0.172549 0.109804
1.000000 0.176471 0.109804
1.000000 0.184314 0.105882
1.000000 0.192157 0.109804
0.062745 0.160784 0.180392
0.062745 0.160784 0.180392
0.066667 0.156863 0.180392
0.066667 0.156863 0.180392
0.078431 0.156863 0.184314
0.082353 0.156863 0.180392
0.082353 0.156863 0.180392
0.082353 0.156863 0.180392
0.086275 0.172549 0.164706
0.090196 0.168627 0.164706
0.098039 0.168627 0.168627
0.109804 0.172549 0.168627
0.113725 0.168627 0.168627
0.129412 0.168627 0.164706
0.137255 0.172549 0.168627
0.152941 0.168627 0.172549
0.172549 0.164706 0.168627
0.184314 0.168627 0.172549
0.192157 0.168627 0.168627
0.207843 0.176471 0.168627
0.219608 0.176471 0.168627
0.235294 0.176471 0.164706
0.254902 0.180392 0.164706
0.270588 0.176471 0.168627
0.305882 0.172549 0.168627
0.321569 0.172549 0.168627
0.337255 0.176471 0.168627
0.352941 0.172549 0.172549
0.372549 0.176471 0.180392
0.396078 0.176471 0.180392
0.423529 0.172549 0.176471
0.443137 0.176471 0.176471
0.482353 0.164706 0.160784
0.498039 0.164706 0.156863
0.529412 0.160784 0.160784
0.552941 0.160784 0.160784
0.580392 0.152941 0.164706
0.607843 0.152941 0.172549
0.639216 0.149020 0.172549
0.650980 0.145098 0.160784
0.674510 0.141176 0.156863
0.698039 0.141176 0.149020
0.717647 0.141176 0.145098
0.745098 0.141176 0.149020
0.768627 0.141176 0.149020
0.788235 0.137255 0.145098
0.807843 0.137255 0.137255
0.827451 0.133333 0.133333
0.835294 0.141176 0.149020
0.854902 0.145098 0.149020
0.874510 0.141176 0.137255
0.890196 0.141176 0.133333
0.905882 0.149020 0.137255
0.921569 0.152941 0.129412
0.941176 0.156863 0.129412
0.952941 0.160784 0.121569
0.968627 0.164706 0.113725
0.980392 0.164706 0.117647
0.992157 0.172549 0.121569
0.992157 0.172549 0.121569
0.996078 0.176471 0.117647
0.996078 0.184314 0.121569
0.988235 0.196078 0.125490
0.992157 0.200000 0.129412
0.050980 0.164706 0.180392
0.050980 0.164706 0.180392
0.054902 0.168627 0.184314
0.058824 0.168627 0.180392
0.066667 0.164706 0.180392
0.070588 0.160784 0.180392
0.074510 0.164706 0.184314
0.082353 0.164706 0.184314
0.078431 0.172549 0.172549
0.090196 0.172549 0.176471
0.098039 0.176471 0.180392
0.101961 0.172549 0.180392
0.117647 0.172549 0.176471
0.133333 0.172549 0.176471
0.141176 0.172549 0.180392
0.152941 0.172549 0.184314
0.172549 0.172549 0.172549
0.188235 0.172549 0.168627
0.203922 0.172549 0.164706
0.207843 0.176471 0.168627
0.219608 0.184314 0.164706
0.227451 0.184314 0.160784
0.250980 0.180392 0.164706
0.270588 0.180392 0.160784
0.305882 0.184314 0.172549
0.321569 0.184314 0.176471
0.337255 0.184314 0.172549
0.360784 0.180392 0.180392
0.376471 0.180392 0.176471
0.400000 0.184314 0.176471
0.419608 0.180392 0.172549
0.447059 0.180392 0.180392
0.486275 0.176471 0.156863
0.501961 0.176471 0.152941
0.529412 0.172549 0.152941
0.556863 0.168627 0.149020
0.580392 0.168627 0.156863
0.600000 0.164706 0.156863
0.631373 0.164706 0.156863
0.647059 0.160784 0.152941
0.686275 0.152941 0.160784
0.701961 0.152941 0.156863
0.721569 0.152941 0.149020
0.745098 0.152941 0.141176
0.760784 0.152941 0.145098
0.780392 0.149020 0.137255
0.800000 0.149020 0.133333
0.819608 0.152941 0.125490
0.843137 0.149020 0.149020
0.862745 0.152941 0.141176
0.878431 0.156863 0.133333
0.898039 0.156863 0.133333
0.913725 0.156863 0.129412
0.925490 0.164706 0.129412
0.941176 0.164706 0.121569
0.960784 0.168627 0.121569
0.968627 0.180392 0.117647
0.976471 0.184314 0.113725
0.996078 0.184314 0.113725
1.000000 0.192157 0.109804
0.992157 0.196078 0.109804
0.992157 0.203922 0.105882
0.992157 0.211765 0.105882
0.996078 0.215686 0.109804
0.050980 0.172549 0.184314
0.050980 0.172549 0.184314
0.054902 0.168627 0.184314
0.054902 0.172549 0.180392
0.058824 0.168627 0.180392
0.070588 0.168627 0.184314
0.070588 0.168627 0.184314
0.074510 0.164706 0.184314
0.086275 0.168627 0.180392
0.090196 0.172549 0.176471
0.098039 0.176471 0.180392
0.105882 0.176471 0.176471
0.121569 0.176471 0.180392
0.133333 0.180392 0.180392
0.141176 0.180392 0.184314
0.145098 0.180392 0.176471
0.156863 0.180392 0.172549
0.176471 0.184314 0.172549
0.188235 0.184314 0.168627
0.203922 0.184314 0.168627
0.219608 0.180392 0.172549
0.235294 0.180392 0.168627
0.258824 0.184314 0.168627
0.278431 0.188235 0.168627
0.290196 0.192157 0.172549
0.309804 0.188235 0.176471
0.337255 0.188235 0.176471
0.356863 0.184314 0.172549
0.380392 0.188235 0.164706
0.400000 0.184314 0.164706
0.427451 0.180392 0.160784
0.447059 0.184314 0.160784
0.470588 0.184314 0.156863
0.494118 0.184314 0.156863
0.529412 0.188235 0.152941
0.552941 0.188235 0.156863
0.576471 0.184314 0.160784
0.607843 0.180392 0.160784
0.627451 0.176471 0.156863
0.650980 0.180392 0.149020
0.678431 0.176471 0.141176
0.694118 0.176471 0.137255
0.717647 0.176471 0.133333
0.745098 0.172549 0.141176
0.760784 0.172549 0.145098
0.784314 0.172549 0.145098
0.807843 0.168627 0.141176
0.819608 0.172549 0.129412
0.847059 0.160784 0.141176
0.858824 0.168627 0.137255
0.886275 0.172549 0.137255
0.898039 0.172549 0.125490
0.913725 0.180392 0.129412
0.933333 0.180392 0.129412
0.945098 0.184314 0.117647
0.960784 0.188235 0.121569
0.968627 0.192157 0.109804
0.984314 0.200000 0.117647
0.996078 0.203922 0.117647
0.996078 0.207843 0.109804
0.996078 0.207843 0.105882
0.996078 0.215686 0.101961
0.992157 0.223529 0.105882
0.988235 0.223529 0.105882
0.058824 0.176471 0.176471
0.058824 0.176471 0.176471
0.058824 0.176471 0.176471
0.058824 0.176471 0.176471
0.062745 0.180392 0.180392
0.074510 0.176471 0.180392
0.078431 0.172549 0.172549
0.090196 0.172549 0.176471
0.090196 0.176471 0.168627
0.090196 0.176471 0.168627
0.101961 0.180392 0.172549
0.105882 0.180392 0.172549
0.117647 0.180392 0.168627
0.125490 0.184314 0.164706
0.137255 0.184314 0.168627
0.141176 0.188235 0.172549
0.160784 0.184314 0.168627
0.172549 0.192157 0.176471
0.188235 0.188235 0.180392
0.203922 0.188235 0.176471
0.223529 0.192157 0.180392
0.243137 0.192157 0.168627
0.262745 0.188235 0.164706
0.282353 0.192157 0.168627
0.294118 0.196078 0.176471
0.309804 0.196078 0.180392
0.341176 0.192157 0.180392
0.364706 0.196078 0.172549
0.384314 0.192157 0.164706
0.407843 0.196078 0.164706
0.439216 0.192157 0.164706
0.454902 0.192157 0.160784
0.470588 0.196078 0.156863
0.498039 0.196078 0.156863
0.525490 0.196078 0.156863
0.545098 0.192157 0.156863
0.576471 0.192157 0.156863
0.607843 0.188235 0.164706
0.627451 0.184314 0.152941
0.650980 0.188235 0.152941
0.682353 0.188235 0.141176
0.698039 0.192157 0.141176
0.717647 0.188235 0.133333
0.741176 0.184314 0.129412
0.764706 0.184314 0.137255
0.788235 0.184314 0.145098
0.807843 0.184314 0.133333
0.827451 0.188235 0.137255
0.843137 0.180392 0.137255
0.862745 0.180392 0.137255
0.882353 0.188235 0.129412
0.901961 0.192157 0.133333
0.913725 0.192157 0.129412
0.929412 0.196078 0.129412
0.949020 0.200000 0.125490
0.960784 0.200000 0.121569
0.968627 0.211765 0.121569
0.984314 0.207843 0.125490
1.000000 0.215686 0.125490
1.000000 0.215686 0.117647
0.996078 0.223529 0.117647
0.996078 0.231373 0.113725
0.996078 0.231373 0.113725
0.992157 0.239216 0.117647
0.031373 0.184314 0.172549
0.043137 0.184314 0.176471
0.043137 0.184314 0.176471
0.050980 0.184314 0.180392
0.050980 0.184314 0.180392
0.058824 0.184314 0.172549
0.062745 0.188235 0.176471
0.066667 0.192157 0.180392
0.094118 0.172549 0.168627
0.098039 0.176471 0.172549
0.105882 0.176471 0.176471
0.109804 0.188235 0.180392
0.117647 0.192157 0.184314
0.129412 0.192157 0.180392
0.141176 0.188235 0.180392
0.152941 0.188235 0.176471
0.172549 0.188235 0.184314
0.184314 0.192157 0.180392
0.192157 0.196078 0.172549
0.207843 0.196078 0.168627
0.215686 0.196078 0.172549
0.231373 0.196078 0.168627
0.258824 0.200000 0.172549
0.274510 0.200000 0.172549
0.294118 0.196078 0.176471
0.313725 0.200000 0.176471
0.337255 0.200000 0.176471
0.360784 0.203922 0.176471
0.384314 0.200000 0.168627
0.407843 0.203922 0.160784
0.435294 0.200000 0.160784
0.454902 0.203922 0.168627
0.482353 0.200000 0.160784
0.501961 0.203922 0.152941
0.529412 0.200000 0.156863
0.560784 0.200000 0.156863
0.580392 0.196078 0.160784
0.611765 0.192157 0.160784
0.635294 0.196078 0.152941
0.658824 0.196078 0.156863
0.678431 0.200000 0.149020
0.701961 0.200000 0.149020
0.725490 0.203922 0.145098
0.745098 0.200000 0.141176
0.764706 0.196078 0.145098
0.784314 0.200000 0.145098
0.807843 0.200000 0.145098
0.827451 0.203922 0.141176
0.843137 0.200000 0.133333
0.862745 0.203922 0.133333
0.886275 0.203922 0.129412
0.901961 0.203922 0.125490
0.917647 0.211765 0.125490
0.933333 0.215686 0.129412
0.945098 0.219608 0.117647
0.964706 0.223529 0.117647
0.972549 0.223529 0.113725
0.980392 0.223529 0.117647
1.000000 0.227451 0.121569
1.000000 0.231373 0.113725
0.996078 0.235294 0.105882
0.992157 0.243137 0.101961
0.992157 0.250980 0.105882
0.992157 0.250980 0.105882
0.047059 0.188235 0.180392
0.047059 0.188235 0.180392
0.047059 0.188235 0.180392
0.050980 0.188235 0.172549
0.062745 0.188235 0.176471
0.062745 0.188235 0.176471
0.070588 0.188235 0.180392
0.070588 0.188235 0.180392
0.090196 0.188235 0.176471
0.090196 0.188235 0.176471
0.090196 0.188235 0.176471
0.090196 0.192157 0.180392
0.094118 0.200000 0.180392
0.101961 0.200000 0.176471
0.113725 0.203922 0.172549
0.129412 0.203922 0.180392
0.164706 0.200000 0.180392
0.180392 0.200000 0.176471
0.196078 0.200000 0.176471
0.211765 0.200000 0.172549
0.231373 0.203922 0.180392
0.250980 0.200000 0.176471
0.274510 0.192157 0.172549
0.294118 0.196078 0.176471
0.298039 0.211765 0.168627
0.317647 0.211765 0.176471
0.341176 0.211765 0.176471
0.364706 0.215686 0.172549
0.388235 0.215686 0.164706
0.407843 0.215686 0.160784
0.435294 0.215686 0.164706
0.454902 0.211765 0.160784
0.482353 0.211765 0.160784
0.501961 0.215686 0.160784
0.529412 0.207843 0.160784
0.552941 0.207843 0.160784
0.584314 0.207843 0.152941
0.607843 0.207843 0.152941
0.631373 0.203922 0.152941
0.650980 0.207843 0.152941
0.674510 0.207843 0.145098
0.694118 0.211765 0.149020
0.713725 0.211765 0.137255
0.737255 0.211765 0.137255
0.764706 0.211765 0.145098
0.788235 0.211765 0.145098
0.807843 0.211765 0.137255
0.827451 0.215686 0.137255
0.850980 0.215686 0.125490
0.866667 0.215686 0.121569
0.886275 0.223529 0.117647
0.901961 0.227451 0.117647
