assets/filters/Timelab 5.cube
#Generated with IWLTBAP LUT Generator
#Website: https://luts.iwltbap.com
TITLE "Lut-2"
LUT_3D_SIZE 8
0.062745 0.058824 0.050980
0.098039 0.062745 0.043137
0.203922 0.066667 0.043137
0.341176 0.066667 0.035294
0.541176 0.054902 0.015686
0.741176 0.062745 0.000000
0.905882 0.101961 0.000000
1.000000 0.274510 0.086275
0.333333 0.047059 0.031373
0.121569 0.133333 0.058824
0.239216 0.133333 0.050980
0.372549 0.141176 0.027451
0.552941 0.152941 0.000000
0.741176 0.176471 0.000000
0.905882 0.203922 0.003922
1.000000 0.349020 0.113725
0.450980 0.215686 0.019608
0.031373 0.286275 0.066667
0.223529 0.309804 0.054902
0.439216 0.345098 0.000000
0.611765 0.337255 0.003922
0.788235 0.341176 0.003922
0.933333 0.345098 0.003922
1.000000 0.490196 0.160784
0.513725 0.509804 0.011765
0.003922 0.521569 0.082353
0.003922 0.541176 0.086275
0.400000 0.568627 0.015686
0.678431 0.603922 0.007843
0.823529 0.568627 0.003922
0.956863 0.533333 0.000000
0.988235 0.650980 0.278431
0.478431 0.701961 0.156863
0.000000 0.721569 0.172549
0.000000 0.729412 0.200000
0.274510 0.733333 0.215686
0.568627 0.749020 0.168627
0.803922 0.760784 0.098039
0.968627 0.741176 0.007843
1.000000 0.819608 0.352941
0.435294 0.839216 0.247059
0.003922 0.850980 0.352941
0.000000 0.850980 0.360784
0.286275 0.854902 0.388235
0.509804 0.858824 0.396078
0.701961 0.858824 0.368627
0.894118 0.870588 0.321569
0.952941 0.913725 0.564706
0.521569 0.933333 0.419608
0.380392 0.941176 0.560784
0.415686 0.949020 0.564706
0.517647 0.945098 0.580392
0.627451 0.937255 0.607843
0.725490 0.945098 0.603922
0.835294 0.937255 0.580392
0.874510 0.960784 0.705882
0.890196 0.980392 0.862745
0.843137 0.984314 0.874510
0.850980 0.988235 0.870588
0.882353 0.984314 0.878431
0.905882 0.976471 0.874510
0.925490 0.980392 0.882353
0.960784 0.972549 0.890196
0.992157 0.984314 0.894118
0.054902 0.078431 0.070588
0.066667 0.094118 0.066667
0.156863 0.133333 0.086275
0.270588 0.141176 0.066667
0.415686 0.160784 0.050980
0.611765 0.215686 0.000000
0.807843 0.254902 0.003922
0.984314 0.427451 0.000000
0.384314 0.070588 0.066667
0.149020 0.129412 0.145098
0.247059 0.129412 0.129412
0.384314 0.133333 0.129412
0.556863 0.129412 0.109804
0.752941 0.152941 0.094118
0.913725 0.188235 0.047059
0.992157 0.321569 0.223529
0.482353 0.231373 0.125490
0.090196 0.309804 0.164706
0.247059 0.329412 0.168627
0.470588 0.337255 0.149020
0.647059 0.333333 0.141176
0.811765 0.337255 0.121569
0.952941 0.349020 0.074510
1.000000 0.498039 0.274510
0.552941 0.529412 0.152941
0.000000 0.552941 0.211765
0.058824 0.560784 0.219608
0.427451 0.584314 0.203922
0.705882 0.611765 0.117647
0.843137 0.564706 0.149020
0.964706 0.541176 0.156863
1.000000 0.658824 0.380392
0.525490 0.725490 0.262745
0.003922 0.733333 0.274510
0.003922 0.741176 0.290196
0.325490 0.749020 0.313725
0.592157 0.752941 0.290196
0.823529 0.768627 0.247059
0.976471 0.741176 0.215686
1.000000 0.823529 0.474510
0.474510 0.854902 0.341176
0.003922 0.854902 0.427451
0.000000 0.858824 0.435294
0.360784 0.862745 0.450980
0.549020 0.862745 0.466667
0.725490 0.866667 0.443137
0.901961 0.878431 0.407843
0.956863 0.917647 0.647059
0.556863 0.937255 0.482353
0.454902 0.945098 0.607843
0.486275 0.949020 0.619608
0.560784 0.941176 0.623529
0.654902 0.945098 0.643137
0.741176 0.949020 0.643137
0.847059 0.945098 0.627451
0.870588 0.972549 0.733333
0.898039 0.972549 0.886275
0.850980 0.984314 0.878431
0.854902 0.984314 0.878431
0.882353 0.984314 0.886275
0.905882 0.980392 0.894118
0.929412 0.984314 0.894118
0.964706 0.976471 0.894118
0.988235 0.988235 0.894118
0.011765 0.121569 0.172549
0.027451 0.129412 0.188235
0.164706 0.129412 0.211765
0.305882 0.129412 0.207843
0.431373 0.125490 0.176471
0.611765 0.184314 0.172549
0.811765 0.231373 0.160784
0.964706 0.407843 0.274510
0.458824 0.000000 0.223529
0.168627 0.137255 0.298039
0.286275 0.141176 0.313725
0.450980 0.121569 0.325490
0.643137 0.078431 0.321569
0.788235 0.023529 0.290196
0.909804 0.121569 0.254902
1.000000 0.294118 0.400000
0.525490 0.231373 0.309804
0.133333 0.305882 0.341176
0.282353 0.305882 0.352941
0.498039 0.325490 0.376471
0.650980 0.290196 0.333333
0.800000 0.309804 0.325490
0.945098 0.321569 0.305882
1.000000 0.498039 0.462745
0.607843 0.513725 0.380392
0.086275 0.537255 0.415686
0.258824 0.552941 0.423529
0.478431 0.576471 0.423529
0.709804 0.576471 0.400000
0.835294 0.545098 0.407843
0.956863 0.537255 0.372549
1.000000 0.662745 0.552941
0.580392 0.717647 0.458824
0.109804 0.729412 0.470588
0.270588 0.737255 0.486275
0.431373 0.741176 0.482353
0.635294 0.749020 0.486275
0.858824 0.776471 0.458824
0.960784 0.733333 0.447059
0.996078 0.815686 0.623529
0.556863 0.854902 0.470588
0.329412 0.847059 0.580392
0.356863 0.854902 0.568627
0.458824 0.850980 0.564706
0.615686 0.854902 0.584314
0.745098 0.862745 0.572549
0.909804 0.878431 0.552941
0.960784 0.921569 0.713725
0.627451 0.941176 0.584314
0.537255 0.941176 0.670588
0.560784 0.937255 0.678431
0.627451 0.941176 0.686275
0.694118 0.945098 0.705882
0.772549 0.945098 0.705882
0.862745 0.945098 0.690196
0.894118 0.960784 0.784314
0.905882 0.980392 0.905882
0.870588 0.976471 0.901961
0.870588 0.980392 0.894118
0.894118 0.976471 0.901961
0.917647 0.972549 0.905882
0.933333 0.976471 0.909804
0.964706 0.972549 0.917647
0.996078 0.984314 0.925490
0.000000 0.133333 0.372549
0.003922 0.137255 0.388235
0.129412 0.133333 0.384314
0.313725 0.141176 0.380392
0.494118 0.137255 0.400000
0.701961 0.168627 0.419608
0.839216 0.164706 0.368627
0.945098 0.388235 0.498039
0.517647 0.007843 0.403922
0.203922 0.137255 0.513725
0.313725 0.141176 0.521569
0.494118 0.149020 0.541176
0.678431 0.086275 0.552941
0.850980 0.105882 0.552941
0.968627 0.121569 0.509804
0.992157 0.403922 0.650980
0.623529 0.211765 0.545098
0.121569 0.274510 0.545098
0.286275 0.286275 0.560784
0.517647 0.317647 0.580392
0.713725 0.321569 0.603922
0.866667 0.352941 0.596078
0.972549 0.337255 0.533333
0.996078 0.509804 0.643137
0.611765 0.494118 0.603922
0.156863 0.521569 0.592157
0.282353 0.521569 0.596078
0.505882 0.525490 0.607843
0.717647 0.552941 0.631373
0.823529 0.541176 0.588235
0.921569 0.533333 0.560784
0.980392 0.658824 0.674510
0.647059 0.694118 0.639216
0.301961 0.713725 0.627451
0.384314 0.717647 0.635294
0.549020 0.717647 0.643137
0.694118 0.741176 0.662745
0.843137 0.729412 0.658824
0.937255 0.721569 0.643137
0.980392 0.800000 0.737255
0.635294 0.843137 0.631373
0.400000 0.839216 0.674510
0.458824 0.843137 0.674510
0.588235 0.847059 0.698039
0.682353 0.858824 0.705882
0.792157 0.862745 0.713725
0.929412 0.882353 0.694118
0.968627 0.917647 0.784314
0.694118 0.937255 0.682353
0.666667 0.933333 0.764706
0.674510 0.937255 0.768627
0.694118 0.933333 0.760784
0.760784 0.937255 0.776471
0.819608 0.941176 0.780392
0.894118 0.937255 0.768627
0.901961 0.968627 0.843137
0.905882 0.976471 0.913725
0.870588 0.976471 0.917647
0.886275 0.972549 0.921569
0.905882 0.968627 0.917647
0.921569 0.968627 0.921569
0.941176 0.972549 0.921569
0.972549 0.972549 0.925490
1.000000 0.980392 0.933333
0.000000 0.141176 0.572549
0.000000 0.145098 0.564706
0.050980 0.149020 0.552941
0.305882 0.156863 0.552941
0.505882 0.203922 0.580392
0.713725 0.215686 0.635294
0.894118 0.270588 0.635294
0.980392 0.490196 0.764706
0.600000 0.015686 0.627451
0.243137 0.156863 0.682353
0.329412 0.168627 0.686275
0.498039 0.176471 0.709804
0.678431 0.203922 0.725490
0.843137 0.176471 0.737255
0.968627 0.235294 0.725490
1.000000 0.478431 0.843137
0.658824 0.250980 0.701961
0.231373 0.286275 0.713725
0.333333 0.301961 0.729412
0.513725 0.325490 0.733333
0.698039 0.360784 0.749020
0.854902 0.364706 0.764706
0.976471 0.411765 0.752941
1.000000 0.592157 0.839216
0.600000 0.474510 0.737255
0.294118 0.490196 0.737255
0.345098 0.478431 0.729412
0.537255 0.501961 0.749020
0.713725 0.545098 0.764706
0.854902 0.560784 0.780392
0.968627 0.588235 0.768627
1.000000 0.694118 0.819608
0.643137 0.650980 0.741176
0.329412 0.678431 0.741176
0.400000 0.678431 0.749020
0.541176 0.686275 0.756863
0.701961 0.698039 0.768627
0.847059 0.725490 0.788235
0.913725 0.705882 0.752941
0.972549 0.772549 0.807843
0.721569 0.839216 0.745098
0.443137 0.827451 0.768627
0.498039 0.823529 0.776471
0.603922 0.831373 0.776471
0.729412 0.839216 0.784314
0.827451 0.847059 0.819608
0.925490 0.858824 0.792157
0.964706 0.901961 0.843137
0.772549 0.929412 0.788235
0.670588 0.929412 0.811765
0.701961 0.933333 0.815686
0.764706 0.933333 0.827451
0.811765 0.929412 0.835294
0.862745 0.937255 0.850980
0.913725 0.937255 0.835294
0.929412 0.964706 0.890196
0.933333 0.956863 0.941176
0.882353 0.972549 0.941176
0.886275 0.968627 0.933333
0.905882 0.964706 0.937255
0.929412 0.968627 0.937255
0.949020 0.968627 0.945098
0.976471 0.976471 0.945098
0.992157 0.976471 0.933333
0.003922 0.176471 0.690196
0.000000 0.172549 0.686275
0.125490 0.184314 0.682353
0.329412 0.203922 0.694118
0.525490 0.250980 0.737255
0.717647 0.325490 0.764706
0.878431 0.341176 0.788235
0.960784 0.529412 0.870588
0.670588 0.152941 0.784314
0.329412 0.207843 0.819608
0.396078 0.219608 0.819608
0.525490 0.239216 0.831373
0.682353 0.278431 0.839216
0.823529 0.333333 0.850980
0.949020 0.333333 0.862745
1.000000 0.529412 0.949020
0.690196 0.309804 0.823529
0.345098 0.321569 0.839216
0.411765 0.337255 0.839216
0.549020 0.356863 0.854902
0.694118 0.403922 0.854902
0.831373 0.458824 0.858824
0.956863 0.466667 0.874510
1.000000 0.619608 0.937255
0.627451 0.486275 0.839216
0.360784 0.474510 0.835294
0.427451 0.486275 0.843137
0.564706 0.513725 0.858824
0.717647 0.549020 0.858824
0.839216 0.592157 0.866667
0.941176 0.600000 0.870588
0.992157 0.698039 0.921569
0.654902 0.639216 0.835294
0.462745 0.666667 0.850980
0.505882 0.670588 0.850980
0.592157 0.662745 0.843137
0.709804 0.678431 0.862745
0.831373 0.709804 0.870588
0.941176 0.729412 0.878431
0.996078 0.796078 0.917647
0.729412 0.811765 0.831373
0.478431 0.800000 0.847059
0.509804 0.796078 0.850980
0.596078 0.800000 0.850980
0.705882 0.807843 0.862745
0.831373 0.823529 0.866667
0.925490 0.843137 0.878431
0.956863 0.882353 0.905882
0.831373 0.917647 0.858824
0.713725 0.921569 0.890196
0.733333 0.917647 0.886275
0.780392 0.925490 0.894118
0.839216 0.929412 0.890196
0.890196 0.929412 0.898039
0.952941 0.937255 0.901961
0.952941 0.964706 0.921569
0.925490 0.964706 0.968627
0.894118 0.964706 0.972549
0.886275 0.972549 0.964706
0.913725 0.968627 0.968627
0.929412 0.964706 0.960784
0.960784 0.968627 0.964706
0.980392 0.964706 0.960784
1.000000 0.968627 0.960784
0.203922 0.266667 0.811765
0.223529 0.278431 0.807843
0.309804 0.286275 0.811765
0.439216 0.317647 0.827451
0.596078 0.360784 0.854902
0.737255 0.423529 0.866667
0.866667 0.490196 0.882353
0.909804 0.619608 0.921569
0.705882 0.298039 0.882353
0.450980 0.313725 0.925490
0.494118 0.325490 0.921569
0.592157 0.349020 0.917647
0.713725 0.392157 0.925490
0.823529 0.454902 0.933333
0.925490 0.486275 0.925490
0.988235 0.615686 0.984314
0.721569 0.411765 0.913725
0.490196 0.411765 0.941176
0.525490 0.427451 0.937255
0.611765 0.447059 0.937255
0.721569 0.486275 0.933333
0.835294 0.533333 0.941176
0.925490 0.568627 0.941176
0.968627 0.678431 0.980392
0.670588 0.537255 0.909804
0.517647 0.537255 0.937255
0.552941 0.545098 0.941176
0.635294 0.556863 0.937255
0.741176 0.588235 0.937255
0.831373 0.623529 0.937255
0.921569 0.658824 0.937255
0.964706 0.749020 0.972549
0.686275 0.650980 0.898039
0.576471 0.674510 0.933333
0.576471 0.666667 0.929412
0.643137 0.674510 0.929412
0.737255 0.694118 0.929412
0.827451 0.721569 0.929412
0.921569 0.756863 0.937255
0.980392 0.815686 0.964706
0.752941 0.788235 0.909804
0.596078 0.796078 0.917647
0.627451 0.796078 0.929412
0.690196 0.803922 0.921569
0.764706 0.815686 0.941176
0.831373 0.811765 0.929412
0.925490 0.839216 0.937255
0.964706 0.890196 0.964706
0.803922 0.890196 0.933333
0.733333 0.905882 0.941176
0.749020 0.905882 0.945098
0.788235 0.905882 0.945098
0.831373 0.909804 0.945098
0.886275 0.913725 0.945098
0.952941 0.925490 0.952941
0.956863 0.956863 0.964706
0.921569 0.956863 0.984314
0.905882 0.956863 0.988235
0.909804 0.960784 0.992157
0.921569 0.956863 0.984314
0.941176 0.960784 0.984314
0.956863 0.960784 0.980392
0.988235 0.968627 0.984314
0.996078 0.972549 0.972549
0.517647 0.482353 0.933333
0.529412 0.490196 0.937255
0.556863 0.501961 0.937255
0.623529 0.521569 0.941176
0.701961 0.552941 0.949020
0.792157 0.592157 0.956863
0.878431 0.647059 0.960784
0.921569 0.721569 0.984314
0.792157 0.517647 0.972549
0.643137 0.517647 1.000000
0.662745 0.525490 0.996078
0.713725 0.541176 0.992157
0.780392 0.572549 0.996078
0.858824 0.607843 0.988235
0.925490 0.650980 0.988235
0.964706 0.729412 1.000000
0.800000 0.584314 0.984314
0.662745 0.588235 1.000000
0.682353 0.592157 1.000000
0.729412 0.611765 1.000000
0.800000 0.627451 1.000000
0.866667 0.662745 0.996078
0.933333 0.694118 0.996078
0.964706 0.760784 1.000000
0.756863 0.662745 0.992157
0.682353 0.658824 0.996078
0.705882 0.666667 1.000000
0.745098 0.674510 1.000000
0.815686 0.694118 1.000000
0.882353 0.725490 1.000000
0.937255 0.749020 0.992157
0.968627 0.800000 1.000000
0.780392 0.733333 0.976471
0.701961 0.737255 0.992157
0.717647 0.737255 0.996078
0.756863 0.749020 0.996078
0.807843 0.764706 0.992157
0.874510 0.784314 0.996078
0.937255 0.807843 0.992157
0.960784 0.850980 1.000000
0.796078 0.819608 0.960784
0.803922 0.866667 0.996078
0.800000 0.862745 0.996078
0.803922 0.850980 1.000000
0.819608 0.835294 0.984314
0.874510 0.843137 0.988235
0.949020 0.866667 0.996078
0.960784 0.901961 0.992157
0.874510 0.925490 0.996078
0.819608 0.925490 0.992157
0.823529 0.933333 0.988235
0.843137 0.925490 0.992157
0.870588 0.933333 0.992157
0.905882 0.929412 0.984314
0.960784 0.933333 0.996078
0.972549 0.960784 0.996078
0.929412 0.984314 0.996078
0.905882 0.988235 1.000000
0.905882 0.988235 1.000000
0.913725 0.992157 0.996078
0.933333 0.988235 0.992157
0.956863 0.996078 1.000000
0.980392 0.996078 1.000000
1.000000 1.000000 1.000000
