assets/filters/Timelab 5.cube
#Generated with IWLTBAP LUT Generator
#Website: https://luts.iwltbap.com
TITLE "Lut-2"
LUT_3D_SIZE 4
0.062745 0.058824 0.050980
0.254902 0.062745 0.039216
0.670588 0.054902 0.000000
1.000000 0.274510 0.086275
0.466667 0.325490 0.000000
0.278431 0.400000 0.035294
0.745098 0.415686 0.000000
0.992157 0.549020 0.196078
0.498039 0.807843 0.152941
0.003922 0.811765 0.305882
0.662745 0.827451 0.286275
0.980392 0.909804 0.517647
0.890196 0.980392 0.862745
0.854902 0.984314 0.870588
0.917647 0.972549 0.866667
0.992157 0.984314 0.894118
0.000000 0.133333 0.231373
0.215686 0.133333 0.270588
0.576471 0.137255 0.231373
0.956863 0.396078 0.333333
0.627451 0.294118 0.423529
0.360784 0.380392 0.454902
0.768627 0.376471 0.419608
0.996078 0.560784 0.545098
0.568627 0.807843 0.494118
0.407843 0.815686 0.584314
0.733333 0.827451 0.592157
0.976471 0.898039 0.701961
0.901961 0.976471 0.901961
0.882353 0.980392 0.905882
0.937255 0.968627 0.909804
0.996078 0.980392 0.933333
0.000000 0.160784 0.654902
0.176471 0.172549 0.643137
0.654902 0.278431 0.717647
0.976471 0.505882 0.854902
0.721569 0.333333 0.792157
0.431373 0.376471 0.819608
0.803922 0.478431 0.831373
1.000000 0.635294 0.909804
0.721569 0.780392 0.800000
0.494118 0.764706 0.827451
0.784314 0.780392 0.835294
0.952941 0.847059 0.874510
0.909804 0.968627 0.949020
0.894118 0.968627 0.960784
0.956863 0.964706 0.952941
1.000000 0.980392 0.964706
0.517647 0.482353 0.933333
0.580392 0.509804 0.941176
0.768627 0.584314 0.960784
0.921569 0.721569 0.984314
0.803922 0.600000 0.996078
0.705882 0.623529 0.996078
0.843137 0.666667 0.992157
0.968627 0.772549 1.000000
0.800000 0.788235 0.964706
0.768627 0.811765 0.992157
0.854902 0.819608 0.988235
0.960784 0.890196 0.992157
0.929412 0.984314 0.996078
0.905882 0.988235 1.000000
0.952941 0.992157 1.000000
1.000000 1.000000 1.000000
