assets/filters/Timelab 5.cube
#Generated with IWLTBAP LUT Generator
#Website: https://luts.iwltbap.com
TITLE "Lut-2"
LUT_3D_SIZE 64
0.062745 0.058824 0.050980
0.062745 0.058824 0.043137
0.062745 0.058824 0.043137
0.066667 0.062745 0.047059
0.074510 0.058824 0.047059
0.078431 0.066667 0.047059
0.082353 0.062745 0.047059
0.082353 0.062745 0.047059
0.094118 0.062745 0.050980
0.098039 0.062745 0.043137
0.113725 0.058824 0.047059
0.121569 0.062745 0.043137
0.133333 0.062745 0.047059
0.141176 0.066667 0.043137
0.156863 0.066667 0.043137
0.160784 0.062745 0.043137
0.184314 0.062745 0.043137
0.192157 0.062745 0.043137
0.203922 0.066667 0.043137
0.219608 0.066667 0.039216
0.239216 0.062745 0.035294
0.254902 0.062745 0.039216
0.266667 0.058824 0.035294
0.290196 0.066667 0.047059
0.294118 0.062745 0.039216
0.329412 0.058824 0.047059
0.337255 0.058824 0.043137
0.341176 0.066667 0.035294
0.372549 0.058824 0.031373
0.403922 0.054902 0.031373
0.419608 0.054902 0.027451
0.439216 0.058824 0.031373
0.447059 0.054902 0.015686
0.474510 0.058824 0.015686
0.490196 0.058824 0.023529
0.517647 0.058824 0.023529
0.541176 0.054902 0.015686
0.560784 0.054902 0.003922
0.584314 0.054902 0.007843
0.611765 0.054902 0.000000
0.631373 0.050980 0.003922
0.650980 0.054902 0.003922
0.670588 0.054902 0.000000
0.698039 0.058824 0.000000
0.713725 0.058824 0.000000
0.741176 0.062745 0.000000
0.760784 0.066667 0.000000
0.780392 0.070588 0.003922
0.803922 0.066667 0.000000
0.819608 0.070588 0.000000
0.839216 0.078431 0.000000
0.854902 0.086275 0.000000
0.874510 0.090196 0.000000
0.886275 0.098039 0.000000
0.905882 0.101961 0.000000
0.921569 0.109804 0.007843
0.941176 0.113725 0.000000
0.952941 0.121569 0.003922
0.976471 0.129412 0.000000
0.980392 0.137255 0.000000
1.000000 0.145098 0.000000
0.996078 0.141176 0.003922
0.996078 0.156863 0.000000
1.000000 0.274510 0.086275
0.274510 0.003922 0.023529
0.105882 0.050980 0.039216
0.070588 0.054902 0.043137
0.074510 0.062745 0.043137
0.078431 0.066667 0.047059
0.086275 0.066667 0.054902
0.094118 0.058824 0.039216
0.098039 0.066667 0.054902
0.105882 0.062745 0.039216
0.109804 0.066667 0.043137
0.121569 0.070588 0.047059
0.125490 0.066667 0.047059
0.125490 0.066667 0.039216
0.141176 0.066667 0.039216
0.152941 0.074510 0.047059
0.164706 0.074510 0.043137
0.184314 0.078431 0.043137
0.203922 0.074510 0.047059
0.196078 0.078431 0.047059
0.219608 0.074510 0.043137
0.243137 0.074510 0.043137
0.250980 0.074510 0.047059
0.262745 0.070588 0.043137
0.282353 0.070588 0.039216
0.290196 0.066667 0.031373
0.313725 0.066667 0.039216
0.341176 0.066667 0.039216
0.352941 0.066667 0.039216
0.372549 0.070588 0.039216
0.396078 0.066667 0.027451
0.423529 0.058824 0.027451
0.431373 0.066667 0.035294
0.454902 0.062745 0.031373
0.474510 0.066667 0.031373
0.494118 0.062745 0.019608
0.521569 0.058824 0.011765
0.541176 0.062745 0.011765
0.568627 0.062745 0.011765
0.588235 0.058824 0.003922
0.603922 0.058824 0.000000
0.635294 0.058824 0.000000
0.662745 0.062745 0.003922
0.678431 0.062745 0.003922
0.698039 0.066667 0.003922
0.725490 0.070588 0.007843
0.741176 0.070588 0.003922
0.752941 0.070588 0.000000
0.780392 0.070588 0.000000
0.800000 0.078431 0.000000
0.827451 0.078431 0.003922
0.839216 0.086275 0.003922
0.850980 0.094118 0.003922
0.878431 0.094118 0.000000
0.890196 0.101961 0.000000
0.913725 0.109804 0.000000
0.933333 0.113725 0.000000
0.937255 0.117647 0.000000
0.956863 0.125490 0.007843
0.976471 0.129412 0.000000
0.992157 0.137255 0.000000
1.000000 0.145098 0.000000
1.000000 0.141176 0.000000
0.996078 0.156863 0.000000
1.000000 0.286275 0.094118
0.282353 0.003922 0.035294
0.105882 0.050980 0.039216
0.078431 0.066667 0.047059
0.082353 0.070588 0.050980
0.082353 0.070588 0.035294
0.082353 0.070588 0.050980
0.094118 0.074510 0.058824
0.098039 0.070588 0.039216
0.098039 0.070588 0.039216
0.105882 0.070588 0.043137
0.113725 0.070588 0.047059
0.125490 0.074510 0.043137
0.133333 0.074510 0.047059
0.145098 0.078431 0.047059
0.156863 0.078431 0.050980
0.164706 0.074510 0.050980
0.172549 0.078431 0.047059
0.188235 0.082353 0.047059
0.196078 0.078431 0.039216
0.219608 0.074510 0.035294
0.231373 0.074510 0.035294
0.243137 0.074510 0.039216
0.266667 0.078431 0.031373
0.282353 0.078431 0.035294
0.298039 0.078431 0.031373
0.333333 0.070588 0.039216
0.341176 0.074510 0.039216
0.341176 0.078431 0.043137
0.364706 0.074510 0.031373
0.396078 0.074510 0.031373
0.415686 0.070588 0.023529
0.439216 0.070588 0.031373
0.454902 0.062745 0.023529
0.482353 0.066667 0.023529
0.501961 0.062745 0.015686
0.521569 0.066667 0.015686
0.545098 0.066667 0.015686
0.564706 0.066667 0.007843
0.588235 0.066667 0.000000
0.607843 0.070588 0.000000
0.635294 0.070588 0.000000
0.650980 0.070588 0.000000
0.682353 0.066667 0.000000
0.701961 0.070588 0.000000
0.725490 0.070588 0.000000
0.745098 0.074510 0.003922
0.768627 0.074510 0.003922
0.784314 0.074510 0.000000
0.800000 0.078431 0.000000
0.819608 0.082353 0.003922
0.839216 0.086275 0.000000
0.862745 0.094118 0.000000
0.874510 0.101961 0.000000
0.898039 0.109804 0.000000
0.917647 0.113725 0.000000
0.925490 0.117647 0.000000
0.949020 0.125490 0.003922
0.960784 0.129412 0.011765
0.976471 0.137255 0.000000
0.980392 0.141176 0.000000
1.000000 0.152941 0.000000
0.992157 0.149020 0.000000
1.000000 0.156863 0.003922
0.996078 0.301961 0.090196
0.258824 0.019608 0.039216
0.117647 0.058824 0.047059
0.070588 0.070588 0.039216
0.066667 0.066667 0.058824
0.082353 0.070588 0.043137
0.078431 0.078431 0.039216
0.090196 0.070588 0.047059
0.105882 0.078431 0.047059
0.109804 0.074510 0.047059
0.113725 0.078431 0.050980
0.121569 0.078431 0.054902
0.121569 0.082353 0.047059
0.137255 0.082353 0.047059
0.145098 0.078431 0.047059
0.149020 0.078431 0.039216
0.160784 0.082353 0.039216
0.172549 0.086275 0.043137
0.192157 0.086275 0.043137
0.200000 0.090196 0.039216
0.211765 0.086275 0.039216
0.235294 0.086275 0.043137
0.250980 0.086275 0.039216
0.266667 0.086275 0.035294
0.290196 0.086275 0.043137
0.294118 0.086275 0.031373
0.317647 0.082353 0.039216
0.329412 0.078431 0.039216
0.352941 0.082353 0.031373
0.368627 0.082353 0.027451
0.392157 0.082353 0.031373
0.419608 0.082353 0.031373
0.435294 0.074510 0.031373
0.458824 0.078431 0.015686
0.482353 0.078431 0.019608
0.501961 0.082353 0.019608
0.521569 0.078431 0.015686
0.549020 0.074510 0.011765
0.572549 0.074510 0.007843
0.596078 0.074510 0.007843
0.615686 0.074510 0.003922
0.647059 0.070588 0.003922
0.666667 0.074510 0.007843
0.690196 0.078431 0.000000
0.709804 0.074510 0.000000
0.729412 0.078431 0.000000
0.749020 0.082353 0.000000
0.764706 0.082353 0.000000
0.784314 0.086275 0.000000
0.811765 0.094118 0.000000
0.827451 0.094118 0.000000
0.847059 0.098039 0.000000
0.866667 0.101961 0.000000
0.878431 0.105882 0.000000
0.901961 0.113725 0.003922
0.913725 0.121569 0.003922
0.933333 0.125490 0.003922
0.941176 0.133333 0.007843
0.964706 0.133333 0.007843
0.980392 0.137255 0.000000
0.996078 0.141176 0.011765
1.000000 0.160784 0.000000
0.996078 0.156863 0.000000
1.000000 0.164706 0.000000
0.996078 0.309804 0.101961
0.270588 0.027451 0.039216
0.113725 0.054902 0.027451
0.078431 0.074510 0.054902
0.070588 0.078431 0.035294
0.078431 0.082353 0.050980
0.086275 0.086275 0.054902
0.094118 0.082353 0.054902
0.098039 0.082353 0.035294
0.098039 0.082353 0.039216
0.109804 0.082353 0.043137
0.117647 0.086275 0.047059
0.121569 0.082353 0.047059
0.133333 0.082353 0.047059
0.152941 0.086275 0.047059
0.160784 0.090196 0.050980
0.160784 0.082353 0.039216
0.168627 0.094118 0.039216
0.192157 0.086275 0.043137
0.200000 0.090196 0.039216
0.215686 0.090196 0.043137
0.235294 0.086275 0.043137
0.243137 0.090196 0.039216
0.258824 0.094118 0.039216
0.282353 0.090196 0.035294
0.290196 0.086275 0.031373
0.317647 0.094118 0.035294
0.337255 0.090196 0.031373
0.349020 0.090196 0.027451
0.372549 0.094118 0.031373
0.396078 0.094118 0.031373
0.419608 0.094118 0.039216
0.447059 0.086275 0.035294
0.454902 0.090196 0.023529
0.478431 0.090196 0.027451
0.501961 0.090196 0.015686
0.521569 0.086275 0.011765
0.545098 0.090196 0.007843
0.564706 0.086275 0.003922
0.588235 0.086275 0.000000
0.607843 0.086275 0.000000
0.639216 0.090196 0.000000
0.662745 0.090196 0.000000
0.686275 0.090196 0.000000
0.709804 0.090196 0.003922
0.729412 0.090196 0.000000
0.756863 0.090196 0.000000
0.768627 0.086275 0.003922
0.788235 0.090196 0.011765
0.807843 0.090196 0.000000
0.823529 0.098039 0.000000
0.847059 0.105882 0.000000
0.862745 0.105882 0.000000
0.878431 0.113725 0.000000
0.901961 0.121569 0.000000
0.913725 0.121569 0.000000
0.937255 0.129412 0.003922
0.941176 0.137255 0.000000
0.968627 0.141176 0.000000
0.984314 0.149020 0.000000
0.992157 0.156863 0.003922
0.996078 0.160784 0.003922
1.000000 0.160784 0.000000
1.000000 0.176471 0.007843
1.000000 0.313725 0.098039
0.262745 0.035294 0.031373
0.117647 0.066667 0.043137
0.070588 0.082353 0.047059
0.078431 0.086275 0.043137
0.074510 0.086275 0.050980
0.082353 0.094118 0.058824
0.098039 0.082353 0.047059
0.101961 0.090196 0.054902
0.105882 0.098039 0.050980
0.109804 0.094118 0.050980
0.125490 0.094118 0.050980
0.129412 0.090196 0.043137
0.133333 0.094118 0.047059
0.141176 0.094118 0.039216
0.156863 0.094118 0.043137
0.168627 0.090196 0.047059
0.176471 0.101961 0.039216
0.188235 0.098039 0.035294
0.200000 0.098039 0.039216
0.215686 0.101961 0.039216
0.231373 0.101961 0.043137
0.250980 0.105882 0.043137
0.262745 0.101961 0.035294
0.278431 0.098039 0.035294
0.294118 0.101961 0.043137
0.321569 0.101961 0.043137
0.333333 0.101961 0.031373
0.349020 0.101961 0.031373
0.368627 0.101961 0.027451
0.400000 0.105882 0.031373
0.407843 0.101961 0.023529
0.431373 0.098039 0.019608
0.458824 0.101961 0.027451
0.478431 0.101961 0.015686
0.509804 0.098039 0.015686
0.521569 0.098039 0.015686
0.545098 0.098039 0.003922
0.572549 0.101961 0.007843
0.596078 0.098039 0.000000
0.615686 0.101961 0.000000
0.639216 0.101961 0.000000
0.658824 0.105882 0.000000
0.686275 0.098039 0.000000
0.705882 0.098039 0.000000
0.729412 0.101961 0.000000
0.752941 0.105882 0.000000
0.768627 0.105882 0.000000
0.784314 0.109804 0.000000
0.811765 0.109804 0.000000
0.827451 0.113725 0.000000
0.847059 0.117647 0.000000
0.870588 0.125490 0.000000
0.874510 0.121569 0.000000
0.898039 0.129412 0.003922
0.917647 0.133333 0.000000
0.933333 0.145098 0.000000
0.949020 0.145098 0.000000
0.964706 0.152941 0.000000
0.980392 0.152941 0.000000
0.996078 0.160784 0.000000
1.000000 0.168627 0.000000
0.996078 0.172549 0.011765
0.996078 0.180392 0.007843
0.996078 0.321569 0.094118
0.278431 0.035294 0.047059
0.133333 0.066667 0.035294
0.066667 0.098039 0.054902
0.070588 0.094118 0.039216
0.082353 0.098039 0.043137
0.090196 0.098039 0.047059
0.094118 0.098039 0.043137
0.094118 0.098039 0.043137
0.098039 0.101961 0.047059
0.109804 0.101961 0.043137
0.125490 0.101961 0.039216
0.129412 0.101961 0.039216
0.137255 0.101961 0.043137
0.152941 0.105882 0.050980
0.168627 0.105882 0.047059
0.172549 0.098039 0.035294
0.172549 0.098039 0.031373
0.200000 0.098039 0.039216
0.207843 0.109804 0.039216
0.215686 0.109804 0.043137
0.235294 0.105882 0.039216
0.250980 0.105882 0.035294
0.258824 0.113725 0.039216
0.274510 0.113725 0.035294
0.290196 0.113725 0.031373
0.313725 0.109804 0.027451
0.337255 0.105882 0.035294
0.352941 0.113725 0.031373
0.372549 0.113725 0.027451
0.392157 0.117647 0.019608
0.415686 0.109804 0.019608
0.447059 0.109804 0.027451
0.454902 0.113725 0.015686
0.486275 0.109804 0.015686
0.505882 0.109804 0.007843
0.525490 0.113725 0.007843
0.549020 0.113725 0.000000
0.564706 0.113725 0.000000
0.592157 0.117647 0.003922
0.623529 0.117647 0.003922
0.643137 0.113725 0.000000
0.662745 0.117647 0.000000
0.686275 0.117647 0.000000
0.709804 0.121569 0.000000
0.733333 0.121569 0.000000
0.752941 0.121569 0.007843
0.772549 0.121569 0.003922
0.792157 0.125490 0.003922
0.815686 0.125490 0.003922
0.827451 0.125490 0.000000
0.850980 0.129412 0.000000
0.870588 0.133333 0.000000
0.886275 0.137255 0.000000
0.901961 0.141176 0.000000
0.921569 0.145098 0.000000
0.933333 0.152941 0.007843
0.949020 0.152941 0.003922
0.968627 0.156863 0.000000
0.984314 0.168627 0.000000
0.996078 0.172549 0.003922
0.996078 0.184314 0.000000
1.000000 0.184314 0.003922
0.992157 0.184314 0.000000
1.000000 0.325490 0.098039
0.286275 0.047059 0.039216
0.141176 0.074510 0.047059
0.074510 0.098039 0.043137
0.070588 0.101961 0.050980
0.066667 0.109804 0.043137
0.090196 0.105882 0.047059
0.094118 0.101961 0.047059
0.098039 0.105882 0.054902
0.101961 0.113725 0.047059
0.105882 0.117647 0.050980
0.113725 0.117647 0.047059
0.129412 0.117647 0.050980
0.137255 0.109804 0.039216
0.156863 0.113725 0.039216
0.164706 0.113725 0.043137
0.172549 0.113725 0.039216
0.188235 0.117647 0.039216
0.192157 0.121569 0.043137
0.207843 0.121569 0.039216
0.223529 0.117647 0.035294
0.231373 0.121569 0.039216
0.258824 0.121569 0.043137
0.270588 0.121569 0.039216
0.286275 0.121569 0.035294
0.290196 0.125490 0.031373
0.309804 0.121569 0.035294
0.345098 0.125490 0.043137
0.356863 0.117647 0.035294
0.376471 0.125490 0.027451
0.400000 0.125490 0.027451
0.419608 0.125490 0.019608
0.435294 0.121569 0.023529
0.458824 0.125490 0.015686
0.482353 0.125490 0.011765
0.501961 0.129412 0.011765
0.525490 0.133333 0.003922
0.552941 0.125490 0.003922
0.572549 0.121569 0.000000
0.592157 0.125490 0.000000
0.619608 0.133333 0.003922
0.647059 0.129412 0.000000
0.666667 0.133333 0.007843
0.686275 0.129412 0.000000
0.713725 0.133333 0.000000
0.729412 0.137255 0.000000
0.749020 0.141176 0.000000
0.772549 0.141176 0.000000
0.788235 0.141176 0.000000
0.823529 0.141176 0.003922
0.831373 0.145098 0.000000
0.854902 0.145098 0.000000
0.870588 0.152941 0.000000
0.890196 0.156863 0.000000
0.905882 0.156863 0.003922
0.925490 0.160784 0.003922
0.945098 0.164706 0.003922
0.952941 0.168627 0.000000
0.972549 0.172549 0.003922
0.992157 0.176471 0.003922
1.000000 0.176471 0.000000
1.000000 0.184314 0.000000
1.000000 0.188235 0.000000
1.000000 0.200000 0.000000
1.000000 0.211765 0.000000
0.066667 0.105882 0.062745
0.070588 0.109804 0.066667
0.070588 0.113725 0.058824
0.070588 0.113725 0.058824
0.070588 0.113725 0.058824
0.082353 0.113725 0.062745
0.086275 0.117647 0.066667
0.094118 0.117647 0.070588
0.101961 0.117647 0.058824
0.113725 0.117647 0.054902
0.129412 0.125490 0.054902
0.145098 0.121569 0.058824
0.149020 0.121569 0.050980
0.164706 0.121569 0.047059
0.180392 0.117647 0.050980
0.188235 0.121569 0.050980
0.207843 0.117647 0.047059
0.215686 0.117647 0.047059
0.227451 0.113725 0.043137
0.247059 0.117647 0.043137
0.254902 0.117647 0.043137
0.270588 0.121569 0.039216
0.294118 0.117647 0.035294
0.301961 0.121569 0.031373
0.317647 0.117647 0.035294
0.337255 0.121569 0.039216
0.349020 0.125490 0.027451
0.368627 0.125490 0.027451
0.388235 0.121569 0.031373
0.400000 0.125490 0.027451
0.415686 0.125490 0.027451
0.443137 0.129412 0.031373
0.466667 0.133333 0.019608
0.486275 0.129412 0.015686
0.505882 0.133333 0.007843
0.525490 0.141176 0.003922
0.545098 0.137255 0.000000
0.564706 0.141176 0.000000
0.584314 0.145098 0.000000
0.607843 0.145098 0.007843
0.635294 0.152941 0.000000
0.654902 0.152941 0.000000
0.678431 0.156863 0.003922
0.705882 0.160784 0.007843
0.721569 0.160784 0.003922
0.745098 0.168627 0.007843
0.764706 0.164706 0.000000
0.784314 0.168627 0.000000
0.796078 0.168627 0.000000
0.815686 0.180392 0.000000
0.835294 0.184314 0.003922
0.858824 0.184314 0.003922
0.874510 0.184314 0.000000
0.890196 0.188235 0.000000
0.909804 0.192157 0.000000
0.925490 0.196078 0.003922
0.933333 0.203922 0.011765
0.952941 0.196078 0.000000
0.984314 0.207843 0.000000
0.996078 0.207843 0.003922
1.000000 0.211765 0.000000
0.992157 0.215686 0.000000
1.000000 0.211765 0.003922
1.000000 0.329412 0.109804
0.333333 0.047059 0.031373
0.156863 0.090196 0.058824
0.094118 0.105882 0.070588
0.074510 0.129412 0.062745
0.098039 0.113725 0.054902
0.098039 0.121569 0.066667
0.109804 0.129412 0.050980
0.105882 0.121569 0.066667
0.113725 0.129412 0.062745
0.121569 0.133333 0.058824
0.129412 0.137255 0.054902
0.141176 0.133333 0.047059
0.152941 0.133333 0.047059
0.164706 0.133333 0.050980
0.180392 0.133333 0.047059
0.196078 0.129412 0.050980
0.219608 0.133333 0.050980
0.227451 0.129412 0.050980
0.239216 0.133333 0.050980
0.239216 0.137255 0.047059
0.254902 0.129412 0.039216
0.270588 0.129412 0.035294
0.294118 0.129412 0.035294
0.305882 0.133333 0.027451
0.329412 0.133333 0.043137
0.337255 0.133333 0.039216
0.356863 0.141176 0.031373
0.372549 0.141176 0.027451
0.392157 0.137255 0.019608
0.411765 0.141176 0.019608
0.435294 0.141176 0.027451
0.443137 0.141176 0.023529
0.470588 0.145098 0.019608
0.494118 0.145098 0.019608
0.517647 0.149020 0.007843
0.533333 0.149020 0.003922
0.552941 0.152941 0.000000
0.576471 0.156863 0.000000
0.600000 0.156863 0.000000
0.619608 0.160784 0.000000
0.639216 0.164706 0.000000
0.666667 0.168627 0.007843
0.678431 0.168627 0.000000
0.705882 0.168627 0.000000
0.721569 0.172549 0.000000
0.741176 0.176471 0.000000
0.764706 0.176471 0.000000
0.784314 0.180392 0.000000
0.803922 0.192157 0.000000
0.819608 0.184314 0.000000
0.835294 0.196078 0.003922
0.854902 0.200000 0.003922
0.878431 0.200000 0.003922
0.890196 0.203922 0.000000
0.905882 0.203922 0.003922
0.929412 0.211765 0.007843
0.949020 0.215686 0.007843
0.964706 0.211765 0.000000
0.968627 0.223529 0.000000
0.984314 0.219608 0.000000
1.000000 0.231373 0.011765
0.996078 0.235294 0.003922
0.996078 0.235294 0.003922
1.000000 0.349020 0.113725
0.341176 0.066667 0.035294
0.160784 0.098039 0.047059
0.086275 0.137255 0.066667
0.074510 0.133333 0.050980
0.098039 0.133333 0.058824
0.086275 0.137255 0.058824
0.090196 0.137255 0.058824
0.109804 0.145098 0.070588
0.109804 0.141176 0.050980
0.121569 0.141176 0.054902
0.129412 0.145098 0.050980
0.145098 0.141176 0.054902
0.152941 0.145098 0.047059
0.172549 0.149020 0.047059
0.180392 0.152941 0.050980
0.192157 0.152941 0.047059
0.215686 0.149020 0.047059
0.231373 0.145098 0.050980
0.239216 0.145098 0.043137
0.250980 0.145098 0.039216
0.266667 0.141176 0.043137
0.290196 0.145098 0.043137
0.305882 0.145098 0.043137
0.317647 0.145098 0.047059
0.329412 0.149020 0.047059
0.349020 0.149020 0.043137
0.360784 0.145098 0.027451
0.384314 0.152941 0.035294
0.403922 0.149020 0.023529
0.427451 0.152941 0.023529
0.439216 0.152941 0.023529
0.450980 0.152941 0.019608
0.482353 0.160784 0.015686
0.494118 0.160784 0.011765
0.517647 0.156863 0.003922
0.541176 0.160784 0.000000
0.560784 0.164706 0.000000
0.576471 0.168627 0.000000
0.607843 0.172549 0.000000
0.627451 0.180392 0.007843
0.654902 0.176471 0.000000
0.674510 0.176471 0.000000
0.698039 0.180392 0.000000
0.717647 0.184314 0.000000
0.725490 0.184314 0.000000
0.745098 0.188235 0.000000
0.768627 0.192157 0.000000
0.780392 0.196078 0.000000
0.807843 0.200000 0.000000
0.823529 0.203922 0.000000
0.850980 0.203922 0.000000
0.866667 0.207843 0.000000
0.882353 0.211765 0.000000
0.901961 0.215686 0.000000
0.913725 0.215686 0.003922
0.929412 0.219608 0.003922
0.945098 0.223529 0.000000
0.960784 0.231373 0.007843
0.980392 0.231373 0.000000
1.000000 0.231373 0.003922
1.000000 0.243137 0.000000
0.992157 0.250980 0.000000
0.992157 0.250980 0.003922
1.000000 0.360784 0.121569
0.321569 0.090196 0.035294
0.172549 0.109804 0.058824
0.078431 0.145098 0.074510
0.082353 0.152941 0.050980
0.094118 0.149020 0.050980
0.078431 0.149020 0.054902
0.101961 0.156863 0.058824
0.098039 0.152941 0.054902
0.105882 0.156863 0.050980
0.117647 0.156863 0.054902
0.125490 0.156863 0.058824
0.141176 0.164706 0.062745
0.152941 0.164706 0.058824
0.164706 0.160784 0.050980
0.180392 0.160784 0.047059
0.196078 0.168627 0.054902
0.207843 0.164706 0.047059
0.231373 0.164706 0.054902
0.247059 0.164706 0.050980
0.258824 0.160784 0.043137
0.274510 0.160784 0.043137
0.290196 0.160784 0.039216
0.298039 0.160784 0.035294
0.317647 0.164706 0.043137
0.341176 0.168627 0.031373
0.360784 0.164706 0.035294
0.376471 0.164706 0.031373
0.392157 0.164706 0.027451
0.407843 0.160784 0.023529
0.431373 0.164706 0.027451
0.450980 0.168627 0.019608
0.462745 0.168627 0.015686
0.482353 0.172549 0.011765
0.505882 0.172549 0.011765
0.533333 0.176471 0.003922
0.545098 0.176471 0.003922
0.572549 0.176471 0.003922
0.588235 0.180392 0.003922
0.615686 0.180392 0.003922
0.639216 0.180392 0.007843
0.662745 0.192157 0.000000
0.674510 0.192157 0.000000
0.698039 0.192157 0.000000
0.717647 0.196078 0.000000
0.737255 0.200000 0.000000
0.756863 0.203922 0.000000
0.780392 0.203922 0.000000
0.800000 0.207843 0.000000
0.811765 0.215686 0.000000
0.823529 0.215686 0.000000
0.850980 0.215686 0.000000
0.866667 0.219608 0.003922
0.886275 0.215686 0.003922
0.898039 0.223529 0.003922
0.921569 0.223529 0.003922
0.937255 0.231373 0.003922
0.945098 0.231373 0.003922
0.972549 0.239216 0.000000
0.976471 0.243137 0.000000
0.988235 0.247059 0.000000
0.992157 0.250980 0.003922
0.988235 0.258824 0.000000
0.992157 0.262745 0.000000
1.000000 0.372549 0.141176
0.329412 0.109804 0.027451
0.184314 0.121569 0.054902
0.066667 0.160784 0.074510
0.098039 0.156863 0.066667
0.074510 0.160784 0.062745
0.090196 0.160784 0.058824
0.094118 0.168627 0.054902
0.098039 0.168627 0.066667
0.109804 0.168627 0.054902
0.113725 0.172549 0.058824
0.121569 0.172549 0.054902
0.141176 0.176471 0.054902
0.152941 0.180392 0.050980
0.164706 0.180392 0.050980
0.180392 0.180392 0.047059
0.192157 0.180392 0.043137
0.223529 0.184314 0.043137
0.239216 0.192157 0.043137
0.254902 0.184314 0.035294
0.270588 0.184314 0.031373
0.282353 0.192157 0.031373
0.294118 0.184314 0.031373
0.313725 0.180392 0.035294
0.329412 0.180392 0.039216
0.345098 0.180392 0.031373
0.368627 0.180392 0.039216
0.384314 0.180392 0.027451
0.400000 0.184314 0.031373
0.423529 0.180392 0.027451
0.435294 0.180392 0.023529
0.450980 0.180392 0.011765
0.470588 0.188235 0.007843
0.498039 0.192157 0.011765
0.513725 0.184314 0.003922
0.533333 0.188235 0.000000
0.556863 0.196078 0.003922
0.588235 0.196078 0.003922
0.600000 0.196078 0.000000
0.627451 0.196078 0.000000
0.654902 0.200000 0.000000
0.662745 0.203922 0.000000
0.686275 0.203922 0.003922
0.709804 0.211765 0.011765
0.725490 0.211765 0.007843
0.749020 0.211765 0.000000
0.760784 0.219608 0.000000
0.780392 0.223529 0.000000
0.796078 0.223529 0.000000
0.819608 0.223529 0.000000
0.835294 0.223529 0.000000
0.858824 0.231373 0.003922
0.874510 0.231373 0.000000
0.886275 0.235294 0.000000
0.905882 0.239216 0.000000
0.921569 0.239216 0.000000
0.937255 0.243137 0.007843
0.945098 0.250980 0.007843
0.968627 0.250980 0.000000
0.980392 0.254902 0.003922
0.996078 0.254902 0.000000
1.000000 0.262745 0.011765
0.992157 0.270588 0.000000
0.992157 0.278431 0.000000
1.000000 0.392157 0.133333
0.364706 0.109804 0.031373
0.188235 0.141176 0.054902
0.074510 0.176471 0.070588
0.078431 0.184314 0.054902
0.070588 0.188235 0.054902
0.078431 0.176471 0.054902
0.086275 0.192157 0.054902
0.090196 0.192157 0.054902
0.098039 0.192157 0.050980
0.109804 0.196078 0.054902
0.125490 0.192157 0.058824
0.133333 0.196078 0.054902
0.141176 0.196078 0.054902
0.156863 0.196078 0.050980
0.176471 0.200000 0.050980
0.196078 0.203922 0.050980
0.211765 0.200000 0.039216
0.243137 0.215686 0.043137
0.254902 0.211765 0.035294
0.262745 0.207843 0.031373
0.290196 0.200000 0.027451
0.301961 0.207843 0.027451
0.313725 0.200000 0.027451
0.337255 0.200000 0.035294
0.349020 0.203922 0.027451
0.376471 0.200000 0.035294
0.396078 0.196078 0.027451
0.411765 0.200000 0.027451
0.435294 0.192157 0.031373
0.447059 0.196078 0.019608
0.466667 0.200000 0.015686
0.490196 0.200000 0.015686
0.505882 0.211765 0.003922
0.529412 0.211765 0.003922
0.549020 0.207843 0.000000
0.568627 0.211765 0.003922
0.584314 0.211765 0.000000
0.607843 0.219608 0.003922
0.631373 0.219608 0.000000
0.654902 0.223529 0.000000
0.678431 0.223529 0.000000
0.698039 0.227451 0.000000
0.717647 0.231373 0.000000
0.737255 0.227451 0.000000
0.756863 0.227451 0.007843
0.768627 0.227451 0.003922
0.788235 0.231373 0.003922
0.807843 0.235294 0.003922
0.827451 0.239216 0.000000
0.847059 0.243137 0.000000
0.866667 0.243137 0.000000
0.890196 0.247059 0.000000
0.894118 0.247059 0.000000
