assets/filters/Warm_Vintage.cube
# Warm_Vintage LUT
LUT_3D_SIZE 5
0.080000 0.050000 0.030000
0.080000 0.050000 0.167500
0.080000 0.050000 0.305000
0.080000 0.050000 0.442500
0.080000 0.050000 0.580000
0.080000 0.237500 0.030000
0.080000 0.237500 0.167500
0.080000 0.237500 0.305000
0.080000 0.237500 0.442500
0.080000 0.237500 0.580000
0.080000 0.425000 0.030000
0.080000 0.425000 0.167500
0.080000 0.425000 0.305000
0.080000 0.425000 0.442500
0.080000 0.425000 0.580000
0.080000 0.612500 0.030000
0.080000 0.612500 0.167500
0.080000 0.612500 0.305000
0.080000 0.612500 0.442500
0.080000 0.612500 0.580000
0.080000 0.800000 0.030000
0.080000 0.800000 0.167500
0.080000 0.800000 0.305000
0.080000 0.800000 0.442500
0.080000 0.800000 0.580000
0.305000 0.050000 0.030000
0.305000 0.050000 0.167500
0.305000 0.050000 0.305000
0.305000 0.050000 0.442500
0.305000 0.050000 0.580000
0.305000 0.237500 0.030000
0.305000 0.237500 0.167500
0.305000 0.237500 0.305000
0.305000 0.237500 0.442500
0.305000 0.237500 0.580000
0.305000 0.425000 0.030000
0.305000 0.425000 0.167500
0.305000 0.425000 0.305000
0.305000 0.425000 0.442500
0.305000 0.425000 0.580000
0.305000 0.612500 0.030000
0.305000 0.612500 0.167500
0.305000 0.612500 0.305000
0.305000 0.612500 0.442500
0.305000 0.612500 0.580000
0.305000 0.800000 0.030000
0.305000 0.800000 0.167500
0.305000 0.800000 0.305000
0.305000 0.800000 0.442500
0.305000 0.800000 0.580000
0.530000 0.050000 0.030000
0.530000 0.050000 0.167500
0.530000 0.050000 0.305000
0.530000 0.050000 0.442500
0.530000 0.050000 0.580000
0.530000 0.237500 0.030000
0.530000 0.237500 0.167500
0.530000 0.237500 0.305000
0.530000 0.237500 0.442500
0.530000 0.237500 0.580000
0.530000 0.425000 0.030000
0.530000 0.425000 0.167500
0.530000 0.425000 0.305000
0.530000 0.425000 0.442500
0.530000 0.425000 0.580000
0.530000 0.612500 0.030000
0.530000 0.612500 0.167500
0.530000 0.612500 0.305000
0.530000 0.612500 0.442500
0.530000 0.612500 0.580000
0.530000 0.800000 0.030000
0.530000 0.800000 0.167500
0.530000 0.800000 0.305000
0.530000 0.800000 0.442500
0.530000 0.800000 0.580000
0.755000 0.050000 0.030000
0.755000 0.050000 0.167500
0.755000 0.050000 0.305000
0.755000 0.050000 0.442500
0.755000 0.050000 0.580000
0.755000 0.237500 0.030000
0.755000 0.237500 0.167500
0.755000 0.237500 0.305000
0.755000 0.237500 0.442500
0.755000 0.237500 0.580000
0.755000 0.425000 0.030000
0.755000 0.425000 0.167500
0.755000 0.425000 0.305000
0.755000 0.425000 0.442500
0.755000 0.425000 0.580000
0.755000 0.612500 0.030000
0.755000 0.612500 0.167500
0.755000 0.612500 0.305000
0.755000 0.612500 0.442500
0.755000 0.612500 0.580000
0.755000 0.800000 0.030000
0.755000 0.800000 0.167500
0.755000 0.800000 0.305000
0.755000 0.800000 0.442500
0.755000 0.800000 0.580000
0.980000 0.050000 0.030000
0.980000 0.050000 0.167500
0.980000 0.050000 0.305000
0.980000 0.050000 0.442500
0.980000 0.050000 0.580000
0.980000 0.237500 0.030000
0.980000 0.237500 0.167500
0.980000 0.237500 0.305000
0.980000 0.237500 0.442500
0.980000 0.237500 0.580000
0.980000 0.425000 0.030000
0.980000 0.425000 0.167500
0.980000 0.425000 0.305000
0.980000 0.425000 0.442500
0.980000 0.425000 0.580000
0.980000 0.612500 0.030000
0.980000 0.612500 0.167500
0.980000 0.612500 0.305000
0.980000 0.612500 0.442500
0.980000 0.612500 0.580000
0.980000 0.800000 0.030000
0.980000 0.800000 0.167500
0.980000 0.800000 0.305000
0.980000 0.800000 0.442500
0.980000 0.800000 0.580000
