assets/filters/Warm_Vintage.cube
# Warm_Vintage LUT
LUT_3D_SIZE 9
0.080000 0.050000 0.030000
0.080000 0.050000 0.098750
0.080000 0.050000 0.167500
0.080000 0.050000 0.236250
0.080000 0.050000 0.305000
0.080000 0.050000 0.373750
0.080000 0.050000 0.442500
0.080000 0.050000 0.511250
0.080000 0.050000 0.580000
0.080000 0.143750 0.030000
0.080000 0.143750 0.098750
0.080000 0.143750 0.167500
0.080000 0.143750 0.236250
0.080000 0.143750 0.305000
0.080000 0.143750 0.373750
0.080000 0.143750 0.442500
0.080000 0.143750 0.511250
0.080000 0.143750 0.580000
0.080000 0.237500 0.030000
0.080000 0.237500 0.098750
0.080000 0.237500 0.167500
0.080000 0.237500 0.236250
0.080000 0.237500 0.305000
0.080000 0.237500 0.373750
0.080000 0.237500 0.442500
0.080000 0.237500 0.511250
0.080000 0.237500 0.580000
0.080000 0.331250 0.030000
0.080000 0.331250 0.098750
0.080000 0.331250 0.167500
0.080000 0.331250 0.236250
0.080000 0.331250 0.305000
0.080000 0.331250 0.373750
0.080000 0.331250 0.442500
0.080000 0.331250 0.511250
0.080000 0.331250 0.580000
0.080000 0.425000 0.030000
0.080000 0.425000 0.098750
0.080000 0.425000 0.167500
0.080000 0.425000 0.236250
0.080000 0.425000 0.305000
0.080000 0.425000 0.373750
0.080000 0.425000 0.442500
0.080000 0.425000 0.511250
0.080000 0.425000 0.580000
0.080000 0.518750 0.030000
0.080000 0.518750 0.098750
0.080000 0.518750 0.167500
0.080000 0.518750 0.236250
0.080000 0.518750 0.305000
0.080000 0.518750 0.373750
0.080000 0.518750 0.442500
0.080000 0.518750 0.511250
0.080000 0.518750 0.580000
0.080000 0.612500 0.030000
0.080000 0.612500 0.098750
0.080000 0.612500 0.167500
0.080000 0.612500 0.236250
0.080000 0.612500 0.305000
0.080000 0.612500 0.373750
0.080000 0.612500 0.442500
0.080000 0.612500 0.511250
0.080000 0.612500 0.580000
0.080000 0.706250 0.030000
0.080000 0.706250 0.098750
0.080000 0.706250 0.167500
0.080000 0.706250 0.236250
0.080000 0.706250 0.305000
0.080000 0.706250 0.373750
0.080000 0.706250 0.442500
0.080000 0.706250 0.511250
0.080000 0.706250 0.580000
0.080000 0.800000 0.030000
0.080000 0.800000 0.098750
0.080000 0.800000 0.167500
0.080000 0.800000 0.236250
0.080000 0.800000 0.305000
0.080000 0.800000 0.373750
0.080000 0.800000 0.442500
0.080000 0.800000 0.511250
0.080000 0.800000 0.580000
0.192500 0.050000 0.030000
0.192500 0.050000 0.098750
0.192500 0.050000 0.167500
0.192500 0.050000 0.236250
0.192500 0.050000 0.305000
0.192500 0.050000 0.373750
0.192500 0.050000 0.442500
0.192500 0.050000 0.511250
0.192500 0.050000 0.580000
0.192500 0.143750 0.030000
0.192500 0.143750 0.098750
0.192500 0.143750 0.167500
0.192500 0.143750 0.236250
0.192500 0.143750 0.305000
0.192500 0.143750 0.373750
0.192500 0.143750 0.442500
0.192500 0.143750 0.511250
0.192500 0.143750 0.580000
0.192500 0.237500 0.030000
0.192500 0.237500 0.098750
0.192500 0.237500 0.167500
0.192500 0.237500 0.236250
0.192500 0.237500 0.305000
0.192500 0.237500 0.373750
0.192500 0.237500 0.442500
0.192500 0.237500 0.511250
0.192500 0.237500 0.580000
0.192500 0.331250 0.030000
0.192500 0.331250 0.098750
0.192500 0.331250 0.167500
0.192500 0.331250 0.236250
0.192500 0.331250 0.305000
0.192500 0.331250 0.373750
0.192500 0.331250 0.442500
0.192500 0.331250 0.511250
0.192500 0.331250 0.580000
0.192500 0.425000 0.030000
0.192500 0.425000 0.098750
0.192500 0.425000 0.167500
0.192500 0.425000 0.236250
0.192500 0.425000 0.305000
0.192500 0.425000 0.373750
0.192500 0.425000 0.442500
0.192500 0.425000 0.511250
0.192500 0.425000 0.580000
0.192500 0.518750 0.030000
0.192500 0.518750 0.098750
0.192500 0.518750 0.167500
0.192500 0.518750 0.236250
0.192500 0.518750 0.305000
0.192500 0.518750 0.373750
0.192500 0.518750 0.442500
0.192500 0.518750 0.511250
0.192500 0.518750 0.580000
0.192500 0.612500 0.030000
0.192500 0.612500 0.098750
0.192500 0.612500 0.167500
0.192500 0.612500 0.236250
0.192500 0.612500 0.305000
0.192500 0.612500 0.373750
0.192500 0.612500 0.442500
0.192500 0.612500 0.511250
0.192500 0.612500 0.580000
0.192500 0.706250 0.030000
0.192500 0.706250 0.098750
0.192500 0.706250 0.167500
0.192500 0.706250 0.236250
0.192500 0.706250 0.305000
0.192500 0.706250 0.373750
0.192500 0.706250 0.442500
0.192500 0.706250 0.511250
0.192500 0.706250 0.580000
0.192500 0.800000 0.030000
0.192500 0.800000 0.098750
0.192500 0.800000 0.167500
0.192500 0.800000 0.236250
0.192500 0.800000 0.305000
0.192500 0.800000 0.373750
0.192500 0.800000 0.442500
0.192500 0.800000 0.511250
0.192500 0.800000 0.580000
0.305000 0.050000 0.030000
0.305000 0.050000 0.098750
0.305000 0.050000 0.167500
0.305000 0.050000 0.236250
0.305000 0.050000 0.305000
0.305000 0.050000 0.373750
0.305000 0.050000 0.442500
0.305000 0.050000 0.511250
0.305000 0.050000 0.580000
0.305000 0.143750 0.030000
0.305000 0.143750 0.098750
0.305000 0.143750 0.167500
0.305000 0.143750 0.236250
0.305000 0.143750 0.305000
0.305000 0.143750 0.373750
0.305000 0.143750 0.442500
0.305000 0.143750 0.511250
0.305000 0.143750 0.580000
0.305000 0.237500 0.030000
0.305000 0.237500 0.098750
0.305000 0.237500 0.167500
0.305000 0.237500 0.236250
0.305000 0.237500 0.305000
0.305000 0.237500 0.373750
0.305000 0.237500 0.442500
0.305000 0.237500 0.511250
0.305000 0.237500 0.580000
0.305000 0.331250 0.030000
0.305000 0.331250 0.098750
0.305000 0.331250 0.167500
0.305000 0.331250 0.236250
0.305000 0.331250 0.305000
0.305000 0.331250 0.373750
0.305000 0.331250 0.442500
0.305000 0.331250 0.511250
0.305000 0.331250 0.580000
0.305000 0.425000 0.030000
0.305000 0.425000 0.098750
0.305000 0.425000 0.167500
0.305000 0.425000 0.236250
0.305000 0.425000 0.305000
0.305000 0.425000 0.373750
0.305000 0.425000 0.442500
0.305000 0.425000 0.511250
0.305000 0.425000 0.580000
0.305000 0.518750 0.030000
0.305000 0.518750 0.098750
0.305000 0.518750 0.167500
0.305000 0.518750 0.236250
0.305000 0.518750 0.305000
0.305000 0.518750 0.373750
0.305000 0.518750 0.442500
0.305000 0.518750 0.511250
0.305000 0.518750 0.580000
0.305000 0.612500 0.030000
0.305000 0.612500 0.098750
0.305000 0.612500 0.167500
0.305000 0.612500 0.236250
0.305000 0.612500 0.305000
0.305000 0.612500 0.373750
0.305000 0.612500 0.442500
0.305000 0.612500 0.511250
0.305000 0.612500 0.580000
0.305000 0.706250 0.030000
0.305000 0.706250 0.098750
0.305000 0.706250 0.167500
0.305000 0.706250 0.236250
0.305000 0.706250 0.305000
0.305000 0.706250 0.373750
0.305000 0.706250 0.442500
0.305000 0.706250 0.511250
0.305000 0.706250 0.580000
0.305000 0.800000 0.030000
0.305000 0.800000 0.098750
0.305000 0.800000 0.167500
0.305000 0.800000 0.236250
0.305000 0.800000 0.305000
0.305000 0.800000 0.373750
0.305000 0.800000 0.442500
0.305000 0.800000 0.511250
0.305000 0.800000 0.580000
0.417500 0.050000 0.030000
0.417500 0.050000 0.098750
0.417500 0.050000 0.167500
0.417500 0.050000 0.236250
0.417500 0.050000 0.305000
0.417500 0.050000 0.373750
0.417500 0.050000 0.442500
0.417500 0.050000 0.511250
0.417500 0.050000 0.580000
0.417500 0.143750 0.030000
0.417500 0.143750 0.098750
0.417500 0.143750 0.167500
0.417500 0.143750 0.236250
0.417500 0.143750 0.305000
0.417500 0.143750 0.373750
0.417500 0.143750 0.442500
0.417500 0.143750 0.511250
0.417500 0.143750 0.580000
0.417500 0.237500 0.030000
0.417500 0.237500 0.098750
0.417500 0.237500 0.167500
0.417500 0.237500 0.236250
0.417500 0.237500 0.305000
0.417500 0.237500 0.373750
0.417500 0.237500 0.442500
0.417500 0.237500 0.511250
0.417500 0.237500 0.580000
0.417500 0.331250 0.030000
0.417500 0.331250 0.098750
0.417500 0.331250 0.167500
0.417500 0.331250 0.236250
0.417500 0.331250 0.305000
0.417500 0.331250 0.373750
0.417500 0.331250 0.442500
0.417500 0.331250 0.511250
0.417500 0.331250 0.580000
0.417500 0.425000 0.030000
0.417500 0.425000 0.098750
0.417500 0.425000 0.167500
0.417500 0.425000 0.236250
0.417500 0.425000 0.305000
0.417500 0.425000 0.373750
0.417500 0.425000 0.442500
0.417500 0.425000 0.511250
0.417500 0.425000 0.580000
0.417500 0.518750 0.030000
0.417500 0.518750 0.098750
0.417500 0.518750 0.167500
0.417500 0.518750 0.236250
0.417500 0.518750 0.305000
0.417500 0.518750 0.373750
0.417500 0.518750 0.442500
0.417500 0.518750 0.511250
0.417500 0.518750 0.580000
0.417500 0.612500 0.030000
0.417500 0.612500 0.098750
0.417500 0.612500 0.167500
0.417500 0.612500 0.236250
0.417500 0.612500 0.305000
0.417500 0.612500 0.373750
0.417500 0.612500 0.442500
0.417500 0.612500 0.511250
0.417500 0.612500 0.580000
0.417500 0.706250 0.030000
0.417500 0.706250 0.098750
0.417500 0.706250 0.167500
0.417500 0.706250 0.236250
0.417500 0.706250 0.305000
0.417500 0.706250 0.373750
0.417500 0.706250 0.442500
0.417500 0.706250 0.511250
0.417500 0.706250 0.580000
0.417500 0.800000 0.030000
0.417500 0.800000 0.098750
0.417500 0.800000 0.167500
0.417500 0.800000 0.236250
0.417500 0.800000 0.305000
0.417500 0.800000 0.373750
0.417500 0.800000 0.442500
0.417500 0.800000 0.511250
0.417500 0.800000 0.580000
0.530000 0.050000 0.030000
0.530000 0.050000 0.098750
0.530000 0.050000 0.167500
0.530000 0.050000 0.236250
0.530000 0.050000 0.305000
0.530000 0.050000 0.373750
0.530000 0.050000 0.442500
0.530000 0.050000 0.511250
0.530000 0.050000 0.580000
0.530000 0.143750 0.030000
0.530000 0.143750 0.098750
0.530000 0.143750 0.167500
0.530000 0.143750 0.236250
0.530000 0.143750 0.305000
0.530000 0.143750 0.373750
0.530000 0.143750 0.442500
0.530000 0.143750 0.511250
0.530000 0.143750 0.580000
0.530000 0.237500 0.030000
0.530000 0.237500 0.098750
0.530000 0.237500 0.167500
0.530000 0.237500 0.236250
0.530000 0.237500 0.305000
0.530000 0.237500 0.373750
0.530000 0.237500 0.442500
0.530000 0.237500 0.511250
0.530000 0.237500 0.580000
0.530000 0.331250 0.030000
0.530000 0.331250 0.098750
0.530000 0.331250 0.167500
0.530000 0.331250 0.236250
0.530000 0.331250 0.305000
0.530000 0.331250 0.373750
0.530000 0.331250 0.442500
0.530000 0.331250 0.511250
0.530000 0.331250 0.580000
0.530000 0.425000 0.030000
0.530000 0.425000 0.098750
0.530000 0.425000 0.167500
0.530000 0.425000 0.236250
0.530000 0.425000 0.305000
0.530000 0.425000 0.373750
0.530000 0.425000 0.442500
0.530000 0.425000 0.511250
0.530000 0.425000 0.580000
0.530000 0.518750 0.030000
0.530000 0.518750 0.098750
0.530000 0.518750 0.167500
0.530000 0.518750 0.236250
0.530000 0.518750 0.305000
0.530000 0.518750 0.373750
0.530000 0.518750 0.442500
0.530000 0.518750 0.511250
0.530000 0.518750 0.580000
0.530000 0.612500 0.030000
0.530000 0.612500 0.098750
0.530000 0.612500 0.167500
0.530000 0.612500 0.236250
0.530000 0.612500 0.305000
0.530000 0.612500 0.373750
0.530000 0.612500 0.442500
0.530000 0.612500 0.511250
0.530000 0.612500 0.580000
0.530000 0.706250 0.030000
0.530000 0.706250 0.098750
0.530000 0.706250 0.167500
0.530000 0.706250 0.236250
0.530000 0.706250 0.305000
0.530000 0.706250 0.373750
0.530000 0.706250 0.442500
0.530000 0.706250 0.511250
0.530000 0.706250 0.580000
0.530000 0.800000 0.030000
0.530000 0.800000 0.098750
0.530000 0.800000 0.167500
0.530000 0.800000 0.236250
0.530000 0.800000 0.305000
0.530000 0.800000 0.373750
0.530000 0.800000 0.442500
0.530000 0.800000 0.511250
0.530000 0.800000 0.580000
0.642500 0.050000 0.030000
0.642500 0.050000 0.098750
0.642500 0.050000 0.167500
0.642500 0.050000 0.236250
0.642500 0.050000 0.305000
0.642500 0.050000 0.373750
0.642500 0.050000 0.442500
0.642500 0.050000 0.511250
0.642500 0.050000 0.580000
0.642500 0.143750 0.030000
0.642500 0.143750 0.098750
0.642500 0.143750 0.167500
0.642500 0.143750 0.236250
0.642500 0.143750 0.305000
0.642500 0.143750 0.373750
0.642500 0.143750 0.442500
0.642500 0.143750 0.511250
0.642500 0.143750 0.580000
0.642500 0.237500 0.030000
0.642500 0.237500 0.098750
0.642500 0.237500 0.167500
0.642500 0.237500 0.236250
0.642500 0.237500 0.305000
0.642500 0.237500 0.373750
0.642500 0.237500 0.442500
0.642500 0.237500 0.511250
0.642500 0.237500 0.580000
0.642500 0.331250 0.030000
0.642500 0.331250 0.098750
0.642500 0.331250 0.167500
0.642500 0.331250 0.236250
0.642500 0.331250 0.305000
0.642500 0.331250 0.373750
0.642500 0.331250 0.442500
0.642500 0.331250 0.511250
0.642500 0.331250 0.580000
0.642500 0.425000 0.030000
0.642500 0.425000 0.098750
0.642500 0.425000 0.167500
0.642500 0.425000 0.236250
0.642500 0.425000 0.305000
0.642500 0.425000 0.373750
0.642500 0.425000 0.442500
0.642500 0.425000 0.511250
0.642500 0.425000 0.580000
0.642500 0.518750 0.030000
0.642500 0.518750 0.098750
0.642500 0.518750 0.167500
0.642500 0.518750 0.236250
0.642500 0.518750 0.305000
0.642500 0.518750 0.373750
0.642500 0.518750 0.442500
0.642500 0.518750 0.511250
0.642500 0.518750 0.580000
0.642500 0.612500 0.030000
0.642500 0.612500 0.098750
0.642500 0.612500 0.167500
0.642500 0.612500 0.236250
0.642500 0.612500 0.305000
0.642500 0.612500 0.373750
0.642500 0.612500 0.442500
0.642500 0.612500 0.511250
0.642500 0.612500 0.580000
0.642500 0.706250 0.030000
0.642500 0.706250 0.098750
0.642500 0.706250 0.167500
0.642500 0.706250 0.236250
0.642500 0.706250 0.305000
0.642500 0.706250 0.373750
0.642500 0.706250 0.442500
0.642500 0.706250 0.511250
0.642500 0.706250 0.580000
0.642500 0.800000 0.030000
0.642500 0.800000 0.098750
0.642500 0.800000 0.167500
0.642500 0.800000 0.236250
0.642500 0.800000 0.305000
0.642500 0.800000 0.373750
0.642500 0.800000 0.442500
0.642500 0.800000 0.511250
0.642500 0.800000 0.580000
0.755000 0.050000 0.030000
0.755000 0.050000 0.098750
0.755000 0.050000 0.167500
0.755000 0.050000 0.236250
0.755000 0.050000 0.305000
0.755000 0.050000 0.373750
0.755000 0.050000 0.442500
0.755000 0.050000 0.511250
0.755000 0.050000 0.580000
0.755000 0.143750 0.030000
0.755000 0.143750 0.098750
0.755000 0.143750 0.167500
0.755000 0.143750 0.236250
0.755000 0.143750 0.305000
0.755000 0.143750 0.373750
0.755000 0.143750 0.442500
0.755000 0.143750 0.511250
0.755000 0.143750 0.580000
0.755000 0.237500 0.030000
0.755000 0.237500 0.098750
0.755000 0.237500 0.167500
0.755000 0.237500 0.236250
0.755000 0.237500 0.305000
0.755000 0.237500 0.373750
0.755000 0.237500 0.442500
0.755000 0.237500 0.511250
0.755000 0.237500 0.580000
0.755000 0.331250 0.030000
0.755000 0.331250 0.098750
0.755000 0.331250 0.167500
0.755000 0.331250 0.236250
0.755000 0.331250 0.305000
0.755000 0.331250 0.373750
0.755000 0.331250 0.442500
0.755000 0.331250 0.511250
0.755000 0.331250 0.580000
0.755000 0.425000 0.030000
0.755000 0.425000 0.098750
0.755000 0.425000 0.167500
0.755000 0.425000 0.236250
0.755000 0.425000 0.305000
0.755000 0.425000 0.373750
0.755000 0.425000 0.442500
0.755000 0.425000 0.511250
0.755000 0.425000 0.580000
0.755000 0.518750 0.030000
0.755000 0.518750 0.098750
0.755000 0.518750 0.167500
0.755000 0.518750 0.236250
0.755000 0.518750 0.305000
0.755000 0.518750 0.373750
0.755000 0.518750 0.442500
0.755000 0.518750 0.511250
0.755000 0.518750 0.580000
0.755000 0.612500 0.030000
0.755000 0.612500 0.098750
0.755000 0.612500 0.167500
0.755000 0.612500 0.236250
0.755000 0.612500 0.305000
0.755000 0.612500 0.373750
0.755000 0.612500 0.442500
0.755000 0.612500 0.511250
0.755000 0.612500 0.580000
0.755000 0.706250 0.030000
0.755000 0.706250 0.098750
0.755000 0.706250 0.167500
0.755000 0.706250 0.236250
0.755000 0.706250 0.305000
0.755000 0.706250 0.373750
0.755000 0.706250 0.442500
0.755000 0.706250 0.511250
0.755000 0.706250 0.580000
0.755000 0.800000 0.030000
0.755000 0.800000 0.098750
0.755000 0.800000 0.167500
0.755000 0.800000 0.236250
0.755000 0.800000 0.305000
0.755000 0.800000 0.373750
0.755000 0.800000 0.442500
0.755000 0.800000 0.511250
0.755000 0.800000 0.580000
0.867500 0.050000 0.030000
0.867500 0.050000 0.098750
0.867500 0.050000 0.167500
0.867500 0.050000 0.236250
0.867500 0.050000 0.305000
0.867500 0.050000 0.373750
0.867500 0.050000 0.442500
0.867500 0.050000 0.511250
0.867500 0.050000 0.580000
0.867500 0.143750 0.030000
0.867500 0.143750 0.098750
0.867500 0.143750 0.167500
0.867500 0.143750 0.236250
0.867500 0.143750 0.305000
0.867500 0.143750 0.373750
0.867500 0.143750 0.442500
0.867500 0.143750 0.511250
0.867500 0.143750 0.580000
0.867500 0.237500 0.030000
0.867500 0.237500 0.098750
0.867500 0.237500 0.167500
0.867500 0.237500 0.236250
0.867500 0.237500 0.305000
0.867500 0.237500 0.373750
0.867500 0.237500 0.442500
0.867500 0.237500 0.511250
0.867500 0.237500 0.580000
0.867500 0.331250 0.030000
0.867500 0.331250 0.098750
0.867500 0.331250 0.167500
0.867500 0.331250 0.236250
0.867500 0.331250 0.305000
0.867500 0.331250 0.373750
0.867500 0.331250 0.442500
0.867500 0.331250 0.511250
0.867500 0.331250 0.580000
0.867500 0.425000 0.030000
0.867500 0.425000 0.098750
0.867500 0.425000 0.167500
0.867500 0.425000 0.236250
0.867500 0.425000 0.305000
0.867500 0.425000 0.373750
0.867500 0.425000 0.442500
0.867500 0.425000 0.511250
0.867500 0.425000 0.580000
0.867500 0.518750 0.030000
0.867500 0.518750 0.098750
0.867500 0.518750 0.167500
0.867500 0.518750 0.236250
0.867500 0.518750 0.305000
0.867500 0.518750 0.373750
0.867500 0.518750 0.442500
0.867500 0.518750 0.511250
0.867500 0.518750 0.580000
0.867500 0.612500 0.030000
0.867500 0.612500 0.098750
0.867500 0.612500 0.167500
0.867500 0.612500 0.236250
0.867500 0.612500 0.305000
0.867500 0.612500 0.373750
0.867500 0.612500 0.442500
0.867500 0.612500 0.511250
0.867500 0.612500 0.580000
0.867500 0.706250 0.030000
0.867500 0.706250 0.098750
0.867500 0.706250 0.167500
0.867500 0.706250 0.236250
0.867500 0.706250 0.305000
0.867500 0.706250 0.373750
0.867500 0.706250 0.442500
0.867500 0.706250 0.511250
0.867500 0.706250 0.580000
0.867500 0.800000 0.030000
0.867500 0.800000 0.098750
0.867500 0.800000 0.167500
0.867500 0.800000 0.236250
0.867500 0.800000 0.305000
0.867500 0.800000 0.373750
0.867500 0.800000 0.442500
0.867500 0.800000 0.511250
0.867500 0.800000 0.580000
0.980000 0.050000 0.030000
0.980000 0.050000 0.098750
0.980000 0.050000 0.167500
0.980000 0.050000 0.236250
0.980000 0.050000 0.305000
0.980000 0.050000 0.373750
0.980000 0.050000 0.442500
0.980000 0.050000 0.511250
0.980000 0.050000 0.580000
0.980000 0.143750 0.030000
0.980000 0.143750 0.098750
0.980000 0.143750 0.167500
0.980000 0.143750 0.236250
0.980000 0.143750 0.305000
0.980000 0.143750 0.373750
0.980000 0.143750 0.442500
0.980000 0.143750 0.511250
0.980000 0.143750 0.580000
0.980000 0.237500 0.030000
0.980000 0.237500 0.098750
0.980000 0.237500 0.167500
0.980000 0.237500 0.236250
0.980000 0.237500 0.305000
0.980000 0.237500 0.373750
0.980000 0.237500 0.442500
0.980000 0.237500 0.511250
0.980000 0.237500 0.580000
0.980000 0.331250 0.030000
0.980000 0.331250 0.098750
0.980000 0.331250 0.167500
0.980000 0.331250 0.236250
0.980000 0.331250 0.305000
0.980000 0.331250 0.373750
0.980000 0.331250 0.442500
0.980000 0.331250 0.511250
0.980000 0.331250 0.580000
0.980000 0.425000 0.030000
0.980000 0.425000 0.098750
0.980000 0.425000 0.167500
0.980000 0.425000 0.236250
0.980000 0.425000 0.305000
0.980000 0.425000 0.373750
0.980000 0.425000 0.442500
0.980000 0.425000 0.511250
0.980000 0.425000 0.580000
0.980000 0.518750 0.030000
0.980000 0.518750 0.098750
0.980000 0.518750 0.167500
0.980000 0.518750 0.236250
0.980000 0.518750 0.305000
0.980000 0.518750 0.373750
0.980000 0.518750 0.442500
0.980000 0.518750 0.511250
0.980000 0.518750 0.580000
0.980000 0.612500 0.030000
0.980000 0.612500 0.098750
0.980000 0.612500 0.167500
0.980000 0.612500 0.236250
0.980000 0.612500 0.305000
0.980000 0.612500 0.373750
0.980000 0.612500 0.442500
0.980000 0.612500 0.511250
0.980000 0.612500 0.580000
0.980000 0.706250 0.030000
0.980000 0.706250 0.098750
0.980000 0.706250 0.167500
0.980000 0.706250 0.236250
0.980000 0.706250 0.305000
0.980000 0.706250 0.373750
0.980000 0.706250 0.442500
0.980000 0.706250 0.511250
0.980000 0.706250 0.580000
0.980000 0.800000 0.030000
0.980000 0.800000 0.098750
0.980000 0.800000 0.167500
0.980000 0.800000 0.236250
0.980000 0.800000 0.305000
0.980000 0.800000 0.373750
0.980000 0.800000 0.442500
0.980000 0.800000 0.511250
0.980000 0.800000 0.580000
