assets/filters/Warm_Vintage.cube
# Warm_Vintage LUT
LUT_3D_SIZE 33
0.080000 0.050000 0.030000
0.080000 0.050000 0.047188
0.080000 0.050000 0.064375
0.080000 0.050000 0.081563
0.080000 0.050000 0.098750
0.080000 0.050000 0.115937
0.080000 0.050000 0.133125
0.080000 0.050000 0.150313
0.080000 0.050000 0.167500
0.080000 0.050000 0.184688
0.080000 0.050000 0.201875
0.080000 0.050000 0.219063
0.080000 0.050000 0.236250
0.080000 0.050000 0.253437
0.080000 0.050000 0.270625
0.080000 0.050000 0.287813
0.080000 0.050000 0.305000
0.080000 0.050000 0.322188
0.080000 0.050000 0.339375
0.080000 0.050000 0.356563
0.080000 0.050000 0.373750
0.080000 0.050000 0.390938
0.080000 0.050000 0.408125
0.080000 0.050000 0.425312
0.080000 0.050000 0.442500
0.080000 0.050000 0.459688
0.080000 0.050000 0.476875
0.080000 0.050000 0.494063
0.080000 0.050000 0.511250
0.080000 0.050000 0.528438
0.080000 0.050000 0.545625
0.080000 0.050000 0.562813
0.080000 0.050000 0.580000
0.080000 0.073438 0.030000
0.080000 0.073438 0.047188
0.080000 0.073438 0.064375
0.080000 0.073438 0.081563
0.080000 0.073438 0.098750
0.080000 0.073438 0.115937
0.080000 0.073438 0.133125
0.080000 0.073438 0.150313
0.080000 0.073438 0.167500
0.080000 0.073438 0.184688
0.080000 0.073438 0.201875
0.080000 0.073438 0.219063
0.080000 0.073438 0.236250
0.080000 0.073438 0.253437
0.080000 0.073438 0.270625
0.080000 0.073438 0.287813
0.080000 0.073438 0.305000
0.080000 0.073438 0.322188
0.080000 0.073438 0.339375
0.080000 0.073438 0.356563
0.080000 0.073438 0.373750
0.080000 0.073438 0.390938
0.080000 0.073438 0.408125
0.080000 0.073438 0.425312
0.080000 0.073438 0.442500
0.080000 0.073438 0.459688
0.080000 0.073438 0.476875
0.080000 0.073438 0.494063
0.080000 0.073438 0.511250
0.080000 0.073438 0.528438
0.080000 0.073438 0.545625
0.080000 0.073438 0.562813
0.080000 0.073438 0.580000
0.080000 0.096875 0.030000
0.080000 0.096875 0.047188
0.080000 0.096875 0.064375
0.080000 0.096875 0.081563
0.080000 0.096875 0.098750
0.080000 0.096875 0.115937
0.080000 0.096875 0.133125
0.080000 0.096875 0.150313
0.080000 0.096875 0.167500
0.080000 0.096875 0.184688
0.080000 0.096875 0.201875
0.080000 0.096875 0.219063
0.080000 0.096875 0.236250
0.080000 0.096875 0.253437
0.080000 0.096875 0.270625
0.080000 0.096875 0.287813
0.080000 0.096875 0.305000
0.080000 0.096875 0.322188
0.080000 0.096875 0.339375
0.080000 0.096875 0.356563
0.080000 0.096875 0.373750
0.080000 0.096875 0.390938
0.080000 0.096875 0.408125
0.080000 0.096875 0.425312
0.080000 0.096875 0.442500
0.080000 0.096875 0.459688
0.080000 0.096875 0.476875
0.080000 0.096875 0.494063
0.080000 0.096875 0.511250
0.080000 0.096875 0.528438
0.080000 0.096875 0.545625
0.080000 0.096875 0.562813
0.080000 0.096875 0.580000
0.080000 0.120313 0.030000
0.080000 0.120313 0.047188
0.080000 0.120313 0.064375
0.080000 0.120313 0.081563
0.080000 0.120313 0.098750
0.080000 0.120313 0.115937
0.080000 0.120313 0.133125
0.080000 0.120313 0.150313
0.080000 0.120313 0.167500
0.080000 0.120313 0.184688
0.080000 0.120313 0.201875
0.080000 0.120313 0.219063
0.080000 0.120313 0.236250
0.080000 0.120313 0.253437
0.080000 0.120313 0.270625
0.080000 0.120313 0.287813
0.080000 0.120313 0.305000
0.080000 0.120313 0.322188
0.080000 0.120313 0.339375
0.080000 0.120313 0.356563
0.080000 0.120313 0.373750
0.080000 0.120313 0.390938
0.080000 0.120313 0.408125
0.080000 0.120313 0.425312
0.080000 0.120313 0.442500
0.080000 0.120313 0.459688
0.080000 0.120313 0.476875
0.080000 0.120313 0.494063
0.080000 0.120313 0.511250
0.080000 0.120313 0.528438
0.080000 0.120313 0.545625
0.080000 0.120313 0.562813
0.080000 0.120313 0.580000
0.080000 0.143750 0.030000
0.080000 0.143750 0.047188
0.080000 0.143750 0.064375
0.080000 0.143750 0.081563
0.080000 0.143750 0.098750
0.080000 0.143750 0.115937
0.080000 0.143750 0.133125
0.080000 0.143750 0.150313
0.080000 0.143750 0.167500
0.080000 0.143750 0.184688
0.080000 0.143750 0.201875
0.080000 0.143750 0.219063
0.080000 0.143750 0.236250
0.080000 0.143750 0.253437
0.080000 0.143750 0.270625
0.080000 0.143750 0.287813
0.080000 0.143750 0.305000
0.080000 0.143750 0.322188
0.080000 0.143750 0.339375
0.080000 0.143750 0.356563
0.080000 0.143750 0.373750
0.080000 0.143750 0.390938
0.080000 0.143750 0.408125
0.080000 0.143750 0.425312
0.080000 0.143750 0.442500
0.080000 0.143750 0.459688
0.080000 0.143750 0.476875
0.080000 0.143750 0.494063
0.080000 0.143750 0.511250
0.080000 0.143750 0.528438
0.080000 0.143750 0.545625
0.080000 0.143750 0.562813
0.080000 0.143750 0.580000
0.080000 0.167187 0.030000
0.080000 0.167187 0.047188
0.080000 0.167187 0.064375
0.080000 0.167187 0.081563
0.080000 0.167187 0.098750
0.080000 0.167187 0.115937
0.080000 0.167187 0.133125
0.080000 0.167187 0.150313
0.080000 0.167187 0.167500
0.080000 0.167187 0.184688
0.080000 0.167187 0.201875
0.080000 0.167187 0.219063
0.080000 0.167187 0.236250
0.080000 0.167187 0.253437
0.080000 0.167187 0.270625
0.080000 0.167187 0.287813
0.080000 0.167187 0.305000
0.080000 0.167187 0.322188
0.080000 0.167187 0.339375
0.080000 0.167187 0.356563
0.080000 0.167187 0.373750
0.080000 0.167187 0.390938
0.080000 0.167187 0.408125
0.080000 0.167187 0.425312
0.080000 0.167187 0.442500
0.080000 0.167187 0.459688
0.080000 0.167187 0.476875
0.080000 0.167187 0.494063
0.080000 0.167187 0.511250
0.080000 0.167187 0.528438
0.080000 0.167187 0.545625
0.080000 0.167187 0.562813
0.080000 0.167187 0.580000
0.080000 0.190625 0.030000
0.080000 0.190625 0.047188
0.080000 0.190625 0.064375
0.080000 0.190625 0.081563
0.080000 0.190625 0.098750
0.080000 0.190625 0.115937
0.080000 0.190625 0.133125
0.080000 0.190625 0.150313
0.080000 0.190625 0.167500
0.080000 0.190625 0.184688
0.080000 0.190625 0.201875
0.080000 0.190625 0.219063
0.080000 0.190625 0.236250
0.080000 0.190625 0.253437
0.080000 0.190625 0.270625
0.080000 0.190625 0.287813
0.080000 0.190625 0.305000
0.080000 0.190625 0.322188
0.080000 0.190625 0.339375
0.080000 0.190625 0.356563
0.080000 0.190625 0.373750
0.080000 0.190625 0.390938
0.080000 0.190625 0.408125
0.080000 0.190625 0.425312
0.080000 0.190625 0.442500
0.080000 0.190625 0.459688
0.080000 0.190625 0.476875
0.080000 0.190625 0.494063
0.080000 0.190625 0.511250
0.080000 0.190625 0.528438
0.080000 0.190625 0.545625
0.080000 0.190625 0.562813
0.080000 0.190625 0.580000
0.080000 0.214062 0.030000
0.080000 0.214062 0.047188
0.080000 0.214062 0.064375
0.080000 0.214062 0.081563
0.080000 0.214062 0.098750
0.080000 0.214062 0.115937
0.080000 0.214062 0.133125
0.080000 0.214062 0.150313
0.080000 0.214062 0.167500
0.080000 0.214062 0.184688
0.080000 0.214062 0.201875
0.080000 0.214062 0.219063
0.080000 0.214062 0.236250
0.080000 0.214062 0.253437
0.080000 0.214062 0.270625
0.080000 0.214062 0.287813
0.080000 0.214062 0.305000
0.080000 0.214062 0.322188
0.080000 0.214062 0.339375
0.080000 0.214062 0.356563
0.080000 0.214062 0.373750
0.080000 0.214062 0.390938
0.080000 0.214062 0.408125
0.080000 0.214062 0.425312
0.080000 0.214062 0.442500
0.080000 0.214062 0.459688
0.080000 0.214062 0.476875
0.080000 0.214062 0.494063
0.080000 0.214062 0.511250
0.080000 0.214062 0.528438
0.080000 0.214062 0.545625
0.080000 0.214062 0.562813
0.080000 0.214062 0.580000
0.080000 0.237500 0.030000
0.080000 0.237500 0.047188
0.080000 0.237500 0.064375
0.080000 0.237500 0.081563
0.080000 0.237500 0.098750
0.080000 0.237500 0.115937
0.080000 0.237500 0.133125
0.080000 0.237500 0.150313
0.080000 0.237500 0.167500
0.080000 0.237500 0.184688
0.080000 0.237500 0.201875
0.080000 0.237500 0.219063
0.080000 0.237500 0.236250
0.080000 0.237500 0.253437
0.080000 0.237500 0.270625
0.080000 0.237500 0.287813
0.080000 0.237500 0.305000
0.080000 0.237500 0.322188
0.080000 0.237500 0.339375
0.080000 0.237500 0.356563
0.080000 0.237500 0.373750
0.080000 0.237500 0.390938
0.080000 0.237500 0.408125
0.080000 0.237500 0.425312
0.080000 0.237500 0.442500
0.080000 0.237500 0.459688
0.080000 0.237500 0.476875
0.080000 0.237500 0.494063
0.080000 0.237500 0.511250
0.080000 0.237500 0.528438
0.080000 0.237500 0.545625
0.080000 0.237500 0.562813
0.080000 0.237500 0.580000
0.080000 0.260937 0.030000
0.080000 0.260937 0.047188
0.080000 0.260937 0.064375
0.080000 0.260937 0.081563
0.080000 0.260937 0.098750
0.080000 0.260937 0.115937
0.080000 0.260937 0.133125
0.080000 0.260937 0.150313
0.080000 0.260937 0.167500
0.080000 0.260937 0.184688
0.080000 0.260937 0.201875
0.080000 0.260937 0.219063
0.080000 0.260937 0.236250
0.080000 0.260937 0.253437
0.080000 0.260937 0.270625
0.080000 0.260937 0.287813
0.080000 0.260937 0.305000
0.080000 0.260937 0.322188
0.080000 0.260937 0.339375
0.080000 0.260937 0.356563
0.080000 0.260937 0.373750
0.080000 0.260937 0.390938
0.080000 0.260937 0.408125
0.080000 0.260937 0.425312
0.080000 0.260937 0.442500
0.080000 0.260937 0.459688
0.080000 0.260937 0.476875
0.080000 0.260937 0.494063
0.080000 0.260937 0.511250
0.080000 0.260937 0.528438
0.080000 0.260937 0.545625
0.080000 0.260937 0.562813
0.080000 0.260937 0.580000
0.080000 0.284375 0.030000
0.080000 0.284375 0.047188
0.080000 0.284375 0.064375
0.080000 0.284375 0.081563
0.080000 0.284375 0.098750
0.080000 0.284375 0.115937
0.080000 0.284375 0.133125
0.080000 0.284375 0.150313
0.080000 0.284375 0.167500
0.080000 0.284375 0.184688
0.080000 0.284375 0.201875
0.080000 0.284375 0.219063
0.080000 0.284375 0.236250
0.080000 0.284375 0.253437
0.080000 0.284375 0.270625
0.080000 0.284375 0.287813
0.080000 0.284375 0.305000
0.080000 0.284375 0.322188
0.080000 0.284375 0.339375
0.080000 0.284375 0.356563
0.080000 0.284375 0.373750
0.080000 0.284375 0.390938
0.080000 0.284375 0.408125
0.080000 0.284375 0.425312
0.080000 0.284375 0.442500
0.080000 0.284375 0.459688
0.080000 0.284375 0.476875
0.080000 0.284375 0.494063
0.080000 0.284375 0.511250
0.080000 0.284375 0.528438
0.080000 0.284375 0.545625
0.080000 0.284375 0.562813
0.080000 0.284375 0.580000
0.080000 0.307812 0.030000
0.080000 0.307812 0.047188
0.080000 0.307812 0.064375
0.080000 0.307812 0.081563
0.080000 0.307812 0.098750
0.080000 0.307812 0.115937
0.080000 0.307812 0.133125
0.080000 0.307812 0.150313
0.080000 0.307812 0.167500
0.080000 0.307812 0.184688
0.080000 0.307812 0.201875
0.080000 0.307812 0.219063
0.080000 0.307812 0.236250
0.080000 0.307812 0.253437
0.080000 0.307812 0.270625
0.080000 0.307812 0.287813
0.080000 0.307812 0.305000
0.080000 0.307812 0.322188
0.080000 0.307812 0.339375
0.080000 0.307812 0.356563
0.080000 0.307812 0.373750
0.080000 0.307812 0.390938
0.080000 0.307812 0.408125
0.080000 0.307812 0.425312
0.080000 0.307812 0.442500
0.080000 0.307812 0.459688
0.080000 0.307812 0.476875
0.080000 0.307812 0.494063
0.080000 0.307812 0.511250
0.080000 0.307812 0.528438
0.080000 0.307812 0.545625
0.080000 0.307812 0.562813
0.080000 0.307812 0.580000
0.080000 0.331250 0.030000
0.080000 0.331250 0.047188
0.080000 0.331250 0.064375
0.080000 0.331250 0.081563
0.080000 0.331250 0.098750
0.080000 0.331250 0.115937
0.080000 0.331250 0.133125
0.080000 0.331250 0.150313
0.080000 0.331250 0.167500
0.080000 0.331250 0.184688
0.080000 0.331250 0.201875
0.080000 0.331250 0.219063
0.080000 0.331250 0.236250
0.080000 0.331250 0.253437
0.080000 0.331250 0.270625
0.080000 0.331250 0.287813
0.080000 0.331250 0.305000
0.080000 0.331250 0.322188
0.080000 0.331250 0.339375
0.080000 0.331250 0.356563
0.080000 0.331250 0.373750
0.080000 0.331250 0.390938
0.080000 0.331250 0.408125
0.080000 0.331250 0.425312
0.080000 0.331250 0.442500
0.080000 0.331250 0.459688
0.080000 0.331250 0.476875
0.080000 0.331250 0.494063
0.080000 0.331250 0.511250
0.080000 0.331250 0.528438
0.080000 0.331250 0.545625
0.080000 0.331250 0.562813
0.080000 0.331250 0.580000
0.080000 0.354687 0.030000
0.080000 0.354687 0.047188
0.080000 0.354687 0.064375
0.080000 0.354687 0.081563
0.080000 0.354687 0.098750
0.080000 0.354687 0.115937
0.080000 0.354687 0.133125
0.080000 0.354687 0.150313
0.080000 0.354687 0.167500
0.080000 0.354687 0.184688
0.080000 0.354687 0.201875
0.080000 0.354687 0.219063
0.080000 0.354687 0.236250
0.080000 0.354687 0.253437
0.080000 0.354687 0.270625
0.080000 0.354687 0.287813
0.080000 0.354687 0.305000
0.080000 0.354687 0.322188
0.080000 0.354687 0.339375
0.080000 0.354687 0.356563
0.080000 0.354687 0.373750
0.080000 0.354687 0.390938
0.080000 0.354687 0.408125
0.080000 0.354687 0.425312
0.080000 0.354687 0.442500
0.080000 0.354687 0.459688
0.080000 0.354687 0.476875
0.080000 0.354687 0.494063
0.080000 0.354687 0.511250
0.080000 0.354687 0.528438
0.080000 0.354687 0.545625
0.080000 0.354687 0.562813
0.080000 0.354687 0.580000
0.080000 0.378125 0.030000
0.080000 0.378125 0.047188
0.080000 0.378125 0.064375
0.080000 0.378125 0.081563
0.080000 0.378125 0.098750
0.080000 0.378125 0.115937
0.080000 0.378125 0.133125
0.080000 0.378125 0.150313
0.080000 0.378125 0.167500
0.080000 0.378125 0.184688
0.080000 0.378125 0.201875
0.080000 0.378125 0.219063
0.080000 0.378125 0.236250
0.080000 0.378125 0.253437
0.080000 0.378125 0.270625
0.080000 0.378125 0.287813
0.080000 0.378125 0.305000
0.080000 0.378125 0.322188
0.080000 0.378125 0.339375
0.080000 0.378125 0.356563
0.080000 0.378125 0.373750
0.080000 0.378125 0.390938
0.080000 0.378125 0.408125
0.080000 0.378125 0.425312
0.080000 0.378125 0.442500
0.080000 0.378125 0.459688
0.080000 0.378125 0.476875
0.080000 0.378125 0.494063
0.080000 0.378125 0.511250
0.080000 0.378125 0.528438
0.080000 0.378125 0.545625
0.080000 0.378125 0.562813
0.080000 0.378125 0.580000
0.080000 0.401562 0.030000
0.080000 0.401562 0.047188
0.080000 0.401562 0.064375
0.080000 0.401562 0.081563
0.080000 0.401562 0.098750
0.080000 0.401562 0.115937
0.080000 0.401562 0.133125
0.080000 0.401562 0.150313
0.080000 0.401562 0.167500
0.080000 0.401562 0.184688
0.080000 0.401562 0.201875
0.080000 0.401562 0.219063
0.080000 0.401562 0.236250
0.080000 0.401562 0.253437
0.080000 0.401562 0.270625
0.080000 0.401562 0.287813
0.080000 0.401562 0.305000
0.080000 0.401562 0.322188
0.080000 0.401562 0.339375
0.080000 0.401562 0.356563
0.080000 0.401562 0.373750
0.080000 0.401562 0.390938
0.080000 0.401562 0.408125
0.080000 0.401562 0.425312
0.080000 0.401562 0.442500
0.080000 0.401562 0.459688
0.080000 0.401562 0.476875
0.080000 0.401562 0.494063
0.080000 0.401562 0.511250
0.080000 0.401562 0.528438
0.080000 0.401562 0.545625
0.080000 0.401562 0.562813
0.080000 0.401562 0.580000
0.080000 0.425000 0.030000
0.080000 0.425000 0.047188
0.080000 0.425000 0.064375
0.080000 0.425000 0.081563
0.080000 0.425000 0.098750
0.080000 0.425000 0.115937
0.080000 0.425000 0.133125
0.080000 0.425000 0.150313
0.080000 0.425000 0.167500
0.080000 0.425000 0.184688
0.080000 0.425000 0.201875
0.080000 0.425000 0.219063
0.080000 0.425000 0.236250
0.080000 0.425000 0.253437
0.080000 0.425000 0.270625
0.080000 0.425000 0.287813
0.080000 0.425000 0.305000
0.080000 0.425000 0.322188
0.080000 0.425000 0.339375
0.080000 0.425000 0.356563
0.080000 0.425000 0.373750
0.080000 0.425000 0.390938
0.080000 0.425000 0.408125
0.080000 0.425000 0.425312
0.080000 0.425000 0.442500
0.080000 0.425000 0.459688
0.080000 0.425000 0.476875
0.080000 0.425000 0.494063
0.080000 0.425000 0.511250
0.080000 0.425000 0.528438
0.080000 0.425000 0.545625
0.080000 0.425000 0.562813
0.080000 0.425000 0.580000
0.080000 0.448437 0.030000
0.080000 0.448437 0.047188
0.080000 0.448437 0.064375
0.080000 0.448437 0.081563
0.080000 0.448437 0.098750
0.080000 0.448437 0.115937
0.080000 0.448437 0.133125
0.080000 0.448437 0.150313
0.080000 0.448437 0.167500
0.080000 0.448437 0.184688
0.080000 0.448437 0.201875
0.080000 0.448437 0.219063
0.080000 0.448437 0.236250
0.080000 0.448437 0.253437
0.080000 0.448437 0.270625
0.080000 0.448437 0.287813
0.080000 0.448437 0.305000
0.080000 0.448437 0.322188
0.080000 0.448437 0.339375
0.080000 0.448437 0.356563
0.080000 0.448437 0.373750
0.080000 0.448437 0.390938
0.080000 0.448437 0.408125
0.080000 0.448437 0.425312
0.080000 0.448437 0.442500
0.080000 0.448437 0.459688
0.080000 0.448437 0.476875
0.080000 0.448437 0.494063
0.080000 0.448437 0.511250
0.080000 0.448437 0.528438
0.080000 0.448437 0.545625
0.080000 0.448437 0.562813
0.080000 0.448437 0.580000
0.080000 0.471875 0.030000
0.080000 0.471875 0.047188
0.080000 0.471875 0.064375
0.080000 0.471875 0.081563
0.080000 0.471875 0.098750
0.080000 0.471875 0.115937
0.080000 0.471875 0.133125
0.080000 0.471875 0.150313
0.080000 0.471875 0.167500
0.080000 0.471875 0.184688
0.080000 0.471875 0.201875
0.080000 0.471875 0.219063
0.080000 0.471875 0.236250
0.080000 0.471875 0.253437
0.080000 0.471875 0.270625
0.080000 0.471875 0.287813
0.080000 0.471875 0.305000
0.080000 0.471875 0.322188
0.080000 0.471875 0.339375
0.080000 0.471875 0.356563
0.080000 0.471875 0.373750
0.080000 0.471875 0.390938
0.080000 0.471875 0.408125
0.080000 0.471875 0.425312
0.080000 0.471875 0.442500
0.080000 0.471875 0.459688
0.080000 0.471875 0.476875
0.080000 0.471875 0.494063
0.080000 0.471875 0.511250
0.080000 0.471875 0.528438
0.080000 0.471875 0.545625
0.080000 0.471875 0.562813
0.080000 0.471875 0.580000
0.080000 0.495312 0.030000
0.080000 0.495312 0.047188
0.080000 0.495312 0.064375
0.080000 0.495312 0.081563
0.080000 0.495312 0.098750
0.080000 0.495312 0.115937
0.080000 0.495312 0.133125
0.080000 0.495312 0.150313
0.080000 0.495312 0.167500
0.080000 0.495312 0.184688
0.080000 0.495312 0.201875
0.080000 0.495312 0.219063
0.080000 0.495312 0.236250
0.080000 0.495312 0.253437
0.080000 0.495312 0.270625
0.080000 0.495312 0.287813
0.080000 0.495312 0.305000
0.080000 0.495312 0.322188
0.080000 0.495312 0.339375
0.080000 0.495312 0.356563
0.080000 0.495312 0.373750
0.080000 0.495312 0.390938
0.080000 0.495312 0.408125
0.080000 0.495312 0.425312
0.080000 0.495312 0.442500
0.080000 0.495312 0.459688
0.080000 0.495312 0.476875
0.080000 0.495312 0.494063
0.080000 0.495312 0.511250
0.080000 0.495312 0.528438
0.080000 0.495312 0.545625
0.080000 0.495312 0.562813
0.080000 0.495312 0.580000
0.080000 0.518750 0.030000
0.080000 0.518750 0.047188
0.080000 0.518750 0.064375
0.080000 0.518750 0.081563
0.080000 0.518750 0.098750
0.080000 0.518750 0.115937
0.080000 0.518750 0.133125
0.080000 0.518750 0.150313
0.080000 0.518750 0.167500
0.080000 0.518750 0.184688
0.080000 0.518750 0.201875
0.080000 0.518750 0.219063
0.080000 0.518750 0.236250
0.080000 0.518750 0.253437
0.080000 0.518750 0.270625
0.080000 0.518750 0.287813
0.080000 0.518750 0.305000
0.080000 0.518750 0.322188
0.080000 0.518750 0.339375
0.080000 0.518750 0.356563
0.080000 0.518750 0.373750
0.080000 0.518750 0.390938
0.080000 0.518750 0.408125
0.080000 0.518750 0.425312
0.080000 0.518750 0.442500
0.080000 0.518750 0.459688
0.080000 0.518750 0.476875
0.080000 0.518750 0.494063
0.080000 0.518750 0.511250
0.080000 0.518750 0.528438
0.080000 0.518750 0.545625
0.080000 0.518750 0.562813
0.080000 0.518750 0.580000
0.080000 0.542188 0.030000
0.080000 0.542188 0.047188
0.080000 0.542188 0.064375
0.080000 0.542188 0.081563
0.080000 0.542188 0.098750
0.080000 0.542188 0.115937
0.080000 0.542188 0.133125
0.080000 0.542188 0.150313
0.080000 0.542188 0.167500
0.080000 0.542188 0.184688
0.080000 0.542188 0.201875
0.080000 0.542188 0.219063
0.080000 0.542188 0.236250
0.080000 0.542188 0.253437
0.080000 0.542188 0.270625
0.080000 0.542188 0.287813
0.080000 0.542188 0.305000
0.080000 0.542188 0.322188
0.080000 0.542188 0.339375
0.080000 0.542188 0.356563
0.080000 0.542188 0.373750
0.080000 0.542188 0.390938
0.080000 0.542188 0.408125
0.080000 0.542188 0.425312
0.080000 0.542188 0.442500
0.080000 0.542188 0.459688
0.080000 0.542188 0.476875
0.080000 0.542188 0.494063
0.080000 0.542188 0.511250
0.080000 0.542188 0.528438
0.080000 0.542188 0.545625
0.080000 0.542188 0.562813
0.080000 0.542188 0.580000
0.080000 0.565625 0.030000
0.080000 0.565625 0.047188
0.080000 0.565625 0.064375
0.080000 0.565625 0.081563
0.080000 0.565625 0.098750
0.080000 0.565625 0.115937
0.080000 0.565625 0.133125
0.080000 0.565625 0.150313
0.080000 0.565625 0.167500
0.080000 0.565625 0.184688
0.080000 0.565625 0.201875
0.080000 0.565625 0.219063
0.080000 0.565625 0.236250
0.080000 0.565625 0.253437
0.080000 0.565625 0.270625
0.080000 0.565625 0.287813
0.080000 0.565625 0.305000
0.080000 0.565625 0.322188
0.080000 0.565625 0.339375
0.080000 0.565625 0.356563
0.080000 0.565625 0.373750
0.080000 0.565625 0.390938
0.080000 0.565625 0.408125
0.080000 0.565625 0.425312
0.080000 0.565625 0.442500
0.080000 0.565625 0.459688
0.080000 0.565625 0.476875
0.080000 0.565625 0.494063
0.080000 0.565625 0.511250
0.080000 0.565625 0.528438
0.080000 0.565625 0.545625
0.080000 0.565625 0.562813
0.080000 0.565625 0.580000
0.080000 0.589063 0.030000
0.080000 0.589063 0.047188
0.080000 0.589063 0.064375
0.080000 0.589063 0.081563
0.080000 0.589063 0.098750
0.080000 0.589063 0.115937
0.080000 0.589063 0.133125
0.080000 0.589063 0.150313
0.080000 0.589063 0.167500
0.080000 0.589063 0.184688
0.080000 0.589063 0.201875
0.080000 0.589063 0.219063
0.080000 0.589063 0.236250
0.080000 0.589063 0.253437
0.080000 0.589063 0.270625
0.080000 0.589063 0.287813
0.080000 0.589063 0.305000
0.080000 0.589063 0.322188
0.080000 0.589063 0.339375
0.080000 0.589063 0.356563
0.080000 0.589063 0.373750
0.080000 0.589063 0.390938
0.080000 0.589063 0.408125
0.080000 0.589063 0.425312
0.080000 0.589063 0.442500
0.080000 0.589063 0.459688
0.080000 0.589063 0.476875
0.080000 0.589063 0.494063
0.080000 0.589063 0.511250
0.080000 0.589063 0.528438
0.080000 0.589063 0.545625
0.080000 0.589063 0.562813
0.080000 0.589063 0.580000
0.080000 0.612500 0.030000
0.080000 0.612500 0.047188
0.080000 0.612500 0.064375
0.080000 0.612500 0.081563
0.080000 0.612500 0.098750
0.080000 0.612500 0.115937
0.080000 0.612500 0.133125
0.080000 0.612500 0.150313
0.080000 0.612500 0.167500
0.080000 0.612500 0.184688
0.080000 0.612500 0.201875
0.080000 0.612500 0.219063
0.080000 0.612500 0.236250
0.080000 0.612500 0.253437
0.080000 0.612500 0.270625
0.080000 0.612500 0.287813
0.080000 0.612500 0.305000
0.080000 0.612500 0.322188
0.080000 0.612500 0.339375
0.080000 0.612500 0.356563
0.080000 0.612500 0.373750
0.080000 0.612500 0.390938
0.080000 0.612500 0.408125
0.080000 0.612500 0.425312
0.080000 0.612500 0.442500
0.080000 0.612500 0.459688
0.080000 0.612500 0.476875
0.080000 0.612500 0.494063
0.080000 0.612500 0.511250
0.080000 0.612500 0.528438
0.080000 0.612500 0.545625
0.080000 0.612500 0.562813
0.080000 0.612500 0.580000
0.080000 0.635938 0.030000
0.080000 0.635938 0.047188
0.080000 0.635938 0.064375
0.080000 0.635938 0.081563
0.080000 0.635938 0.098750
0.080000 0.635938 0.115937
0.080000 0.635938 0.133125
0.080000 0.635938 0.150313
0.080000 0.635938 0.167500
0.080000 0.635938 0.184688
0.080000 0.635938 0.201875
0.080000 0.635938 0.219063
0.080000 0.635938 0.236250
0.080000 0.635938 0.253437
0.080000 0.635938 0.270625
0.080000 0.635938 0.287813
0.080000 0.635938 0.305000
0.080000 0.635938 0.322188
0.080000 0.635938 0.339375
0.080000 0.635938 0.356563
0.080000 0.635938 0.373750
0.080000 0.635938 0.390938
0.080000 0.635938 0.408125
0.080000 0.635938 0.425312
0.080000 0.635938 0.442500
0.080000 0.635938 0.459688
0.080000 0.635938 0.476875
0.080000 0.635938 0.494063
0.080000 0.635938 0.511250
0.080000 0.635938 0.528438
0.080000 0.635938 0.545625
0.080000 0.635938 0.562813
0.080000 0.635938 0.580000
0.080000 0.659375 0.030000
0.080000 0.659375 0.047188
0.080000 0.659375 0.064375
0.080000 0.659375 0.081563
0.080000 0.659375 0.098750
0.080000 0.659375 0.115937
0.080000 0.659375 0.133125
0.080000 0.659375 0.150313
0.080000 0.659375 0.167500
0.080000 0.659375 0.184688
0.080000 0.659375 0.201875
0.080000 0.659375 0.219063
0.080000 0.659375 0.236250
0.080000 0.659375 0.253437
0.080000 0.659375 0.270625
0.080000 0.659375 0.287813
0.080000 0.659375 0.305000
0.080000 0.659375 0.322188
0.080000 0.659375 0.339375
0.080000 0.659375 0.356563
0.080000 0.659375 0.373750
0.080000 0.659375 0.390938
0.080000 0.659375 0.408125
0.080000 0.659375 0.425312
0.080000 0.659375 0.442500
0.080000 0.659375 0.459688
0.080000 0.659375 0.476875
0.080000 0.659375 0.494063
0.080000 0.659375 0.511250
